%
(Header)
(Generated by gcodetools from Inkscape.)
(Using default header. To add your own header create file "header" in the output dir.)
M3
(Header end.)
G21 (All units in mm)

(Start cutting path id: path395)
(Change tool to Cylindrical cutter)

G00 Z5.000000
G00 X1.542586 Y0.996830

G01 Z-1.000000 F100.0(Penetrate)
G02 X0.752055 Y1.698253 Z-1.000000 I3.732541 J5.002907 F400.000000
G02 X0.662586 Y1.922160 Z-1.000000 I0.235441 J0.223907
G02 X1.361333 Y2.333763 Z-1.000000 I0.470603 J-0.000000
G02 X2.701316 Y0.792140 Z-1.000000 I-1.447344 J-2.611204
G02 X2.521308 Y0.573866 Z-1.000000 I-0.151735 J-0.058228
G02 X1.542586 Y0.996830 Z-1.000000 I0.401515 J2.272934
G01 X1.542586 Y0.996830 Z-1.000000
G00 Z5.000000

(End cutting path id: path395)


(Start cutting path id: path395)
(Change tool to Cylindrical cutter)

G00 Z5.000000
G00 X5.462586 Y0.978890

G01 Z-1.000000 F100.0(Penetrate)
G02 X5.564427 Y1.135103 Z-1.000000 I0.170727 J0.000000 F400.000000
G02 X5.782586 Y1.120000 Z-1.000000 I0.094730 J-0.214822
G02 X6.056663 Y0.896633 Z-1.000000 I-0.715561 J-1.157844
G02 X6.102586 Y0.781110 Z-1.000000 I-0.122342 J-0.115523
G02 X6.046903 Y0.695696 Z-1.000000 I-0.093351 J-0.000000
G02 X5.782586 Y0.640000 Z-1.000000 I-0.264317 J0.599340
G02 X5.558982 Y0.736396 Z-1.000000 I0.000000 J0.307536
G02 X5.462586 Y0.978890 Z-1.000000 I0.256808 J0.242494
G01 X5.462586 Y0.978890 Z-1.000000
G00 Z5.000000

(End cutting path id: path395)


(Start cutting path id: path395)
(Change tool to Cylindrical cutter)

G00 Z5.000000
G00 X5.238006 Y3.912290

G01 Z-1.000000 F100.0(Penetrate)
G02 X4.789747 Y4.792230 Z-1.000000 I2.090741 J1.619211 F400.000000
G02 X4.941216 Y4.931610 Z-1.000000 I0.110308 J0.032118
G02 X5.758034 Y4.226256 Z-1.000000 I-0.570209 J-1.485942
G02 X5.675716 Y3.626490 Z-1.000000 I-0.436456 J-0.245628
G02 X5.560705 Y3.614548 Z-1.000000 I-0.064860 J0.064860
G02 X5.238006 Y3.912290 Z-1.000000 I0.723316 J1.107693
G01 X5.238006 Y3.912290 Z-1.000000
G00 Z5.000000

(End cutting path id: path395)


(Start cutting path id: path395)
(Change tool to Cylindrical cutter)

G00 Z5.000000
G00 X4.914506 Y6.799980

G01 Z-1.000000 F100.0(Penetrate)
G02 X2.154941 Y10.640409 Z-1.000000 I14.734557 J13.499275 F400.000000
G02 X2.485186 Y11.199980 Z-1.000000 I0.330245 J0.182334
G02 X2.698716 Y11.085812 Z-1.000000 I0.000000 J-0.256770
G02 X3.658426 Y9.443180 Z-1.000000 I-13.181208 J-8.802803
G03 X4.619795 Y7.751094 Z-1.000000 I18.108687 J9.169416
G03 X4.925276 Y7.443180 Z-1.000000 I0.851719 J0.539498
G02 X6.032210 Y6.376684 Z-1.000000 I-2.157073 J-3.346563
G02 X5.877546 Y6.079980 Z-1.000000 I-0.154664 J-0.108041
G02 X5.612871 Y6.167982 Z-1.000000 I0.000000 J0.442020
G02 X4.914506 Y6.799980 Z-1.000000 I3.018078 J4.036862
G01 X4.914506 Y6.799980 Z-1.000000
G00 Z5.000000

(End cutting path id: path395)


(Start cutting path id: path395)
(Change tool to Cylindrical cutter)

G00 Z5.000000
G00 X3.462816 Y6.814180

G01 Z-1.000000 F100.0(Penetrate)
G02 X2.744649 Y7.615305 Z-1.000000 I2.297021 J2.781619 F400.000000
G02 X2.158426 Y8.800020 Z-1.000000 I4.551350 J2.989506
G03 X1.696440 Y10.075239 Z-1.000000 I-65.568426 J-23.032772
G03 X1.471446 Y10.640020 Z-1.000000 I-13.078966 J-4.883133
G02 X1.410748 Y11.083019 Z-1.000000 I0.786787 J0.333459
G02 X1.543846 Y11.200020 Z-1.000000 I0.133097 J-0.017203
G02 X1.778662 Y11.078433 Z-1.000000 I0.000000 J-0.287541
G02 X2.618086 Y9.680020 Z-1.000000 I-8.933398 J-6.313581
G03 X3.416479 Y8.179699 Z-1.000000 I32.945384 J16.569242
G03 X3.977456 Y7.261590 Z-1.000000 I12.886816 J7.243575
G02 X3.917399 Y6.819940 Z-1.000000 I-0.281785 J-0.186591
G02 X3.462786 Y6.814180 Z-1.000000 I-0.230705 J0.265387
G01 X3.462816 Y6.814180 Z-1.000000
G00 Z5.000000

(End cutting path id: path395)


(Start cutting path id: path395)
(Change tool to Cylindrical cutter)

G00 Z5.000000
G00 X7.614006 Y8.640050

G01 Z-1.000000 F100.0(Penetrate)
G02 X7.452546 Y9.447461 Z-1.000000 I5.355809 J1.490862 F400.000000
G02 X7.415806 Y10.240050 Z-1.000000 I5.123124 J0.634627
G02 X7.533934 Y10.293927 Z-1.000000 I0.072361 J-0.002217
G02 X7.748806 Y9.968360 Z-1.000000 I-0.413135 J-0.506357
G02 X7.968690 Y8.893368 Z-1.000000 I-6.721760 J-1.934888
G02 X7.947006 Y8.368360 Z-1.000000 I-1.591931 J-0.197200
G02 X7.820807 Y8.323684 Z-1.000000 I-0.076677 J0.016017
G02 X7.614006 Y8.640050 Z-1.000000 I0.394763 J0.483822
G01 X7.614006 Y8.640050 Z-1.000000
G00 Z5.000000

(End cutting path id: path395)


(Start cutting path id: path395)
(Change tool to Cylindrical cutter)

G00 Z5.000000
G00 X8.182586 Y3.440570

G01 Z-1.000000 F100.0(Penetrate)
G03 X4.099713 Y10.957642 Z-1.000000 I-167.114699 J-85.900447 F400.000000
G03 X3.837116 Y11.024260 Z-1.000000 I-0.163519 J-0.093696
G02 X3.620107 Y11.010637 Z-1.000000 I-0.121245 J0.196144
G02 X3.355246 Y11.244220 Z-1.000000 I0.252662 J0.553450
G02 X3.368425 Y11.374166 Z-1.000000 I0.091239 J0.056387
G02 X3.493136 Y11.390560 Z-1.000000 I0.072402 J-0.068227
G03 X3.809300 Y11.257807 Z-1.000000 I0.580046 J0.938567
G01 X3.862586 Y11.299560 Z-1.000000
G03 X3.790581 Y11.627468 Z-1.000000 I-0.782642 J-0.000000
G03 X2.615134 Y14.083461 Z-1.000000 I-87.875902 J-40.548402
G03 X1.373122 Y16.495217 Z-1.000000 I-80.419649 J-39.889045
G03 X1.278516 Y16.509260 Z-1.000000 I-0.052510 J-0.028053
G01 X1.201074 Y16.528000 Z-1.000000
G02 X1.099576 Y17.066660 Z-1.000000 I2.104753 J0.675488
G03 X1.033647 Y17.757410 Z-1.000000 I-10.467540 J-0.650550
G03 X0.845026 Y19.040000 Z-1.000000 I-36.173178 J-4.664574
G01 X0.633476 Y20.320000 Z-1.000000
G01 X1.118356 Y19.360000 Z-1.000000
G03 X1.436564 Y18.955381 Z-1.000000 I1.163737 J0.587772
G03 X1.532906 Y19.006800 Z-1.000000 I0.038055 J0.044664
G02 X1.621246 Y19.514053 Z-1.000000 I0.900749 J0.104449
G02 X1.911106 Y19.769640 Z-1.000000 I0.457726 J-0.226947
G02 X2.133169 Y19.680562 Z-1.000000 I0.059868 J-0.172085
G02 X2.180946 Y19.242400 Z-1.000000 I-0.550454 J-0.281707
G03 X2.198351 Y18.824416 Z-1.000000 I0.690594 J-0.180597
G03 X2.346806 Y18.772050 Z-1.000000 I0.095320 J0.033613
G02 X2.483424 Y18.734006 Z-1.000000 I0.050743 J-0.082104
G02 X2.497166 Y18.478980 Z-1.000000 I-0.278501 J-0.142890
G03 X2.505901 Y18.063474 Z-1.000000 I0.513527 J-0.197049
G03 X2.798826 Y17.782700 Z-1.000000 I0.480235 J0.207829
G02 X3.022815 Y17.521325 Z-1.000000 I-0.129597 J-0.337723
G02 X2.933796 Y17.157620 Z-1.000000 I-0.418394 J-0.090341
G03 X2.831039 Y16.723447 Z-1.000000 I0.386447 J-0.320707
G03 X3.211256 Y15.961400 Z-1.000000 I1.782303 J0.413387
G03 X3.830415 Y15.556514 Z-1.000000 I0.978278 J0.820142
G03 X4.171176 Y15.680000 Z-1.000000 I0.086199 J0.294042
G02 X4.416985 Y15.903295 Z-1.000000 I0.573187 J-0.384036
G02 X4.497676 Y15.856000 Z-1.000000 I0.025969 J-0.048176
G03 X4.590795 Y15.769832 Z-1.000000 I0.087787 J0.001469
G03 X4.826596 Y15.876000 Z-1.000000 I-0.022157 J0.364153
G03 X4.956065 Y16.241008 Z-1.000000 I-0.318404 J0.318404
G03 X4.661776 Y17.460000 Z-1.000000 I-4.695647 J-0.488604
G03 X4.407990 Y17.902593 Z-1.000000 I-1.585742 J-0.615217
G01 X4.336396 Y17.869710 Z-1.000000
G03 X4.529532 Y17.027793 Z-1.000000 I11.923473 J2.292142
G03 X4.721126 Y16.429710 Z-1.000000 I6.201349 J1.656848
G02 X4.636521 Y16.261229 Z-1.000000 I-0.120223 J-0.045112
G02 X4.341066 Y16.319980 Z-1.000000 I-0.090938 J0.314971
G03 X4.075688 Y16.412909 Z-1.000000 I-0.265378 J-0.332458
G03 X4.022586 Y16.319980 Z-1.000000 I-0.000000 J-0.061636
G02 X3.976400 Y16.222107 Z-1.000000 I-0.056386 J-0.033226
G02 X3.764006 Y16.279180 Z-1.000000 I-0.042125 J0.266977
G02 X3.438799 Y16.710863 Z-1.000000 I0.705667 J0.869950
G02 X3.542586 Y16.800000 Z-1.000000 I0.066053 J0.028082
G03 X3.753237 Y16.928701 Z-1.000000 I0.072737 J0.117690
G03 X3.361806 Y19.064090 Z-1.000000 I-10.666321 J-0.851638
G02 X2.989902 Y20.798105 Z-1.000000 I11.897272 J3.458563
G02 X2.972566 Y21.833340 Z-1.000000 I4.181802 J0.587792
G02 X3.154922 Y21.908294 Z-1.000000 I0.111465 J-0.011879
G02 X3.454356 Y21.440000 Z-1.000000 I-0.563456 J-0.690158
G01 X3.824606 Y20.000000 Z-1.000000
G01 X3.776606 Y21.346370 Z-1.000000
G02 X3.827429 Y22.653891 Z-1.000000 I8.786048 J0.313237
G02 X3.955596 Y22.919700 Z-1.000000 I0.444695 J-0.050617
G02 X4.084022 Y22.904291 Z-1.000000 I0.058159 J-0.058159
G02 X4.190646 Y22.533330 Z-1.000000 I-0.625607 J-0.380619
G03 X4.325736 Y21.481159 Z-1.000000 I4.647692 J0.061967
G03 X6.080376 Y14.880000 Z-1.000000 I186.843413 J46.130674
G03 X6.197623 Y14.892144 Z-1.000000 I0.057554 J0.016397
G03 X6.228586 Y16.960000 Z-1.000000 I-18.374671 J1.309286
G02 X6.201491 Y19.600463 Z-1.000000 I42.665580 J1.758169
G01 X6.283586 Y19.617980 Z-1.000000
G03 X6.530316 Y19.401373 Z-1.000000 I0.373075 J0.176133
G03 X6.923226 Y19.412210 Z-1.000000 I0.181079 J0.562878
G02 X7.170177 Y19.279504 Z-1.000000 I0.066297 J-0.172757
G02 X7.382546 Y17.340410 Z-1.000000 I-8.746555 J-1.939094
G03 X7.461200 Y15.106925 Z-1.000000 I31.750692 J0.000000
G03 X7.576786 Y14.586170 Z-1.000000 I1.804060 J0.127221
G02 X7.588243 Y14.205615 Z-1.000000 I-0.538550 J-0.206665
G02 X7.416786 Y14.080000 Z-1.000000 I-0.171458 J0.054208
G02 X7.213000 Y14.236088 Z-1.000000 I0.000000 J0.211074
G02 X7.006646 Y15.600000 Z-1.000000 I5.885225 J1.587976
G01 X6.950746 Y17.120000 Z-1.000000
G01 X6.826456 Y15.680000 Z-1.000000
G02 X6.274916 Y14.542127 Z-1.000000 I-1.763588 J0.152226
G02 X5.751886 Y14.670440 Z-1.000000 I-0.219847 J0.234004
G03 X5.293604 Y15.343834 Z-1.000000 I-1.484041 J-0.517332
G03 X4.966706 Y15.346840 Z-1.000000 I-0.165227 J-0.191799
G03 X4.704466 Y14.945255 Z-1.000000 I0.518939 J-0.625288
G03 X4.711766 Y14.456600 Z-1.000000 I0.811081 J-0.232266
G02 X4.666413 Y14.354318 Z-1.000000 I-0.080268 J-0.025604
G02 X4.553866 Y14.384700 Z-1.000000 I-0.037904 J0.083240
G02 X4.356449 Y14.853548 Z-1.000000 I0.961522 J0.680853
G02 X4.413116 Y15.154140 Z-1.000000 I0.419002 J0.076648
G03 X4.382753 Y15.240185 Z-1.000000 I-0.049828 J0.030797
G03 X4.218986 Y15.222540 Z-1.000000 I-0.063434 J-0.180051
G03 X4.006431 Y14.923200 Z-1.000000 I0.247946 J-0.401196
G03 X4.031106 Y14.373100 Z-1.000000 I1.035941 J-0.229137
G02 X3.850703 Y14.248287 Z-1.000000 I-0.109363 J-0.034711
G02 X3.083726 Y15.120030 Z-1.000000 I1.990294 J2.524374
G03 X2.319566 Y16.290510 Z-1.000000 I-15.597197 J-9.348101
G01 X2.265586 Y16.273750 Z-1.000000
G03 X2.630664 Y14.711608 Z-1.000000 I3.320766 J-0.047656
G03 X6.658766 Y7.700920 Z-1.000000 I74.998360 J38.428948
G02 X7.757658 Y5.897254 Z-1.000000 I-39.893506 J-25.541911
G02 X8.245986 Y4.960000 Z-1.000000 I-10.260740 J-5.941882
G01 X8.692956 Y4.000000 Z-1.000000
G01 X8.498366 Y4.960000 Z-1.000000
G02 X8.155453 Y7.317161 Z-1.000000 I21.033039 J4.263344
G02 X8.284346 Y7.360000 Z-1.000000 I0.069505 J0.006198
G02 X8.513660 Y6.854454 Z-1.000000 I-1.865563 J-1.150996
G02 X8.786796 Y5.729200 Z-1.000000 I-9.113055 J-2.807810
G03 X9.077407 Y4.605739 Z-1.000000 I7.547750 J1.353098
G03 X9.627836 Y3.264650 Z-1.000000 I11.326252 J3.865178
G02 X10.104545 Y1.869025 Z-1.000000 I-5.504100 J-2.659286
G02 X9.946226 Y1.757730 Z-1.000000 I-0.102983 J-0.021759
G03 X9.824118 Y1.718796 Z-1.000000 I-0.044371 J-0.071788
G03 X9.819756 Y1.458460 Z-1.000000 I0.320802 J-0.135581
G03 X10.070155 Y1.143078 Z-1.000000 I0.626744 J0.240513
G03 X10.292426 Y1.138460 Z-1.000000 I0.114704 J0.169428
G02 X10.396940 Y1.098025 Z-1.000000 I0.036945 J-0.059796
G02 X10.384626 Y0.816620 Z-1.000000 I-0.426803 J-0.122296
G02 X10.142798 Y0.396119 Z-1.000000 I-1.462003 J0.561004
G02 X9.988296 Y0.323920 Z-1.000000 I-0.150809 J0.121310
G02 X9.836019 Y0.413488 Z-1.000000 I0.003174 J0.179627
G02 X8.182536 Y3.440570 Z-1.000000 I59.354219 J34.386182
G01 X8.182586 Y3.440570 Z-1.000000
G00 Z5.000000

(End cutting path id: path395)


(Start cutting path id: path395)
(Change tool to Cylindrical cutter)

G00 Z5.000000
G00 X12.696816 Y0.826170

G01 Z-1.000000 F100.0(Penetrate)
G02 X12.524030 Y1.971691 Z-1.000000 I2.515202 J0.965176 F400.000000
G02 X12.782616 Y2.104720 Z-1.000000 I0.169357 J-0.011363
G02 X12.957822 Y1.873224 Z-1.000000 I-0.211487 J-0.342111
G02 X13.062616 Y1.125840 Z-1.000000 I-2.612740 J-0.747384
G02 X12.895787 Y0.773473 Z-1.000000 I-0.455538 J0.000000
G02 X12.696856 Y0.826170 Z-1.000000 I-0.080439 J0.098175
G01 X12.696816 Y0.826170 Z-1.000000
G00 Z5.000000

(End cutting path id: path395)


(Start cutting path id: path395)
(Change tool to Cylindrical cutter)

G00 Z5.000000
G00 X14.983866 Y1.021730

G01 Z-1.000000 F100.0(Penetrate)
G02 X15.981555 Y3.457448 Z-1.000000 I9.417949 J-2.435476 F400.000000
G02 X16.336566 Y3.360000 Z-1.000000 I0.164723 J-0.095293
G02 X16.291759 Y3.047201 Z-1.000000 I-1.210230 J0.013753
G02 X15.891366 Y1.771200 Z-1.000000 I-20.865850 J5.846614
G02 X15.251598 Y0.851338 Z-1.000000 I-1.963929 J0.683509
G02 X14.983866 Y1.021730 Z-1.000000 I-0.106226 J0.128625
G01 X14.983866 Y1.021730 Z-1.000000
G00 Z5.000000

(End cutting path id: path395)


(Start cutting path id: path395)
(Change tool to Cylindrical cutter)

G00 Z5.000000
G00 X9.942586 Y14.224940

G01 Z-1.000000 F100.0(Penetrate)
G02 X10.284128 Y15.451179 Z-1.000000 I2.372053 J-0.000000 F400.000000
G02 X11.091046 Y16.126640 Z-1.000000 I1.387665 J-0.838020
G02 X11.221582 Y16.023687 Z-1.000000 I0.034651 J-0.090297
G02 X10.967696 Y15.192120 Z-1.000000 I-2.622625 J0.346175
G02 X10.176035 Y14.124242 Z-1.000000 I-3.388876 J1.684927
G02 X9.942586 Y14.224940 Z-1.000000 I-0.095006 J0.100698
G01 X9.942586 Y14.224940 Z-1.000000
G00 Z5.000000

(End cutting path id: path395)


(Start cutting path id: path395)
(Change tool to Cylindrical cutter)

G00 Z5.000000
G00 X8.342586 Y14.831040

G01 Z-1.000000 F100.0(Penetrate)
G02 X8.439767 Y15.225806 Z-1.000000 I0.850390 J-0.000000 F400.000000
G02 X8.913516 Y15.920370 Z-1.000000 I3.221214 J-1.688278
G03 X9.418298 Y16.621807 Z-1.000000 I-3.604882 J3.126568
G03 X10.217046 Y18.129330 Z-1.000000 I-16.019242 J9.453024
G02 X11.076959 Y19.574160 Z-1.000000 I7.971524 J-3.766068
G02 X11.806116 Y20.298030 Z-1.000000 I2.655679 J-1.945898
G02 X12.091891 Y20.390372 Z-1.000000 I0.285775 J-0.396028
G02 X12.134446 Y20.298030 Z-1.000000 I0.000000 J-0.055977
G03 X11.686186 Y19.630989 Z-1.000000 I2.652633 J-2.266740
G03 X10.742586 Y17.600000 Z-1.000000 I24.076582 J-12.420707
G02 X9.202835 Y14.715985 Z-1.000000 I-15.619901 J6.486295
G02 X8.612986 Y14.400000 Z-1.000000 I-0.589849 J0.392544
G02 X8.438888 Y14.496304 Z-1.000000 I-0.000000 J0.205518
G02 X8.342586 Y14.831040 Z-1.000000 I0.533600 J0.334736
G01 X8.342586 Y14.831040 Z-1.000000
G00 Z5.000000

(End cutting path id: path395)


(Start cutting path id: path395)
(Change tool to Cylindrical cutter)

G00 Z5.000000
G00 X11.430396 Y17.499280

G01 Z-1.000000 F100.0(Penetrate)
G02 X11.708262 Y18.136675 Z-1.000000 I2.058426 J-0.518085 F400.000000
G02 X12.261046 Y18.779280 Z-1.000000 I2.646044 J-1.717129
G02 X12.511384 Y18.848231 Z-1.000000 I0.195308 J-0.220173
G02 X12.572596 Y18.719980 Z-1.000000 I-0.016483 J-0.086600
G02 X12.203961 Y18.096387 Z-1.000000 I-7.648706 J4.100749
G02 X11.741946 Y17.439980 Z-1.000000 I-8.937743 J5.800075
G02 X11.522022 Y17.355726 Z-1.000000 I-0.178068 J0.135646
G02 X11.430396 Y17.499280 Z-1.000000 I0.021887 J0.114988
G01 X11.430396 Y17.499280 Z-1.000000
G00 Z5.000000

(End cutting path id: path395)


(Start cutting path id: path395)
(Change tool to Cylindrical cutter)

G00 Z5.000000
G00 X4.081176 Y19.580000

G01 Z-1.000000 F100.0(Penetrate)
G03 X3.981589 Y19.600434 Z-1.000000 I-0.056531 J-0.022622 F400.000000
G03 X3.887846 Y19.386670 Z-1.000000 I0.226965 J-0.226970
G03 X3.956310 Y18.987118 Z-1.000000 I0.967466 J-0.039864
G03 X4.055916 Y18.966670 Z-1.000000 I0.056546 J0.022624
G03 X4.149663 Y19.180436 Z-1.000000 I-0.226984 J0.226984
G03 X4.081216 Y19.580000 Z-1.000000 I-0.967659 J0.039880
G01 X4.081176 Y19.580000 Z-1.000000
G00 Z5.000000

(End cutting path id: path395)


(Start cutting path id: path395)
(Change tool to Cylindrical cutter)

G00 Z5.000000
G00 X2.742586 Y17.386460

G01 Z-1.000000 F100.0(Penetrate)
G03 X2.727878 Y17.473339 Z-1.000000 I-0.033409 J0.039029 F400.000000
G03 X2.502586 Y17.480260 Z-1.000000 I-0.122371 J-0.313115
G02 X2.108296 Y17.527513 Z-1.000000 I-0.145696 J0.452921
G02 X1.942586 Y17.823410 Z-1.000000 I0.181325 J0.295897
G03 X1.858325 Y18.143203 Z-1.000000 I-0.648986 J0.000000
G03 X1.753366 Y18.157480 Z-1.000000 I-0.057911 J-0.032794
G03 X1.668606 Y17.942805 Z-1.000000 I0.205015 J-0.205015
G03 X1.782566 Y17.280030 Z-1.000000 I2.461494 J0.082050
G03 X2.048509 Y16.843488 Z-1.000000 I1.025471 J0.325443
G03 X2.211776 Y16.852190 Z-1.000000 I0.077710 J0.077961
G02 X2.434756 Y17.100676 Z-1.000000 I2.556502 J-2.069804
G02 X2.742566 Y17.386460 Z-1.000000 I3.692200 J-3.668102
G01 X2.742586 Y17.386460 Z-1.000000
G00 Z5.000000

(End cutting path id: path395)


(Start cutting path id: path395)
(Change tool to Cylindrical cutter)

G00 Z5.000000
G00 X1.142586 Y14.720000

G01 Z-1.000000 F100.0(Penetrate)
G02 X1.121621 Y14.941410 Z-1.000000 I0.213414 J0.131905 F400.000000
G02 X1.264806 Y15.040000 Z-1.000000 I0.143184 J-0.054680
G02 X1.541053 Y14.961525 Z-1.000000 I0.000000 J-0.525460
G02 X1.782586 Y14.720000 Z-1.000000 I-0.390812 J-0.632357
G02 X1.803546 Y14.498595 Z-1.000000 I-0.213425 J-0.131899
G02 X1.660356 Y14.400000 Z-1.000000 I-0.143190 J0.054681
G02 X1.384107 Y14.478476 Z-1.000000 I0.000000 J0.525460
G02 X1.142586 Y14.720000 Z-1.000000 I0.390772 J0.632289
G01 X1.142586 Y14.720000 Z-1.000000
G00 Z5.000000

(End cutting path id: path395)


(Start cutting path id: path395)
(Change tool to Cylindrical cutter)

G00 Z5.000000
G00 X1.947486 Y13.520000

G01 Z-1.000000 F100.0(Penetrate)
G02 X2.083085 Y13.791387 Z-1.000000 I0.344106 J-0.002364 F400.000000
G02 X2.262586 Y13.760000 Z-1.000000 I0.075225 J-0.098764
G02 X2.481274 Y13.018688 Z-1.000000 I-1.147107 J-0.741312
G02 X2.262586 Y12.800000 Z-1.000000 I-0.218688 J0.000000
G02 X2.069627 Y12.926181 Z-1.000000 I0.000000 J0.210629
G02 X1.947486 Y13.520000 Z-1.000000 I1.334153 J0.583890
G01 X1.947486 Y13.520000 Z-1.000000
G00 Z5.000000

(End cutting path id: path395)


(Start cutting path id: path395)
(Change tool to Cylindrical cutter)

G00 Z5.000000
G00 X2.262586 Y12.018890

G01 Z-1.000000 F100.0(Penetrate)
G02 X2.385287 Y12.297679 Z-1.000000 I0.378067 J0.000000 F400.000000
G02 X2.587796 Y12.316770 Z-1.000000 I0.113874 J-0.124319
G02 X2.765715 Y12.081005 Z-1.000000 I-0.214240 J-0.346692
G02 X2.728916 Y11.817890 Z-1.000000 I-0.317302 J-0.089752
G02 X2.452172 Y11.730726 Z-1.000000 I-0.188863 J0.116726
G02 X2.262586 Y12.018890 Z-1.000000 I0.124205 J0.288164
G01 X2.262586 Y12.018890 Z-1.000000
G00 Z5.000000

(End cutting path id: path395)


(Start cutting path id: path395)
(Change tool to Cylindrical cutter)

G00 Z5.000000
G00 X1.835916 Y21.333330

G01 Z-1.000000 F100.0(Penetrate)
G02 X1.693915 Y21.575420 Z-1.000000 I0.393589 J0.393556 F400.000000
G02 X1.632316 Y22.053330 Z-1.000000 I1.578371 J0.446365
G02 X1.749520 Y22.145595 Z-1.000000 I0.096377 J-0.001853
G02 X1.981646 Y21.976030 Z-1.000000 I-0.077356 J-0.349563
G02 X2.069667 Y21.400881 Z-1.000000 I-0.686881 J-0.399430
G02 X1.835916 Y21.333360 Z-1.000000 I-0.135503 J0.030727
G01 X1.835916 Y21.333330 Z-1.000000
G00 Z5.000000

(End cutting path id: path395)


(Start cutting path id: path395)
(Change tool to Cylindrical cutter)

G00 Z5.000000
G00 X0.662586 Y41.480070

G01 Z-1.000000 F100.0(Penetrate)
G02 X0.764722 Y41.743950 Z-1.000000 I0.391948 J-0.000000 F400.000000
G02 X3.302586 Y44.379510 Z-1.000000 I48.456137 J-44.120261
G02 X6.157090 Y46.669861 Z-1.000000 I12.820069 J-13.053887
G02 X11.542586 Y49.731110 Z-1.000000 I28.552158 J-43.962497
G03 X22.188733 Y55.319502 Z-1.000000 I-103.681137 J210.452274
G03 X28.502586 Y59.195890 Z-1.000000 I-43.407728 J77.782620
G02 X32.588994 Y61.730181 Z-1.000000 I36.192360 J-53.796547
G02 X35.692266 Y63.293660 Z-1.000000 I16.765798 J-29.416086
G03 X38.814009 Y64.809344 Z-1.000000 I-19.113518 J43.339357
G03 X39.814996 Y65.485480 Z-1.000000 I-2.694135 J5.067564
G02 X40.788521 Y66.209559 Z-1.000000 I6.512418 J-7.739463
G02 X41.957396 Y66.887560 Z-1.000000 I6.870933 J-10.498926
G03 X44.259212 Y69.053551 Z-1.000000 I-2.569571 J5.036779
G03 X45.142586 Y72.292442 Z-1.000000 I-5.496014 J3.238891
G03 X44.613553 Y76.356655 Z-1.000000 I-15.875870 J0.000000
G03 X42.769176 Y81.254650 Z-1.000000 I-25.026108 J-6.627518
G02 X41.498132 Y84.039715 Z-1.000000 I41.239823 J20.503534
G02 X40.191126 Y87.440000 Z-1.000000 I60.194660 J25.089049
G03 X38.733899 Y90.535087 Z-1.000000 I-15.999640 J-5.642353
G03 X38.124286 Y90.880000 Z-1.000000 I-0.609613 J-0.366270
G02 X36.881005 Y91.258423 Z-1.000000 I-0.000000 J2.231566
G02 X36.502586 Y91.968000 Z-1.000000 I0.476058 J0.709577
G02 X36.600704 Y92.051118 Z-1.000000 I0.084265 J0.000000
G02 X36.886586 Y91.904000 Z-1.000000 I-0.086604 J-0.519615
G03 X37.318115 Y91.634745 Z-1.000000 I0.797155 J0.797155
G03 X38.006586 Y91.520000 Z-1.000000 I0.688471 J2.008040
G03 X38.479389 Y91.954030 Z-1.000000 I0.000000 J0.474534
G03 X38.262586 Y94.508381 Z-1.000000 I-7.542791 J0.646175
G02 X37.855455 Y96.360844 Z-1.000000 I23.863612 J6.215678
G02 X37.775916 Y97.215613 Z-1.000000 I4.971005 J0.893651
G03 X37.709103 Y98.073557 Z-1.000000 I-6.213128 J-0.052276
G03 X37.353656 Y100.062957 Z-1.000000 I-33.567519 J-4.971076
G02 X37.116364 Y102.018257 Z-1.000000 I11.244810 J2.356700
G02 X37.264156 Y102.622957 Z-1.000000 I1.146928 J0.040095
G03 X37.489357 Y103.227314 Z-1.000000 I-1.787927 J1.010372
G03 X37.606416 Y104.320000 Z-1.000000 I-5.844416 J1.178721
G02 X37.712464 Y105.412750 Z-1.000000 I6.690262 J-0.097747
G02 X37.881456 Y105.840000 Z-1.000000 I1.150531 J-0.208028
G03 X38.035925 Y106.183203 Z-1.000000 I-1.046757 J0.677490
G01 X37.992776 Y106.240000 Z-1.000000
G02 X37.936220 Y106.308085 Z-1.000000 I0.000000 J0.057532
G02 X38.246456 Y107.600000 Z-1.000000 I12.757057 J-2.380229
G03 X38.356776 Y110.506109 Z-1.000000 I-5.660375 J1.670024
G03 X37.304196 Y111.998992 Z-1.000000 I-2.276615 J-0.487652
G03 X36.238166 Y112.471099 Z-1.000000 I-2.249418 J-3.639629
G03 X35.738646 Y112.449565 Z-1.000000 I-0.217626 J-0.756153
G03 X35.546160 Y112.086864 Z-1.000000 I0.111999 J-0.291865
G03 X36.022576 Y111.229091 Z-1.000000 I1.738674 J0.404488
G02 X36.313809 Y110.525992 Z-1.000000 I-0.703100 J-0.703099
G02 X36.022576 Y110.400000 Z-1.000000 I-0.172870 J-0.000000
G01 X35.222576 Y111.151562 Z-1.000000
G01 X35.222576 Y109.860445 Z-1.000000
G02 X34.877941 Y106.056286 Z-1.000000 I-21.167920 J-0.000000
G02 X34.513066 Y105.976666 Z-1.000000 I-0.199060 J0.036366
G03 X34.176251 Y105.830712 Z-1.000000 I-0.153502 J-0.107374
G03 X35.888776 Y99.439917 Z-1.000000 I59.552867 J12.533376
G02 X37.053607 Y94.535646 Z-1.000000 I-28.890625 J-9.452382
G02 X36.796706 Y93.440000 Z-1.000000 I-1.498040 J-0.226689
G02 X36.691244 Y93.446452 Z-1.000000 I-0.050754 J0.035535
G02 X36.665396 Y93.687011 Z-1.000000 I0.286852 J0.152490
G03 X36.716487 Y94.408750 Z-1.000000 I-1.719974 J0.484433
G03 X36.386736 Y95.767011 Z-1.000000 I-6.610879 J-0.885794
G02 X34.447266 Y102.709989 Z-1.000000 I48.009930 J17.153599
G02 X33.963496 Y107.621274 Z-1.000000 I23.409424 J4.785338
G02 X34.243726 Y111.614634 Z-1.000000 I30.911581 J-0.162677
G02 X34.603846 Y112.341274 Z-1.000000 I1.257394 J-0.170602
G02 X36.019744 Y112.949132 Z-1.000000 I1.469153 J-1.469160
G02 X37.767716 Y112.422394 Z-1.000000 I0.074756 J-2.915601
G03 X38.174163 Y112.328723 Z-1.000000 I0.318966 J0.455386
G03 X38.269816 Y112.502394 Z-1.000000 I-0.019767 J0.124064
G02 X38.115533 Y113.144827 Z-1.000000 I1.791622 J0.770009
G02 X37.767786 Y120.160000 Z-1.000000 I219.892991 J14.416445
G03 X37.429263 Y127.191277 Z-1.000000 I-242.396416 J-8.146448
G03 X37.155796 Y129.920000 Z-1.000000 I-36.733478 J-2.303294
G02 X37.136941 Y135.428542 Z-1.000000 I20.464472 J2.824351
G02 X38.025326 Y136.556035 Z-1.000000 I1.391014 J-0.182282
G03 X38.190140 Y136.779806 Z-1.000000 I-0.092321 J0.240578
G03 X38.065126 Y137.165104 Z-1.000000 I-0.546225 J0.035702
G02 X37.831647 Y137.608962 Z-1.000000 I0.932349 J0.773774
G02 X37.883346 Y137.807459 Z-1.000000 I0.195018 J0.055188
G03 X37.904055 Y137.993937 Z-1.000000 I-0.106174 J0.106180
G03 X37.368956 Y138.620287 Z-1.000000 I-2.446174 J-1.548052
G02 X36.971333 Y139.190061 Z-1.000000 I0.962904 J1.095602
G02 X37.064556 Y139.407892 Z-1.000000 I0.158222 J0.061151
G03 X37.298200 Y139.628957 Z-1.000000 I-0.172861 J0.416699
G03 X37.285666 Y139.867331 Z-1.000000 I-0.223882 J0.107744
G02 X37.318793 Y140.041860 Z-1.000000 I0.111900 J0.069169
G02 X37.683676 Y140.164900 Z-1.000000 I0.370114 J-0.495037
G03 X37.907449 Y140.271530 Z-1.000000 I-0.002472 J0.293307
G03 X37.885566 Y140.409570 Z-1.000000 I-0.071932 J0.059352
G02 X37.514345 Y141.289693 Z-1.000000 I0.450516 J0.708369
G02 X38.254856 Y142.176433 Z-1.000000 I1.202029 J-0.251239
G03 X38.519264 Y142.463895 Z-1.000000 I-0.171631 J0.423200
G03 X38.423826 Y142.719218 Z-1.000000 I-0.212378 J0.066113
G02 X38.310173 Y142.972750 Z-1.000000 I0.130148 J0.210583
G02 X38.511526 Y143.217022 Z-1.000000 I0.316483 J-0.055753
G03 X38.942570 Y143.510943 Z-1.000000 I-0.406394 J1.059019
G03 X39.062556 Y143.820163 Z-1.000000 I-0.338457 J0.309220
G02 X39.616062 Y144.671136 Z-1.000000 I0.930905 J0.000000
G02 X41.458036 Y144.882543 Z-1.000000 I1.258917 J-2.838646
G03 X42.036850 Y144.941535 Z-1.000000 I0.190726 J0.997724
G03 X42.131166 Y145.160825 Z-1.000000 I-0.065331 J0.158026
G02 X42.122138 Y145.490400 Z-1.000000 I0.462732 J0.177586
G02 X42.272596 Y145.600000 Z-1.000000 I0.150458 J-0.048474
G03 X42.476577 Y145.705971 Z-1.000000 I0.000000 J0.249303
G03 X42.582556 Y146.041128 Z-1.000000 I-0.476972 J0.335157
G02 X43.304392 Y147.619732 Z-1.000000 I2.087066 J-0.000000
G02 X46.867066 Y149.746510 Z-1.000000 I7.800566 J-9.019728
G03 X47.585117 Y150.145151 Z-1.000000 I-1.020545 J2.684270
G03 X47.702556 Y150.382036 Z-1.000000 I-0.180190 J0.236885
G02 X47.818395 Y150.531384 Z-1.000000 I0.154195 J0.000000
G02 X48.198806 Y150.509483 Z-1.000000 I0.155889 J-0.606995
G03 X48.440951 Y150.605792 Z-1.000000 I0.068857 J0.179438
G03 X48.493226 Y151.123228 Z-1.000000 I-0.690175 J0.331085
G02 X48.529629 Y151.856986 Z-1.000000 I1.223554 J0.307080
G02 X49.029326 Y152.614900 Z-1.000000 I1.812930 J-0.651592
G02 X49.858579 Y153.045668 Z-1.000000 I1.190089 J-1.277425
G02 X51.680046 Y153.174832 Z-1.000000 I1.377855 J-6.522766
G03 X53.540494 Y153.290337 Z-1.000000 I0.483600 J7.251556
G03 X55.047686 Y153.824588 Z-1.000000 I-1.013278 J5.251709
G02 X56.532419 Y154.401960 Z-1.000000 I3.140054 J-5.877053
G02 X57.394726 Y154.426517 Z-1.000000 I0.485404 J-1.892684
G03 X58.173250 Y154.456657 Z-1.000000 I0.325703 J1.656812
G03 X58.468966 Y154.725564 Z-1.000000 I-0.119173 J0.428107
G02 X59.099524 Y155.123829 Z-1.000000 I0.582151 J-0.223396
G02 X59.567816 Y154.640004 Z-1.000000 I-0.039457 J-0.506732
G03 X59.657105 Y154.454260 Z-1.000000 I0.262510 J0.011858
G03 X59.753546 Y154.477201 Z-1.000000 I0.040075 J0.045715
G02 X60.467034 Y155.261128 Z-1.000000 I1.415884 J-0.572009
G02 X62.422556 Y155.859799 Z-1.000000 I2.614629 J-5.047391
G02 X63.464643 Y155.778114 Z-1.000000 I0.313642 J-2.686725
G02 X63.556576 Y155.542691 Z-1.000000 I-0.042585 J-0.152291
G03 X63.675092 Y155.350412 Z-1.000000 I0.107471 J-0.066422
G03 X66.635186 Y155.812871 Z-1.000000 I-1.943305 J22.143335
G02 X68.100944 Y155.941800 Z-1.000000 I1.208611 J-5.344002
G02 X68.991926 Y155.702139 Z-1.000000 I-0.101108 J-2.151911
G03 X69.889871 Y155.431756 Z-1.000000 I1.167009 J2.249417
G03 X71.551546 Y155.428823 Z-1.000000 I0.844806 J7.911658
G02 X72.990553 Y155.275848 Z-1.000000 I0.358438 J-3.472955
G02 X73.354806 Y154.841909 Z-1.000000 I-0.165626 J-0.508877
G03 X73.720245 Y154.318134 Z-1.000000 I0.700000 J0.099020
G03 X75.702556 Y153.580728 Z-1.000000 I3.669006 J6.829958
G02 X79.340676 Y152.399066 Z-1.000000 I-4.398284 J-19.732901
G02 X79.702556 Y151.847924 Z-1.000000 I-0.238755 J-0.551142
G03 X79.864125 Y151.521578 Z-1.000000 I0.410370 J0.000000
G03 X80.342556 Y151.360004 Z-1.000000 I0.478431 J0.627545
G02 X80.856070 Y151.233519 Z-1.000000 I0.000000 J-1.105643
G02 X80.982556 Y151.024359 Z-1.000000 I-0.109693 J-0.209160
G03 X81.110771 Y150.771340 Z-1.000000 I0.313762 J-0.000000
G03 X82.182556 Y150.144359 Z-1.000000 I3.555688 J4.848665
G02 X83.330057 Y149.520755 Z-1.000000 I-3.753613 J-8.274636
G02 X84.182556 Y148.863196 Z-1.000000 I-3.330791 J-5.199631
G02 X88.394837 Y144.747019 Z-1.000000 I-67.505628 J-73.295146
G02 X89.096666 Y143.768734 Z-1.000000 I-2.997245 J-2.891137
G03 X89.728449 Y142.842520 Z-1.000000 I4.112935 J2.126908
G03 X90.726106 Y141.910851 Z-1.000000 I5.160353 J4.525854
G02 X92.216299 Y140.086239 Z-1.000000 I-3.076405 J-4.033395
G02 X93.645996 Y135.874068 Z-1.000000 I-16.280936 J-7.874802
G02 X93.947540 Y133.346168 Z-1.000000 I-14.648021 J-3.029242
G02 X93.814926 Y130.836647 Z-1.000000 I-14.566656 J-0.488501
G03 X92.912219 Y123.520403 Z-1.000000 I223.272889 J-31.262112
G03 X92.308306 Y116.731946 Z-1.000000 I191.595864 J-20.465784
G01 X92.155436 Y114.583892 Z-1.000000
G01 X93.034386 Y115.039892 Z-1.000000
G02 X93.582777 Y115.037581 Z-1.000000 I0.271991 J-0.524262
G02 X93.603246 Y114.738650 Z-1.000000 I-0.082513 J-0.155816
G03 X92.372423 Y113.229694 Z-1.000000 I2.188776 J-3.041794
G03 X92.156376 Y111.510846 Z-1.000000 I2.706495 J-1.213188
G03 X92.512482 Y109.605325 Z-1.000000 I71.146172 J12.309860
G03 X92.781066 Y108.400004 Z-1.000000 I28.726197 J5.768519
G02 X92.670346 Y107.720969 Z-1.000000 I-0.854009 J-0.209293
G02 X92.376616 Y107.760004 Z-1.000000 I-0.137879 J0.087136
G01 X92.318073 Y107.748606 Z-1.000000
G03 X92.656656 Y104.480004 Z-1.000000 I90.710561 J7.744546
G02 X92.610533 Y104.155137 Z-1.000000 I-0.628079 J-0.076537
G01 X92.520106 Y104.160004 Z-1.000000
G02 X91.589400 Y108.434958 Z-1.000000 I25.731597 J7.840851
G02 X90.915186 Y116.160004 Z-1.000000 I83.757824 J11.202023
G03 X90.484893 Y122.042258 Z-1.000000 I-92.489534 J-3.808833
G03 X90.143556 Y123.489921 Z-1.000000 I-5.854287 J-0.616281
G02 X90.158684 Y124.254194 Z-1.000000 I0.969847 J0.363090
G02 X90.476986 Y124.283406 Z-1.000000 I0.166929 J-0.070145
G02 X90.834841 Y123.318738 Z-1.000000 I-1.922559 J-1.261904
G02 X91.241806 Y118.415642 Z-1.000000 I-52.141383 J-6.796262
G03 X91.376916 Y114.978008 Z-1.000000 I525.568848 J18.935069
G01 X91.406169 Y114.977095 Z-1.000000
G03 X91.430471 Y115.395675 Z-1.000000 I-4.438724 J0.467701
G03 X91.481806 Y120.693338 Z-1.000000 I-2013.205290 J22.157439
G02 X91.732790 Y127.817126 Z-1.000000 I132.790562 J-1.112142
G02 X91.942556 Y128.108074 Z-1.000000 I0.335580 J-0.020853
G03 X92.015844 Y128.216677 Z-1.000000 I-0.043823 J0.108603
G03 X91.942556 Y128.294740 Z-1.000000 I-0.078219 J0.000000
G02 X91.429918 Y128.804005 Z-1.000000 I0.034570 J0.547448
G02 X91.873856 Y129.280000 Z-1.000000 I0.443938 J0.030977
G03 X91.994328 Y129.406270 Z-1.000000 I0.000000 J0.120605
G03 X91.841956 Y129.958618 Z-1.000000 I-1.298699 J-0.061072
G02 X91.723210 Y130.377100 Z-1.000000 I0.899174 J0.481233
G02 X91.812856 Y130.430765 Z-1.000000 I0.058719 J0.003620
G03 X92.004182 Y130.500744 Z-1.000000 I0.068137 J0.110246
G03 X92.244776 Y131.752150 Z-1.000000 I-4.819869 J1.575495
G03 X92.109513 Y133.229516 Z-1.000000 I-4.787132 J0.306580
G03 X91.430206 Y134.988624 Z-1.000000 I-7.515471 J-1.891500
G01 X90.517776 Y136.697248 Z-1.000000
G01 X91.350206 Y136.151821 Z-1.000000
G03 X92.041088 Y135.868351 Z-1.000000 I1.079698 J1.647818
G03 X92.182626 Y135.984234 Z-1.000000 I0.023330 J0.115883
G03 X91.777845 Y137.307294 Z-1.000000 I-2.364656 J-0.000000
G03 X91.206576 Y137.430077 Z-1.000000 I-0.349547 J-0.235970
G02 X91.007677 Y137.430633 Z-1.000000 I-0.099002 J0.160191
G02 X90.902626 Y137.620298 Z-1.000000 I0.118689 J0.189665
G03 X90.777151 Y137.732192 Z-1.000000 I-0.112629 J0.000000
G03 X90.370236 Y137.559178 Z-1.000000 I0.088854 J-0.773999
G02 X90.217566 Y137.584521 Z-1.000000 I-0.065299 J0.079156
G02 X90.210236 Y137.818960 Z-1.000000 I0.200694 J0.123609
G03 X90.338923 Y138.492273 Z-1.000000 I-1.021355 J0.544160
G03 X90.124936 Y138.578518 Z-1.000000 I-0.130270 J-0.014630
G02 X89.726678 Y138.502182 Z-1.000000 I-0.268441 J0.323443
G02 X89.324936 Y138.838298 Z-1.000000 I0.216604 J0.667044
G02 X89.112839 Y139.645930 Z-1.000000 I1.583895 J0.847622
G02 X89.302636 Y139.840000 Z-1.000000 I0.189797 J0.004226
G02 X89.511080 Y139.728444 Z-1.000000 I0.000000 J-0.250519
G02 X89.622636 Y139.360000 Z-1.000000 I-0.552666 J-0.368444
G03 X89.734192 Y138.991556 Z-1.000000 I0.664222 J-0.000000
G03 X89.942636 Y138.880000 Z-1.000000 I0.208444 J0.138963
G03 X90.109692 Y139.127238 Z-1.000000 I-0.000000 J0.180058
G03 X89.402766 Y140.222490 Z-1.000000 I-3.188463 J-1.282213
G02 X88.824313 Y140.999888 Z-1.000000 I2.822327 J2.703970
G02 X88.894316 Y141.120000 Z-1.000000 I0.070003 J0.039657
G02 X89.906797 Y140.650844 Z-1.000000 I-0.000000 J-1.327090
G02 X91.062086 Y138.561727 Z-1.000000 I-4.633864 J-3.926541
G03 X91.577866 Y137.877985 Z-1.000000 I1.227582 J0.389615
G03 X91.862636 Y138.030836 Z-1.000000 I0.101364 J0.152851
G03 X91.585292 Y138.859443 Z-1.000000 I-1.376465 J-0.000000
G03 X89.882721 Y140.845463 Z-1.000000 I-16.662045 J-12.561204
G03 X87.961812 Y142.561215 Z-1.000000 I-13.139170 J-12.777083
G03 X87.429886 Y142.589205 Z-1.000000 I-0.286152 J-0.369679
G02 X87.165615 Y142.561867 Z-1.000000 I-0.160396 J0.259513
G02 X86.549776 Y142.907904 Z-1.000000 I0.734378 J2.027985
G02 X86.550559 Y143.010017 Z-1.000000 I0.040739 J0.050747
G02 X86.701246 Y143.025727 Z-1.000000 I0.087950 J-0.113066
G03 X86.846219 Y143.203787 Z-1.000000 I0.051641 J0.106002
G03 X86.052606 Y143.865871 Z-1.000000 I-1.890952 J-1.459930
G02 X85.259161 Y144.394528 Z-1.000000 I1.985879 J3.840301
G02 X85.252946 Y144.536983 Z-1.000000 I0.062168 J0.074075
G02 X85.442282 Y144.586806 Z-1.000000 I0.137378 J-0.137392
G02 X86.402686 Y144.217914 Z-1.000000 I-1.435061 J-5.170798
G03 X87.281654 Y143.892278 Z-1.000000 I1.942006 J3.892838
G03 X87.382636 Y143.970970 Z-1.000000 I0.019830 J0.078692
G03 X87.018194 Y144.728969 Z-1.000000 I-0.970497 J0.000000
G03 X84.182636 Y146.529537 Z-1.000000 I-9.666718 J-12.090251
G01 X83.382636 Y146.922954 Z-1.000000
G01 X84.182636 Y146.268592 Z-1.000000
G02 X84.160510 Y146.018873 Z-1.000000 I-0.095976 J-0.117336
G02 X83.782636 Y146.045455 Z-1.000000 I-0.168609 J0.302252
G02 X83.364139 Y146.540795 Z-1.000000 I0.898383 J1.183473
G02 X83.222636 Y147.117125 Z-1.000000 I1.102922 J0.576330
G03 X82.992989 Y147.622520 Z-1.000000 I-0.670947 J0.000000
G03 X81.461966 Y148.654512 Z-1.000000 I-4.882021 J-5.591097
G02 X79.846913 Y149.568606 Z-1.000000 I8.986125 J17.760816
G02 X79.834556 Y149.678591 Z-1.000000 I0.037708 J0.059923
G02 X79.981840 Y149.717192 Z-1.000000 I0.106657 J-0.106672
G02 X80.635226 Y149.454668 Z-1.000000 I-0.868845 J-3.106793
G03 X81.235261 Y149.209955 Z-1.000000 I1.470440 J2.747513
G03 X81.302636 Y149.260524 Z-1.000000 I0.014710 J0.050569
G03 X80.784295 Y150.083161 Z-1.000000 I-0.911956 J0.000000
G03 X78.974856 Y150.374327 Z-1.000000 I-1.398454 J-2.922704
G02 X78.009465 Y150.450847 Z-1.000000 I-0.299858 J2.344965
G02 X77.920226 Y150.683742 Z-1.000000 I0.044143 J0.150459
G03 X77.841445 Y151.139047 Z-1.000000 I-0.296401 J0.183182
G03 X76.502636 Y151.817405 Z-1.000000 I-2.295961 J-2.870994
G03 X76.254230 Y151.752143 Z-1.000000 I-0.067254 J-0.249397
G03 X76.262636 Y151.581292 Z-1.000000 I0.080356 J-0.081679
G02 X76.712230 Y151.075917 Z-1.000000 I-1.294344 J-1.604154
G02 X76.827526 Y150.684722 Z-1.000000 I-0.633968 J-0.399436
G03 X76.933820 Y150.590734 Z-1.000000 I0.095651 J0.001075
G03 X77.142636 Y150.720002 Z-1.000000 I-0.031888 J0.284802
G02 X77.361204 Y150.882046 Z-1.000000 I0.325122 J-0.210105
G02 X77.457736 Y150.810222 Z-1.000000 I0.020837 J-0.072776
G03 X77.590052 Y150.495506 Z-1.000000 I0.455600 J0.006376
G03 X78.342636 Y149.919780 Z-1.000000 I2.483498 J2.466657
G01 X79.222636 Y149.419119 Z-1.000000
G01 X78.102636 Y149.626512 Z-1.000000
G02 X77.013150 Y149.900897 Z-1.000000 I1.608821 J8.688246
G02 X76.662636 Y150.088318 Z-1.000000 I0.337718 J1.053073
G03 X76.310598 Y150.270630 Z-1.000000 I-0.640318 J-0.805392
G03 X75.062636 Y150.555310 Z-1.000000 I-3.005304 J-10.296738
G03 X74.239121 Y150.581244 Z-1.000000 I-0.508608 J-3.062489
G03 X74.209686 Y150.468340 Z-1.000000 I0.006315 J-0.061935
G02 X74.269108 Y150.234914 Z-1.000000 I-0.106122 J-0.151291
G02 X73.975236 Y149.995807 Z-1.000000 I-0.409537 J0.203194
G02 X73.660589 Y150.096258 Z-1.000000 I-0.078060 J0.298505
G02 X73.628186 Y150.410374 Z-1.000000 I0.216259 J0.181038
G03 X73.747145 Y151.126823 Z-1.000000 I-0.997168 J0.533669
G03 X73.472676 Y151.360000 Z-1.000000 I-0.274469 J-0.044948
G02 X73.214016 Y151.505237 Z-1.000000 I0.000000 J0.302950
G02 X73.184246 Y151.833047 Z-1.000000 I0.318466 J0.194178
G03 X73.156350 Y152.261567 Z-1.000000 I-0.479403 J0.183959
G03 X72.410686 Y153.261174 Z-1.000000 I-3.807690 J-2.062452
G03 X71.373682 Y153.899436 Z-1.000000 I-1.859268 J-1.859254
G03 X70.415666 Y153.918001 Z-1.000000 I-0.509157 J-1.546498
G03 X69.729447 Y153.284544 Z-1.000000 I0.286421 J-0.998694
G03 X69.920756 Y152.600038 Z-1.000000 I0.563343 J-0.211541
G02 X70.042023 Y151.867172 Z-1.000000 I-0.340438 J-0.432798
G02 X69.142636 Y151.402761 Z-1.000000 I-0.857297 J0.557167
G02 X69.076883 Y151.502763 Z-1.000000 I0.003032 J0.073612
G02 X69.232836 Y151.637861 Z-1.000000 I0.204439 J-0.078436
G03 X69.559050 Y151.934328 Z-1.000000 I-0.099197 J0.436856
G03 X69.439346 Y152.263624 Z-1.000000 I-0.268780 J0.088700
G03 X69.049601 Y152.392970 Z-1.000000 I-0.465848 J-0.751832
G03 X68.993686 Y152.302114 Z-1.000000 I-0.005136 J-0.059473
G02 X68.976581 Y152.124518 Z-1.000000 I-0.125463 J-0.077538
G02 X68.787166 Y152.078490 Z-1.000000 I-0.129317 J0.119411
G02 X68.479151 Y152.314899 Z-1.000000 I0.219987 J0.605479
G02 X68.422636 Y152.600000 Z-1.000000 I0.295851 J0.206797
G03 X68.338563 Y152.829561 Z-1.000000 I-0.221216 J0.049159
G03 X67.942636 Y152.964900 Z-1.000000 I-0.401735 J-0.528454
G02 X67.408909 Y153.052189 Z-1.000000 I0.015519 J1.770271
G02 X66.902636 Y153.304316 Z-1.000000 I0.600629 J1.840429
G02 X66.925844 Y153.425164 Z-1.000000 I0.038509 J0.055257
G02 X67.460526 Y153.434453 Z-1.000000 I0.288940 J-1.238667
G03 X68.438990 Y153.425320 Z-1.000000 I0.513622 J2.608308
G03 X68.971066 Y153.702720 Z-1.000000 I-0.174799 J0.984260
G03 X69.051345 Y154.066515 Z-1.000000 I-0.244770 J0.244768
G03 X68.733176 Y154.352380 Z-1.000000 I-0.428474 J-0.156898
G03 X67.730408 Y154.400658 Z-1.000000 I-0.622931 J-2.500472
G03 X66.161796 Y153.969170 Z-1.000000 I0.997467 J-6.693122
G02 X65.250725 Y153.650339 Z-1.000000 I-3.500360 J8.541269
G02 X64.881796 Y153.595100 Z-1.000000 I-0.386744 J1.323371
G03 X64.819613 Y153.283830 Z-1.000000 I0.002097 J-0.162265
G03 X66.342636 Y152.964900 Z-1.000000 I1.544739 J3.580769
G02 X67.044012 Y152.782358 Z-1.000000 I-0.008304 J-1.470611
G02 X67.222636 Y152.480000 Z-1.000000 I-0.166588 J-0.302358
G02 X66.914637 Y152.079667 Z-1.000000 I-0.414173 J0.000000
G02 X65.350516 Y151.983488 Z-1.000000 I-1.021964 J3.853362
G03 X65.140375 Y151.898387 Z-1.000000 I-0.030959 J-0.225555
G03 X65.129406 Y151.701402 Z-1.000000 I0.135679 J-0.106353
G02 X65.084234 Y151.503929 Z-1.000000 I-0.122706 J-0.075834
G02 X64.601516 Y151.364900 Z-1.000000 I-0.476836 J0.748081
G02 X64.298773 Y151.494648 Z-1.000000 I0.002789 J0.424579
G02 X64.318416 Y151.658262 Z-1.000000 I0.076483 J0.073804
G03 X64.330042 Y151.844882 Z-1.000000 I-0.061718 J0.097517
G03 X63.838416 Y152.053362 Z-1.000000 I-0.598199 J-0.726739
G02 X63.119530 Y152.338675 Z-1.000000 I0.167591 J1.470592
G02 X62.947076 Y152.720000 Z-1.000000 I0.259555 J0.347042
G03 X62.873040 Y153.170588 Z-1.000000 I-0.948823 J0.075475
G03 X62.707076 Y153.280000 Z-1.000000 I-0.165964 J-0.071166
G02 X62.513081 Y153.370444 Z-1.000000 I-0.000000 J0.253273
G02 X62.422636 Y153.618885 Z-1.000000 I0.295993 J0.248441
G02 X62.524480 Y153.775103 Z-1.000000 I0.170734 J0.000000
G02 X62.742636 Y153.760000 Z-1.000000 I0.094729 J-0.214813
G03 X62.959790 Y153.746692 Z-1.000000 I0.120981 J0.195751
G03 X63.062636 Y153.907211 Z-1.000000 I-0.073844 J0.160519
G03 X62.552602 Y154.288665 Z-1.000000 I-0.397662 J0.000000
G03 X60.776316 Y153.233685 Z-1.000000 I1.182383 J-4.013666
G02 X60.127384 Y152.773380 Z-1.000000 I-1.677934 J1.677950
G02 X59.542636 Y152.640000 Z-1.000000 I-0.584748 J1.215099
G03 X59.024865 Y152.517771 Z-1.000000 I0.000000 J-1.157771
G03 X58.902636 Y152.320000 Z-1.000000 I0.098885 J-0.197771
G02 X58.780407 Y152.122229 Z-1.000000 I-0.221115 J0.000000
G02 X58.262636 Y152.000000 Z-1.000000 I-0.517771 J1.035542
G02 X57.750697 Y152.128061 Z-1.000000 I0.000000 J1.087298
G02 X57.622636 Y152.341564 Z-1.000000 I0.113945 J0.213503
G03 X57.449186 Y152.487176 Z-1.000000 I-0.147846 J0.000000
G03 X54.505366 Y151.793438 Z-1.000000 I4.566545 J-25.970554
G03 X53.131925 Y151.146667 Z-1.000000 I1.434461 J-4.827792
G03 X53.222636 Y150.931975 Z-1.000000 I0.066182 J-0.098546
G02 X53.394807 Y150.860466 Z-1.000000 I0.034024 J-0.161102
G02 X53.363196 Y150.715239 Z-1.000000 I-0.087801 J-0.056943
G02 X52.771068 Y150.472672 Z-1.000000 I-0.970198 J1.524340
G02 X52.374176 Y150.503616 Z-1.000000 I-0.146333 J0.683885
G03 X51.975868 Y150.547280 Z-1.000000 I-0.282156 J-0.735323
G03 X51.513616 Y150.375294 Z-1.000000 I0.175967 J-1.180150
G03 X51.476075 Y150.206242 Z-1.000000 I0.065332 J-0.103203
G03 X51.702636 Y150.080000 Z-1.000000 I0.230756 J0.147708
G02 X51.919605 Y149.937420 Z-1.000000 I-0.003708 J-0.242017
G02 X51.862636 Y149.724914 Z-1.000000 I-0.158469 J-0.071406
G03 X51.841892 Y149.612064 Z-1.000000 I0.048353 J-0.067220
G03 X51.965816 Y149.568666 Z-1.000000 I0.090487 J0.059755
G02 X52.537547 Y149.619973 Z-1.000000 I0.398487 J-1.229331
G02 X53.245816 Y149.395507 Z-1.000000 I-0.290236 J-2.145447
G03 X53.681563 Y149.231668 Z-1.000000 I0.898927 J1.729409
G01 X53.710896 Y149.281727 Z-1.000000
G02 X53.842419 Y150.245970 Z-1.000000 I0.459279 J0.428446
G02 X57.537376 Y151.622444 Z-1.000000 I5.380570 J-8.795868
G02 X59.578499 Y151.863948 Z-1.000000 I3.618804 J-21.838889
G02 X60.013186 Y151.799345 Z-1.000000 I0.072125 J-1.009423
G03 X60.388740 Y151.781989 Z-1.000000 I0.213943 J0.557507
G03 X60.649146 Y151.978184 Z-1.000000 I-0.121497 J0.432174
G02 X60.909136 Y152.232583 Z-1.000000 I0.643784 J-0.397881
G02 X61.230086 Y152.320000 Z-1.000000 I0.320950 J-0.545473
G02 X61.315973 Y152.202445 Z-1.000000 I0.000000 J-0.090152
G02 X61.056876 Y151.777103 Z-1.000000 I-1.005131 J0.320689
G02 X60.441504 Y151.424884 Z-1.000000 I-0.955228 J0.955231
G02 X59.254256 Y151.308535 Z-1.000000 I-0.962013 J3.700928
G03 X58.074486 Y151.228965 Z-1.000000 I-0.276502 J-4.686265
G03 X57.768546 Y151.017213 Z-1.000000 I0.089430 J-0.456096
G03 X57.840053 Y150.860140 Z-1.000000 I0.088341 J-0.054596
G03 X58.622596 Y150.876919 Z-1.000000 I0.346256 J2.107786
G02 X59.114310 Y150.833721 Z-1.000000 I0.174347 J-0.835576
G02 X59.136376 Y150.671138 Z-1.000000 I-0.035065 J-0.087548
G03 X59.200823 Y150.455096 Z-1.000000 I0.072987 J-0.095861
G03 X62.496486 Y150.432353 Z-1.000000 I1.825141 J25.682832
G02 X63.971885 Y150.418069 Z-1.000000 I0.630979 J-11.030143
G02 X64.229826 Y150.299477 Z-1.000000 I-0.031260 J-0.407802
G02 X64.196898 Y150.179234 Z-1.000000 I-0.050737 J-0.050736
G02 X63.195966 Y150.034590 Z-1.000000 I-1.171897 J4.573962
G01 X61.942636 Y149.989180 Z-1.000000
G01 X63.222636 Y149.760000 Z-1.000000
G02 X63.521431 Y149.577574 Z-1.000000 I-0.085101 J-0.475299
G02 X63.462636 Y149.445410 Z-1.000000 I-0.065543 J-0.050002
G03 X62.422962 Y149.356591 Z-1.000000 I13.046518 J-158.846499
G03 X62.049296 Y149.320000 Z-1.000000 I1.819619 J-20.507918
G03 X61.753121 Y149.184178 Z-1.000000 I0.054642 J-0.509984
G03 X61.525636 Y148.829008 Z-1.000000 I0.587813 J-0.626929
G03 X61.596711 Y148.609550 Z-1.000000 I0.184477 J-0.061493
G03 X61.882666 Y148.572711 Z-1.000000 I0.177138 J0.246749
G02 X62.158038 Y148.535406 Z-1.000000 I0.103628 J-0.270055
G02 X62.219846 Y148.323909 Z-1.000000 I-0.107980 J-0.146336
G02 X61.975583 Y148.046740 Z-1.000000 I-0.494855 J0.189889
G02 X61.666966 Y148.027267 Z-1.000000 I-0.175571 J0.327231
G03 X60.280081 Y147.885607 Z-1.000000 I-0.553379 J-1.442083
G03 X60.193266 Y147.082697 Z-1.000000 I0.279705 J-0.436391
G03 X60.392777 Y147.006371 Z-1.000000 I0.185211 J0.185211
G03 X61.952766 Y147.178897 Z-1.000000 I-0.771959 J14.119080
G03 X62.989786 Y147.417458 Z-1.000000 I-1.452492 J8.687196
G01 X62.982636 Y147.482362 Z-1.000000
G02 X62.808717 Y147.668364 Z-1.000000 I0.012503 J0.186002
G02 X62.982636 Y148.097601 Z-1.000000 I0.616644 J-0.000000
G02 X63.522479 Y148.426366 Z-1.000000 I0.903489 J-0.875956
G02 X63.777736 Y148.337601 Z-1.000000 I0.066477 J-0.220233
G03 X63.935091 Y148.254173 Z-1.000000 I0.159790 J0.111274
G03 X64.017736 Y148.334601 Z-1.000000 I0.001021 J0.081626
G02 X64.161974 Y148.537189 Z-1.000000 I0.219415 J-0.003577
G02 X65.142636 Y148.744626 Z-1.000000 I1.219948 J-3.345564
G02 X66.120531 Y148.668061 Z-1.000000 I0.227464 J-3.377956
G02 X66.262636 Y148.490029 Z-1.000000 I-0.040468 J-0.178032
G02 X66.082997 Y148.266682 Z-1.000000 I-0.228664 J0.000000
G02 X64.811206 Y148.171434 Z-1.000000 I-0.970638 J4.421979
G03 X64.660564 Y148.127493 Z-1.000000 I-0.015231 J-0.227979
G03 X64.119306 Y147.662394 Z-1.000000 I2.802497 J-3.808890
G03 X63.892521 Y147.174512 Z-1.000000 I0.554314 J-0.554314
G03 X64.050706 Y146.855865 Z-1.000000 I0.341522 J-0.029046
G03 X64.525103 Y146.646274 Z-1.000000 I0.938493 J1.482543
G03 X65.111566 Y146.564905 Z-1.000000 I0.604864 J2.205385
G02 X65.258420 Y146.389650 Z-1.000000 I-0.001201 J-0.150161
G02 X65.005646 Y145.939993 Z-1.000000 I-0.753526 J0.127717
G02 X64.256769 Y145.513669 Z-1.000000 I-1.442885 J1.663664
G02 X63.756686 Y145.525260 Z-1.000000 I-0.233853 J0.704244
G02 X63.702123 Y145.698263 Z-1.000000 I0.041596 J0.108225
G02 X64.022606 Y145.920000 Z-1.000000 I0.443803 J-0.298972
G03 X64.309072 Y146.144014 Z-1.000000 I-0.100276 J0.423402
G03 X64.236426 Y146.334733 Z-1.000000 I-0.121806 J0.062798
G03 X63.636602 Y146.480356 Z-1.000000 I-0.862362 J-2.243936
G03 X62.476426 Y146.528102 Z-1.000000 I-0.929084 J-8.456310
G03 X62.074570 Y146.378595 Z-1.000000 I0.018026 J-0.663275
G03 X62.102606 Y146.222592 Z-1.000000 I0.057379 J-0.070209
G02 X62.097994 Y146.099749 Z-1.000000 I-0.020770 J-0.060728
G02 X61.302606 Y146.014490 Z-1.000000 I-0.684204 J2.630257
G03 X59.921580 Y145.892866 Z-1.000000 I-0.220855 J-5.393713
G03 X59.782606 Y145.680000 Z-1.000000 I0.039009 J-0.177267
G02 X59.691395 Y145.419112 Z-1.000000 I-0.266347 J-0.053269
G02 X59.302606 Y145.275100 Z-1.000000 I-0.394137 J0.467241
G03 X59.140402 Y145.144887 Z-1.000000 I0.001459 J-0.167951
G03 X59.222606 Y144.928158 Z-1.000000 I0.203244 J-0.046865
G02 X59.200298 Y144.795364 Z-1.000000 I-0.043448 J-0.060972
G02 X58.666106 Y144.764358 Z-1.000000 I-0.333826 J1.134150
G03 X57.205775 Y144.534579 Z-1.000000 I-0.390729 J-2.272140
G03 X56.854476 Y143.815594 Z-1.000000 I0.313414 J-0.598451
G02 X56.788030 Y143.212739 Z-1.000000 I-1.046312 J-0.189767
G02 X56.527746 Y143.040000 Z-1.000000 I-0.260284 J0.109730
G03 X56.105001 Y142.960355 Z-1.000000 I0.000000 J-1.161752
G03 X55.913416 Y142.800000 Z-1.000000 I0.142588 J-0.364985
G03 X55.971571 Y142.671051 Z-1.000000 I0.072982 J-0.044674
G03 X57.574536 Y142.507757 Z-1.000000 I1.923607 J10.933639
G03 X58.573810 Y142.572370 Z-1.000000 I0.154978 J5.362674
G01 X58.578586 Y142.667757 Z-1.000000
G02 X57.937540 Y142.991867 Z-1.000000 I0.439706 J1.665689
G02 X57.818586 Y143.280000 Z-1.000000 I0.203527 J0.252646
G02 X57.864554 Y143.679761 Z-1.000000 I40.606364 J-4.466700
G02 X57.902586 Y143.980112 Z-1.000000 I22.957953 J-2.754509
G02 X58.043585 Y144.155723 Z-1.000000 I0.215659 J-0.028744
G02 X58.590456 Y144.231422 Z-1.000000 I0.448664 J-1.228055
G02 X59.018209 Y144.043193 Z-1.000000 I-0.052724 J-0.699967
G02 X59.080506 Y143.771309 Z-1.000000 I-0.171161 J-0.182297
G03 X59.159116 Y143.522524 Z-1.000000 I0.195518 J-0.075033
G03 X59.691796 Y143.360000 Z-1.000000 I0.532680 J0.791680
G02 X60.446923 Y143.283781 Z-1.000000 I0.000000 J-3.778757
G02 X61.350906 Y143.021627 Z-1.000000 I-1.161362 J-5.694385
G02 X61.827578 Y142.630845 Z-1.000000 I-0.344656 J-0.906518
G02 X61.771736 Y142.351441 Z-1.000000 I-0.175506 J-0.110205
G03 X61.757952 Y142.247889 Z-1.000000 I0.041141 J-0.058170
G03 X61.888756 Y142.209814 Z-1.000000 I0.093409 J0.077180
G02 X62.482784 Y142.356200 Z-1.000000 I1.310036 J-4.037616
G02 X63.168756 Y142.428860 Z-1.000000 I0.910236 J-5.318971
G03 X63.205715 Y142.536274 Z-1.000000 I-0.002534 J0.060937
G03 X62.763336 Y142.773361 Z-1.000000 I-0.770985 J-0.907315
G02 X62.101992 Y143.163548 Z-1.000000 I0.422661 J1.471947
G02 X62.123336 Y143.414687 Z-1.000000 I0.116792 J0.116550
G03 X62.141833 Y143.519779 Z-1.000000 I-0.043897 J0.061900
G03 X62.022586 Y143.560229 Z-1.000000 I-0.086886 J-0.060146
G02 X61.573632 Y143.532459 Z-1.000000 I-0.278978 J0.867231
G02 X61.462586 Y143.666580 Z-1.000000 I0.025472 J0.134121
G02 X61.564575 Y143.874311 Z-1.000000 I0.262549 J0.000000
G02 X62.022586 Y144.099416 Z-1.000000 I0.780844 J-1.010251
G03 X62.054282 Y144.192028 Z-1.000000 I-0.014846 J0.056811
G03 X61.881466 Y144.282880 Z-1.000000 I-0.185168 J-0.142432
G02 X61.237389 Y144.416235 Z-1.000000 I0.115415 J2.179484
G02 X61.001396 Y144.609560 Z-1.000000 I0.163368 J0.440127
G02 X61.066473 Y144.747964 Z-1.000000 I0.077648 J0.047992
G02 X62.182506 Y144.773780 Z-1.000000 I0.669741 J-4.816960
G01 X63.542586 Y144.648441 Z-1.000000
G01 X61.942586 Y145.113366 Z-1.000000
G01 X60.342586 Y145.578292 Z-1.000000
G01 X62.013236 Y145.445329 Z-1.000000
G02 X63.650623 Y145.181733 Z-1.000000 I-0.821232 J-10.318571
G02 X65.053236 Y144.701994 Z-1.000000 I-1.964245 J-8.033144
G01 X66.422586 Y144.091621 Z-1.000000
G01 X65.062586 Y143.713476 Z-1.000000
G03 X63.832809 Y143.273318 Z-1.000000 I2.414731 J-8.684655
G03 X63.744835 Y143.157744 Z-1.000000 I0.060807 J-0.137557
G03 X63.811261 Y143.079478 Z-1.000000 I0.067560 J-0.009982
G03 X64.981186 Y143.162665 Z-1.000000 I0.111264 J6.703556
G02 X66.972383 Y142.906498 Z-1.000000 I0.560853 J-3.507383
G02 X67.099146 Y142.230888 Z-1.000000 I-0.167688 J-0.381160
G02 X66.592440 Y141.993754 Z-1.000000 I-0.580512 J0.580503
G02 X61.382546 Y141.714864 Z-1.000000 I-6.419081 J71.111814
G02 X60.664109 Y141.736475 Z-1.000000 I-0.129429 J7.649813
G02 X58.582546 Y141.931068 Z-1.000000 I4.982732 J64.531004
G03 X56.933814 Y141.944129 Z-1.000000 I-0.888516 J-8.091607
G03 X56.868036 Y141.770247 Z-1.000000 I0.009665 J-0.103039
G03 X58.466153 Y140.976318 Z-1.000000 I1.867393 J1.753510
G03 X59.300256 Y141.513150 Z-1.000000 I0.083203 J0.787133
G02 X59.447054 Y141.585856 Z-1.000000 I0.109471 J-0.036478
G02 X60.026236 Y141.264952 Z-1.000000 I-0.609804 J-1.783719
G02 X60.176572 Y141.009771 Z-1.000000 I-0.268066 J-0.329801
G02 X60.085936 Y140.930212 Z-1.000000 I-0.069375 J-0.012373
G03 X59.745245 Y140.928866 Z-1.000000 I-0.168248 J-0.531717
G03 X59.699696 Y140.804632 Z-1.000000 I0.026012 J-0.080004
G03 X59.956921 Y140.625085 Z-1.000000 I0.336402 J0.207912
G03 X60.916316 Y140.556016 Z-1.000000 I0.744454 J3.643046
G02 X61.910509 Y140.469933 Z-1.000000 I0.200694 J-3.466267
G02 X62.941986 Y140.080482 Z-1.000000 I-0.968581 J-4.126008
G03 X63.920346 Y139.687887 Z-1.000000 I2.268979 J4.239024
G03 X64.141986 Y139.746096 Z-1.000000 I0.060986 J0.218858
G02 X64.264253 Y139.757629 Z-1.000000 I0.068101 J-0.068099
G02 X64.342556 Y139.609667 Z-1.000000 I-0.100644 J-0.147962
G03 X64.487954 Y139.397887 Z-1.000000 I0.226933 J0.000000
G03 X65.776326 Y139.057660 Z-1.000000 I2.193956 J5.698554
G02 X67.016864 Y138.707440 Z-1.000000 I-0.758780 J-5.059938
G02 X67.136326 Y138.480331 Z-1.000000 I-0.079236 J-0.186652
G03 X67.223031 Y138.223898 Z-1.000000 I0.263678 J-0.053721
G03 X67.702556 Y137.985969 Z-1.000000 I0.692191 J0.792868
G02 X68.304647 Y137.778113 Z-1.000000 I-0.500372 J-2.425380
G02 X68.824036 Y137.428426 Z-1.000000 I-1.065449 J-2.143071
G03 X69.352375 Y137.101930 Z-1.000000 I1.213825 J1.373493
G03 X70.264036 Y136.847776 Z-1.000000 I1.591735 J3.947464
G02 X71.221741 Y136.688418 Z-1.000000 I-17.564901 J-108.518277
G02 X71.382556 Y136.656582 Z-1.000000 I-0.528484 J-3.091682
G01 X71.398972 Y136.598238 Z-1.000000
G02 X71.045726 Y136.329722 Z-1.000000 I-1.286831 J1.326273
G02 X70.526923 Y136.193452 Z-1.000000 I-0.503018 J0.859357
G02 X69.285726 Y136.357622 Z-1.000000 I0.085993 J5.424231
G03 X68.021820 Y136.673397 Z-1.000000 I-68.304910 J-270.706422
G03 X66.742556 Y136.986707 Z-1.000000 I-68.468565 J-276.793310
G02 X65.471769 Y137.325142 Z-1.000000 I6.917705 J28.530297
G02 X64.982556 Y137.497910 Z-1.000000 I1.274471 J4.387830
G03 X64.488836 Y137.643030 Z-1.000000 I-0.901395 J-2.154260
G03 X63.225656 Y137.809408 Z-1.000000 I-2.499150 J-14.095779
G02 X61.980732 Y138.034266 Z-1.000000 I0.592809 J6.840773
G02 X60.825656 Y138.476071 Z-1.000000 I1.756138 J6.322170
G03 X59.684874 Y138.967671 Z-1.000000 I-5.220729 J-10.545529
G03 X59.222556 Y139.068663 Z-1.000000 I-0.592069 J-1.601672
G02 X58.742643 Y139.106321 Z-1.000000 I8.151864 J106.962823
G02 X58.182556 Y139.152623 Z-1.000000 I11.725253 J145.245255
G02 X57.770963 Y139.336384 Z-1.000000 I0.057713 J0.682097
G02 X57.622556 Y139.680002 Z-1.000000 I0.323601 J0.343618
G03 X57.369259 Y140.078114 Z-1.000000 I-0.439508 J0.000000
G03 X56.543296 Y140.184811 Z-1.000000 I-0.580079 J-1.240185
G02 X56.427360 Y140.269310 Z-1.000000 I-0.017779 J0.097390
G02 X56.477096 Y140.688974 Z-1.000000 I0.851660 J0.111846
G03 X56.394784 Y140.813178 Z-1.000000 I-0.085411 J0.032774
G03 X56.091156 Y140.702054 Z-1.000000 I-0.014590 J-0.430502
G02 X54.834660 Y140.120711 Z-1.000000 I-1.560582 J1.724445
G02 X54.422586 Y140.482009 Z-1.000000 I-0.047648 J0.361298
G03 X54.298131 Y140.560185 Z-1.000000 I-0.086780 J0.000000
G03 X53.094566 Y139.842009 Z-1.000000 I3.426098 J-7.109267
G02 X51.735182 Y138.976817 Z-1.000000 I-7.866576 J10.859390
G02 X51.361236 Y138.880002 Z-1.000000 I-0.373946 J0.673771
G03 X51.009969 Y138.798366 Z-1.000000 I-0.000000 J-0.796544
G03 X50.849246 Y138.628443 Z-1.000000 I0.147766 J-0.300737
G02 X50.693894 Y138.416211 Z-1.000000 I-0.529602 J0.224691
G02 X49.704896 Y137.648300 Z-1.000000 I-8.475680 J9.895054
G02 X48.983298 Y137.349762 Z-1.000000 I-1.028712 J1.465145
G02 X48.852426 Y137.499858 Z-1.000000 I-0.019971 J0.114690
G03 X48.738608 Y137.573555 Z-1.000000 I-0.066932 J0.021369
G03 X46.464206 Y135.360002 Z-1.000000 I25.686251 J-28.667583
G03 X44.112134 Y132.497921 Z-1.000000 I19.287139 J-18.247775
G03 X43.051356 Y130.560002 Z-1.000000 I7.695929 J-5.471882
G02 X41.215624 Y126.632479 Z-1.000000 I-37.486087 J15.128298
G02 X40.827756 Y126.400002 Z-1.000000 I-0.387868 J0.207323
G02 X40.517357 Y126.574779 Z-1.000000 I-0.000000 J0.363019
G02 X40.342586 Y127.200002 Z-1.000000 I1.030950 J0.625223
G02 X40.476834 Y127.865743 Z-1.000000 I1.717847 J-0.000000
G02 X40.678916 Y128.000002 Z-1.000000 I0.202082 J-0.084955
G03 X41.437229 Y128.505343 Z-1.000000 I-0.000000 J0.821631
G03 X41.942586 Y131.029724 Z-1.000000 I-6.052268 J2.524381
G02 X42.084155 Y131.698432 Z-1.000000 I1.650118 J-0.000000
G02 X42.301766 Y131.840002 Z-1.000000 I0.217611 J-0.096462
G03 X42.410770 Y131.957491 Z-1.000000 I0.000000 J0.109310
G03 X42.266066 Y132.315845 Z-1.000000 I-0.633857 J-0.047559
G02 X42.029692 Y132.827716 Z-1.000000 I0.843406 J0.699984
G02 X42.055316 Y133.525493 Z-1.000000 I1.656234 J0.288539
G03 X41.933519 Y135.092266 Z-1.000000 I-2.397549 J0.601740
G03 X41.197036 Y135.549573 Z-1.000000 I-0.692582 J-0.293689
G03 X40.719388 Y135.336461 Z-1.000000 I0.043154 J-0.738553
G03 X40.596646 Y134.954492 Z-1.000000 I0.306451 J-0.309180
G02 X40.330895 Y134.642478 Z-1.000000 I-0.263566 J-0.044694
G02 X39.923196 Y134.959992 Z-1.000000 I0.003473 J0.424967
G03 X39.830836 Y134.990492 Z-1.000000 I-0.056053 J-0.014648
G03 X39.739736 Y134.812459 Z-1.000000 I0.153488 J-0.190864
G03 X39.869696 Y134.170436 Z-1.000000 I1.311247 J-0.068739
G03 X40.422616 Y133.405396 Z-1.000000 I2.452640 J1.190278
G02 X40.761669 Y132.991701 Z-1.000000 I-1.648984 J-1.697249
G01 X40.718926 Y132.946456 Z-1.000000
G03 X40.320884 Y132.972301 Z-1.000000 I-0.225664 J-0.397416
G03 X39.518926 Y132.457736 Z-1.000000 I0.983614 J-2.415194
G03 X38.781998 Y131.253280 Z-1.000000 I1.828551 J-1.946437
G03 X39.062616 Y130.880002 Z-1.000000 I0.280618 J-0.081160
G03 X39.272695 Y130.989923 Z-1.000000 I-0.000000 J0.255710
G03 X39.382616 Y131.341116 Z-1.000000 I-0.506062 J0.351193
G02 X39.461766 Y131.758096 Z-1.000000 I1.137944 J0.000000
G02 X39.622616 Y131.950520 Z-1.000000 I0.369701 J-0.145598
G02 X39.749326 Y131.891098 Z-1.000000 I0.043939 J-0.071113
G02 X39.902456 Y129.969407 Z-1.000000 I-15.706643 J-2.218528
G02 X39.814272 Y129.117691 Z-1.000000 I-3.521305 J-0.065837
G02 X39.707856 Y129.120002 Z-1.000000 I-0.052970 J0.012125
G01 X39.473426 Y130.400002 Z-1.000000
G01 X39.428026 Y128.933336 Z-1.000000
G02 X39.295412 Y127.504376 Z-1.000000 I-11.658332 J0.361311
G02 X39.166626 Y127.250671 Z-1.000000 I-0.452860 J0.070342
G03 X38.996436 Y126.838804 Z-1.000000 I0.410864 J-0.410872
G03 X39.099413 Y119.331767 Z-1.000000 I312.730201 J0.535650
G03 X39.382139 Y111.833440 Z-1.000000 I313.423027 J8.063160
G03 X39.574766 Y111.386668 Z-1.000000 I0.694473 J0.034512
G01 X39.640218 Y111.411038 Z-1.000000
G03 X39.739536 Y114.586668 Z-1.000000 I-78.594064 J4.047411
G02 X39.944527 Y118.161126 Z-1.000000 I38.755597 J-0.429477
G02 X40.296846 Y119.952303 Z-1.000000 I10.020308 J-1.040727
G02 X40.765543 Y121.123582 Z-1.000000 I6.335815 J-1.855916
G02 X40.865920 Y121.129569 Z-1.000000 I0.051966 J-0.026812
G02 X40.921112 Y120.920578 Z-1.000000 I-0.270369 J-0.183186
G02 X40.693866 Y119.366332 Z-1.000000 I-11.856599 J0.939818
G03 X40.446183 Y117.717389 Z-1.000000 I13.122827 J-2.814218
G03 X40.336376 Y115.264252 Z-1.000000 I28.992663 J-2.526788
G02 X40.230216 Y112.807174 Z-1.000000 I-30.026047 J0.066462
G02 X39.832446 Y109.280002 Z-1.000000 I-62.821585 J5.298575
G03 X39.350314 Y105.757948 Z-1.000000 I399.121362 J-56.429494
G03 X38.921536 Y102.400002 Z-1.000000 I362.343794 J-47.974261
G02 X38.555871 Y100.050526 Z-1.000000 I-36.847488 J4.531635
G02 X38.470271 Y100.009715 Z-1.000000 I-0.057719 J0.010887
G02 X38.393129 Y100.131613 Z-1.000000 I0.069886 J0.129585
G02 X38.328186 Y102.720002 Z-1.000000 I47.625980 J2.489952
G03 X38.264159 Y103.441692 Z-1.000000 I-4.006241 J0.008260
G01 X38.197896 Y103.440002 Z-1.000000
G02 X37.969723 Y102.507160 Z-1.000000 I-4.270511 J0.550239
G02 X37.816266 Y102.400002 Z-1.000000 I-0.153457 J0.056301
G03 X37.700899 Y102.283829 Z-1.000000 I0.000000 J-0.115369
G03 X37.830166 Y100.400002 Z-1.000000 I15.348569 J0.106857
G02 X38.091517 Y98.399961 Z-1.000000 I-6582.433271 J-861.117941
G02 X38.248446 Y97.195327 Z-1.000000 I-2479.575607 J-323.640187
G03 X38.481594 Y96.015179 Z-1.000000 I9.088482 J1.182401
G03 X38.733826 Y95.376364 Z-1.000000 I2.883285 J0.769243
G02 X38.955206 Y94.735146 Z-1.000000 I-1.889119 J-1.011042
G02 X39.062586 Y93.500223 Z-1.000000 I-7.047425 J-1.234923
G03 X39.234313 Y92.319013 Z-1.000000 I4.148288 J-0.000000
G03 X39.560056 Y91.825503 Z-1.000000 I0.975893 J0.289882
G02 X40.335217 Y90.814794 Z-1.000000 I-1.832556 J-2.208083
G02 X40.842876 Y89.031688 Z-1.000000 I-5.524574 J-2.536694
G03 X41.111568 Y87.905846 Z-1.000000 I5.232824 J0.653876
G03 X41.387166 Y87.513612 Z-1.000000 I0.851271 J0.305194
G02 X42.343733 Y86.414325 Z-1.000000 I-2.829864 J-3.428296
G02 X42.582586 Y85.570108 Z-1.000000 I-1.372502 J-0.844217
G02 X42.503163 Y85.487072 Z-1.000000 I-0.083119 J0.000000
G02 X42.118886 Y85.549468 Z-1.000000 I-0.042424 J0.953234
G03 X41.882765 Y85.499816 Z-1.000000 I-0.079639 J-0.207541
G03 X41.832406 Y85.265544 Z-1.000000 I0.154337 J-0.155725
G03 X42.057298 Y84.942446 Z-1.000000 I0.768087 J0.294807
G03 X42.216116 Y84.928252 Z-1.000000 I0.089102 J0.101357
G02 X42.405957 Y84.935701 Z-1.000000 I0.101679 J-0.168515
G02 X42.814696 Y84.628360 Z-1.000000 I-0.638861 J-1.275100
G02 X42.889077 Y84.307085 Z-1.000000 I-0.244480 J-0.225850
G02 X42.654696 Y84.093727 Z-1.000000 I-0.294542 J0.088147
G03 X42.513242 Y83.875138 Z-1.000000 I0.035529 J-0.178056
G03 X42.822586 Y83.360664 Z-1.000000 I0.940850 J0.215479
G02 X43.432436 Y82.687411 Z-1.000000 I-2.450669 J-2.832713
G02 X43.542586 Y82.340239 Z-1.000000 I-0.492033 J-0.347172
G03 X44.034414 Y80.449021 Z-1.000000 I3.882051 J-0.000000
G03 X45.679766 Y78.509144 Z-1.000000 I5.744211 J3.204378
G02 X46.059063 Y78.110617 Z-1.000000 I-1.252239 J-1.571576
G02 X46.088956 Y77.940008 Z-1.000000 I-0.161691 J-0.116253
G03 X46.080530 Y77.742669 Z-1.000000 I0.410752 J-0.116387
G03 X46.264606 Y77.030866 Z-1.000000 I5.798481 J1.119812
G02 X46.494916 Y76.319509 Z-1.000000 I-160.556654 J-52.375071
G02 X46.544436 Y76.160002 Z-1.000000 I-8.049688 J-2.586508
G03 X47.008955 Y75.461269 Z-1.000000 I1.379723 J0.413468
G03 X47.488186 Y75.383410 Z-1.000000 I0.306443 J0.372405
G02 X47.846913 Y75.349885 Z-1.000000 I0.145494 J-0.379170
G02 X48.677946 Y74.649432 Z-1.000000 I-1.940417 J-3.145360
G01 X49.462586 Y73.760002 Z-1.000000
G01 X48.641966 Y74.480002 Z-1.000000
G03 X47.829213 Y74.822446 Z-1.000000 I-0.920628 J-1.049296
G03 X47.609866 Y74.560002 Z-1.000000 I-0.016225 J-0.209325
G03 X47.873614 Y74.043126 Z-1.000000 I1.308623 J0.342026
G03 X48.139906 Y73.915103 Z-1.000000 I0.271030 J0.222790
G02 X48.202410 Y73.823879 Z-1.000000 I-0.000882 J-0.067629
G02 X48.022586 Y73.600002 Z-1.000000 I-0.427298 J0.159059
G03 X47.901720 Y73.393672 Z-1.000000 I0.144102 J-0.222980
G03 X48.002786 Y73.284901 Z-1.000000 I0.102156 J-0.006419
G02 X49.676779 Y72.766966 Z-1.000000 I-0.032422 J-3.068974
G02 X50.715946 Y71.470200 Z-1.000000 I-1.535073 J-2.294888
G02 X50.349184 Y71.137183 Z-1.000000 I-0.247454 J-0.095943
G02 X48.910096 Y72.378994 Z-1.000000 I1.756465 J3.490259
G03 X48.645167 Y72.525554 Z-1.000000 I-0.283269 J-0.199321
G03 X48.452636 Y72.403254 Z-1.000000 I-0.010409 J-0.196310
G02 X48.213213 Y72.292793 Z-1.000000 I-0.178694 J0.072614
G02 X47.246796 Y72.803254 Z-1.000000 I1.043398 J3.145440
G03 X46.187118 Y73.555375 Z-1.000000 I-11.473307 J-15.042411
G03 X46.038356 Y73.600002 Z-1.000000 I-0.148762 J-0.225631
G03 X45.858583 Y73.423653 Z-1.000000 I0.000000 J-0.179806
G03 X45.912050 Y71.008325 Z-1.000000 I29.206716 J-0.561725
G03 X46.157033 Y68.570595 Z-1.000000 I33.351646 J2.120544
G03 X46.392066 Y68.036810 Z-1.000000 I1.052891 J0.144967
G03 X46.840813 Y67.655571 Z-1.000000 I1.309870 J1.087092
G03 X47.006026 Y67.676750 Z-1.000000 I0.068903 J0.117489
G02 X48.170399 Y67.692512 Z-1.000000 I0.590284 J-0.590284
G02 X48.982616 Y65.804350 Z-1.000000 I-1.788598 J-1.888162
G02 X48.871128 Y65.737165 Z-1.000000 I-0.075988 J0.000000
G02 X48.112296 Y66.264220 Z-1.000000 I1.788616 J3.384971
G03 X47.713936 Y66.531880 Z-1.000000 I-1.174199 J-1.317300
G01 X47.671476 Y66.480000 Z-1.000000
G02 X47.856259 Y66.040725 Z-1.000000 I-0.746434 J-0.572494
G02 X47.751576 Y65.920000 Z-1.000000 I-0.104683 J-0.014976
G02 X47.473510 Y66.050212 Z-1.000000 I-0.000000 J0.362010
G02 X46.249856 Y67.721460 Z-1.000000 I12.655338 J10.549572
G03 X45.012251 Y68.369766 Z-1.000000 I-1.186047 J-0.758707
G03 X44.028386 Y67.640060 Z-1.000000 I0.039632 J-1.081564
G02 X43.496504 Y66.547900 Z-1.000000 I-4.717561 J1.621861
G02 X43.224316 Y66.399990 Z-1.000000 I-0.272188 J0.176488
G03 X42.162439 Y65.693958 Z-1.000000 I0.000000 J-1.151551
G03 X41.277556 Y61.759990 Z-1.000000 I10.617906 J-4.454832
G02 X41.152192 Y61.522587 Z-1.000000 I-0.314428 J0.014236
G02 X41.024706 Y61.570020 Z-1.000000 I-0.048533 J0.064596
G03 X40.718857 Y62.074205 Z-1.000000 I-0.885920 J-0.192558
G03 X40.449116 Y62.049220 Z-1.000000 I-0.122409 J-0.147029
G03 X39.159349 Y59.838878 Z-1.000000 I6.050227 J-5.011867
G03 X38.742566 Y57.578100 Z-1.000000 I5.923238 J-2.260778
G02 X38.600925 Y57.037261 Z-1.000000 I-1.103388 J-0.000000
G02 X38.284926 Y56.764290 Z-1.000000 I-0.536538 J0.301723
G03 X37.932327 Y56.486832 Z-1.000000 I0.271788 J-0.708167
G03 X37.483486 Y55.602440 Z-1.000000 I3.050455 J-2.104240
G02 X37.102090 Y54.780486 Z-1.000000 I-4.327826 J1.508699
G02 X36.989646 Y54.766250 Z-1.000000 I-0.061740 J0.036462
G02 X36.942365 Y54.939235 Z-1.000000 I0.127917 J0.127917
G02 X37.502566 Y56.759990 Z-1.000000 I19.759404 J-5.082923
G03 X38.059328 Y58.579941 Z-1.000000 I-18.545256 J6.668530
G03 X38.010026 Y58.759190 Z-1.000000 I-0.182283 J0.046268
G03 X37.893370 Y58.737984 Z-1.000000 I-0.050987 J-0.050987
G03 X36.875486 Y56.257340 Z-1.000000 I33.570433 J-15.224132
G02 X36.029247 Y54.391395 Z-1.000000 I-13.220538 J4.870879
G02 X35.879496 Y54.427890 Z-1.000000 I-0.070031 J0.038126
G02 X36.204175 Y56.877783 Z-1.000000 I8.146191 J0.166865
G02 X38.229756 Y62.479990 Z-1.000000 I45.456463 J-13.268325
G03 X37.939998 Y63.001848 Z-1.000000 I-0.344911 J0.149863
G03 X36.611026 Y62.719990 Z-1.000000 I-0.285695 J-1.926945
G02 X35.066143 Y61.867144 Z-1.000000 I-7.781757 J12.270564
G02 X34.591036 Y61.759990 Z-1.000000 I-0.475107 J0.999703
G03 X34.142551 Y61.634512 Z-1.000000 I0.000000 J-0.864232
G03 X33.536816 Y61.119990 Z-1.000000 I1.306152 J-2.151521
G02 X32.933628 Y60.599925 Z-1.000000 I-2.008602 J1.719809
G02 X32.516826 Y60.479990 Z-1.000000 I-0.416802 J0.664277
G03 X32.090046 Y60.359985 Z-1.000000 I0.000000 J-0.818895
G03 X30.966776 Y59.533450 Z-1.000000 I4.223348 J-6.916107
G02 X29.832040 Y58.671008 Z-1.000000 I-6.660920 J7.586214
G02 X28.298626 Y57.788240 Z-1.000000 I-8.516337 J13.020127
G03 X26.774213 Y56.903250 Z-1.000000 I6.539244 J-13.019388
G03 X26.122786 Y56.342330 Z-1.000000 I1.917861 J-2.886047
G02 X25.516245 Y55.841699 Z-1.000000 I-2.015276 J1.823870
G02 X25.298266 Y55.842650 Z-1.000000 I-0.108212 J0.178557
G03 X24.911723 Y55.861391 Z-1.000000 I-0.210217 J-0.340152
G03 X20.502646 Y53.486520 Z-1.000000 I29.524678 J-60.094459
G02 X16.739241 Y51.358345 Z-1.000000 I-65.155301 J110.827168
G02 X15.382566 Y50.703730 Z-1.000000 I-7.452109 J13.711183
G03 X14.267142 Y50.218226 Z-1.000000 I25.676306 J-60.514230
G03 X12.982566 Y49.632570 Z-1.000000 I36.072787 J-80.823577
G02 X11.700565 Y49.040978 Z-1.000000 I-87.805181 J188.592145
G02 X8.982566 Y47.803170 Z-1.000000 I-387.126119 J846.454854
G03 X6.421311 Y46.335902 Z-1.000000 I6.459951 J-14.245542
G03 X3.602356 Y44.004860 Z-1.000000 I13.854160 J-19.624011
G02 X0.941809 Y41.440348 Z-1.000000 I-9469.044196 J9820.953181
G02 X0.802356 Y41.306660 Z-1.000000 I-25.872804 J26.848959
G02 X0.721824 Y41.311965 Z-1.000000 I-0.037827 J0.039684
G02 X0.662566 Y41.480070 Z-1.000000 I0.208813 J0.168105
G01 X0.662586 Y41.480070 Z-1.000000
G00 Z5.000000

(End cutting path id: path395)


(Start cutting path id: path395)
(Change tool to Cylindrical cutter)

G00 Z5.000000
G00 X44.416566 Y53.414350

G01 Z-1.000000 F100.0(Penetrate)
G02 X44.429417 Y53.804091 Z-1.000000 I0.662475 J0.173239 F400.000000
G02 X44.556486 Y53.834100 Z-1.000000 I0.072809 J-0.024265
G02 X44.767525 Y53.466002 Z-1.000000 I-0.573213 J-0.573182
G02 X44.754666 Y53.076250 Z-1.000000 I-0.662448 J-0.173232
G02 X44.627606 Y53.046260 Z-1.000000 I-0.072798 J0.024270
G02 X44.416566 Y53.414350 Z-1.000000 I0.573211 J0.573188
G01 X44.416566 Y53.414350 Z-1.000000
G00 Z5.000000

(End cutting path id: path395)


(Start cutting path id: path395)
(Change tool to Cylindrical cutter)

G00 Z5.000000
G00 X49.302586 Y53.440000

G01 Z-1.000000 F100.0(Penetrate)
G03 X48.797916 Y53.662133 Z-1.000000 I-0.944541 J-1.461572 F400.000000
G03 X48.182586 Y53.732610 Z-1.000000 I-0.555031 J-2.124504
G01 X47.542586 Y53.715010 Z-1.000000
G01 X48.182586 Y53.439990 Z-1.000000
G03 X48.834133 Y53.216310 Z-1.000000 I1.811016 J4.214448
G03 X49.302586 Y53.147380 Z-1.000000 I0.547875 J2.097115
G03 X49.407055 Y53.248099 Z-1.000000 I0.003683 J0.100719
G03 X49.302586 Y53.439990 Z-1.000000 I-0.228470 J0.000000
G01 X49.302586 Y53.440000 Z-1.000000
G00 Z5.000000

(End cutting path id: path395)


(Start cutting path id: path395)
(Change tool to Cylindrical cutter)

G00 Z5.000000
G00 X49.622586 Y54.880000

G01 Z-1.000000 F100.0(Penetrate)
G03 X50.242799 Y55.623177 Z-1.000000 I-6.008712 J5.644912 F400.000000
G01 X50.214146 Y55.680000 Z-1.000000
G03 X50.076561 Y55.628188 Z-1.000000 I0.000000 J-0.208582
G03 X49.302586 Y54.880000 Z-1.000000 I7.376842 J-8.405510
G03 X48.682364 Y54.136823 Z-1.000000 I6.009490 J-5.645643
G01 X48.711016 Y54.080000 Z-1.000000
G03 X48.848602 Y54.131812 Z-1.000000 I0.000000 J0.208587
G03 X49.622586 Y54.880000 Z-1.000000 I-7.375978 J8.404707
G01 X49.622586 Y54.880000 Z-1.000000
G00 Z5.000000

(End cutting path id: path395)


(Start cutting path id: path395)
(Change tool to Cylindrical cutter)

G00 Z5.000000
G00 X51.263716 Y56.400000

G01 Z-1.000000 F100.0(Penetrate)
G03 X51.264027 Y56.651075 Z-1.000000 I-0.236148 J0.125831 F400.000000
G03 X51.114976 Y56.680820 Z-1.000000 I-0.086653 J-0.045897
G03 X50.662686 Y56.203876 Z-1.000000 I1.715974 J-2.080197
G03 X50.582586 Y55.960820 Z-1.000000 I0.328712 J-0.243056
G03 X50.767075 Y55.860261 Z-1.000000 I0.119650 J0.000000
G03 X51.263716 Y56.400000 Z-1.000000 I-0.790092 J1.225364
G01 X51.263716 Y56.400000 Z-1.000000
G00 Z5.000000

(End cutting path id: path395)


(Start cutting path id: path395)
(Change tool to Cylindrical cutter)

G00 Z5.000000
G00 X52.162296 Y56.080000

G01 Z-1.000000 F100.0(Penetrate)
G03 X52.012189 Y56.409801 Z-1.000000 I-0.456967 J-0.008926 F400.000000
G03 X51.841676 Y56.370450 Z-1.000000 I-0.071566 J-0.078998
G03 X51.654047 Y55.630632 Z-1.000000 I2.677266 J-1.072699
G03 X51.720846 Y55.330450 Z-1.000000 I0.465052 J-0.054036
G03 X51.966491 Y55.333069 Z-1.000000 I0.122032 J0.075421
G03 X52.162296 Y56.080000 Z-1.000000 I-1.221310 J0.719291
G01 X52.162296 Y56.080000 Z-1.000000
G00 Z5.000000

(End cutting path id: path395)


(Start cutting path id: path395)
(Change tool to Cylindrical cutter)

G00 Z5.000000
G00 X55.062586 Y58.045760

G01 Z-1.000000 F100.0(Penetrate)
G03 X55.012728 Y58.137297 Z-1.000000 I-0.108958 J0.000000 F400.000000
G03 X54.582586 Y58.355720 Z-1.000000 I-1.267071 J-1.962498
G03 X54.215264 Y58.375969 Z-1.000000 I-0.215121 J-0.560577
G03 X54.102586 Y58.229960 Z-1.000000 I0.038260 J-0.146009
G03 X54.211877 Y58.029289 Z-1.000000 I0.238873 J0.000000
G03 X54.582586 Y57.920000 Z-1.000000 I0.370709 J0.574080
G03 X55.007812 Y57.974785 Z-1.000000 I-0.000000 J1.677633
G03 X55.062586 Y58.045760 Z-1.000000 I-0.018597 J0.070975
G01 X55.062586 Y58.045760 Z-1.000000
G00 Z5.000000

(End cutting path id: path395)


(Start cutting path id: path395)
(Change tool to Cylindrical cutter)

G00 Z5.000000
G00 X57.499586 Y57.860360

G01 Z-1.000000 F100.0(Penetrate)
G02 X57.540600 Y57.988301 Z-1.000000 I0.075197 J0.046438 F400.000000
G02 X58.133286 Y58.126150 Z-1.000000 I0.701247 J-1.671967
G02 X58.808207 Y58.072055 Z-1.000000 I0.145443 J-2.422776
G02 X58.902586 Y57.954250 Z-1.000000 I-0.026333 J-0.117805
G02 X58.387291 Y57.403332 Z-1.000000 I-0.552149 J0.000000
G02 X57.499586 Y57.860350 Z-1.000000 I-0.064569 J0.965223
G01 X57.499586 Y57.860360 Z-1.000000
G00 Z5.000000

(End cutting path id: path395)


(Start cutting path id: path395)
(Change tool to Cylindrical cutter)

G00 Z5.000000
G00 X58.743326 Y56.397000

G01 Z-1.000000 F100.0(Penetrate)
G01 X58.797500 Y56.417128 Z-1.000000 F400.000000
G03 X58.765426 Y56.575320 Z-1.000000 I-0.252098 J0.031234
G03 X58.482474 Y56.750040 Z-1.000000 I-0.303606 J-0.175203
G03 X58.074126 Y56.616120 Z-1.000000 I-0.034491 J-0.584356
G03 X57.672555 Y56.217950 Z-1.000000 I2.044564 J-2.463615
G03 X57.622616 Y56.081400 Z-1.000000 I0.161719 J-0.136550
G01 X57.680338 Y56.044322 Z-1.000000
G03 X58.052056 Y56.277810 Z-1.000000 I-0.693229 J1.516269
G02 X58.478026 Y56.474057 Z-1.000000 I0.580357 J-0.699288
G02 X58.743356 Y56.396990 Z-1.000000 I0.053582 J-0.310806
G01 X58.743326 Y56.397000 Z-1.000000
G00 Z5.000000

(End cutting path id: path395)


(Start cutting path id: path395)
(Change tool to Cylindrical cutter)

G00 Z5.000000
G00 X58.161176 Y55.420000

G01 Z-1.000000 F100.0(Penetrate)
G03 X58.061590 Y55.440434 Z-1.000000 I-0.056531 J-0.022622 F400.000000
G03 X57.967846 Y55.226670 Z-1.000000 I0.226965 J-0.226970
G03 X58.036310 Y54.827118 Z-1.000000 I0.967466 J-0.039864
G03 X58.135916 Y54.806670 Z-1.000000 I0.056546 J0.022624
G03 X58.229652 Y55.020425 Z-1.000000 I-0.226955 J0.226955
G03 X58.161116 Y55.420000 Z-1.000000 I-0.966993 J0.039804
G01 X58.161176 Y55.420000 Z-1.000000
G00 Z5.000000

(End cutting path id: path395)


(Start cutting path id: path395)
(Change tool to Cylindrical cutter)

G00 Z5.000000
G00 X59.049426 Y55.061290

G01 Z-1.000000 F100.0(Penetrate)
G02 X58.934255 Y55.391424 Z-1.000000 I0.687886 J0.425133 F400.000000
G02 X58.991026 Y55.555090 Z-1.000000 I0.197088 J0.023315
G02 X59.111142 Y55.555148 Z-1.000000 I0.060087 J-0.060087
G02 X59.333026 Y55.213800 Z-1.000000 I-0.689893 J-0.691233
G02 X59.255868 Y55.005965 Z-1.000000 I-0.156615 J-0.060097
G02 X59.049436 Y55.061290 Z-1.000000 I-0.073836 J0.137287
G01 X59.049426 Y55.061290 Z-1.000000
G00 Z5.000000

(End cutting path id: path395)


(Start cutting path id: path395)
(Change tool to Cylindrical cutter)

G00 Z5.000000
G00 X57.406366 Y54.528900

G01 Z-1.000000 F100.0(Penetrate)
G03 X57.251466 Y55.523881 Z-1.000000 I-0.944639 J0.362486 F400.000000
G03 X56.057596 Y56.212970 Z-1.000000 I-1.479918 J-1.185254
G03 X55.331384 Y55.769698 Z-1.000000 I-0.099684 J-0.653201
G03 X55.553366 Y54.708080 Z-1.000000 I1.018106 J-0.341133
G03 X56.735431 Y54.113846 Z-1.000000 I1.358402 J1.229354
G03 X57.406366 Y54.528900 Z-1.000000 I0.062704 J0.648450
G01 X57.406366 Y54.528900 Z-1.000000
G00 Z5.000000

(End cutting path id: path395)


(Start cutting path id: path395)
(Change tool to Cylindrical cutter)

G00 Z5.000000
G00 X55.915916 Y54.933330

G01 Z-1.000000 F100.0(Penetrate)
G02 X55.807463 Y55.415643 Z-1.000000 I0.326856 J0.326847 F400.000000
G02 X56.182586 Y55.680000 Z-1.000000 I0.375123 J-0.133971
G02 X56.521997 Y55.539411 Z-1.000000 I-0.000000 J-0.480000
G02 X56.662586 Y55.200000 Z-1.000000 I-0.339411 J-0.339411
G02 X56.398229 Y54.824875 Z-1.000000 I-0.398332 J0.000000
G02 X55.915916 Y54.933330 Z-1.000000 I-0.155467 J0.435302
G01 X55.915916 Y54.933330 Z-1.000000
G00 Z5.000000

(End cutting path id: path395)


(Start cutting path id: path395)
(Change tool to Cylindrical cutter)

G00 Z5.000000
G00 X56.784586 Y48.400000

G01 Z-1.000000 F100.0(Penetrate)
G03 X56.545652 Y48.798079 Z-1.000000 I-25.049207 J-14.764231 F400.000000
G03 X56.051226 Y49.600000 Z-1.000000 I-102.068498 J-62.377152
G02 X55.987618 Y49.913766 Z-1.000000 I0.389562 J0.242304
G02 X56.108126 Y49.960820 Z-1.000000 I0.073997 J-0.011669
G03 X56.329009 Y50.065123 Z-1.000000 I0.084620 J0.106834
G03 X56.123926 Y50.811260 Z-1.000000 I-1.367429 J0.025401
G02 X55.933884 Y51.263641 Z-1.000000 I1.330497 J0.825041
G01 X56.002916 Y51.305000 Z-1.000000
G03 X56.447855 Y51.077511 Z-1.000000 I0.651917 J0.726199
G03 X56.893916 Y51.111640 Z-1.000000 I0.165863 J0.764243
G02 X57.309074 Y51.117710 Z-1.000000 I0.215847 J-0.562455
G02 X57.650026 Y50.846630 Z-1.000000 I-0.219451 J-0.625972
G02 X57.691123 Y50.445957 Z-1.000000 I-0.381519 J-0.241576
G02 X57.488796 Y50.418340 Z-1.000000 I-0.108630 J0.040895
G03 X57.066050 Y50.448986 Z-1.000000 I-0.224378 J-0.164070
G03 X56.988626 Y49.908790 Z-1.000000 I0.328831 J-0.322776
G02 X57.109299 Y49.476454 Z-1.000000 I-0.909928 J-0.486987
G02 X57.014526 Y49.420270 Z-1.000000 I-0.062088 J-0.003292
G03 X56.827728 Y49.319262 Z-1.000000 I-0.064381 J-0.104169
G03 X56.993826 Y48.618960 Z-1.000000 I1.406265 J-0.036309
G02 X56.961153 Y48.379593 Z-1.000000 I-0.181501 J-0.097139
G02 X56.784576 Y48.400000 Z-1.000000 I-0.080569 J0.076996
G01 X56.784586 Y48.400000 Z-1.000000
G00 Z5.000000

(End cutting path id: path395)


(Start cutting path id: path395)
(Change tool to Cylindrical cutter)

G00 Z5.000000
G00 X63.382586 Y48.760820

G01 Z-1.000000 F100.0(Penetrate)
G03 X63.340906 Y48.861434 Z-1.000000 I-0.142279 J-0.000000 F400.000000
G03 X62.822586 Y49.320820 Z-1.000000 I-4.074628 J-4.075257
G03 X62.708631 Y49.313955 Z-1.000000 I-0.053105 J-0.067715
G03 X62.701766 Y49.200000 Z-1.000000 I0.060850 J-0.060850
G03 X63.257914 Y48.692881 Z-1.000000 I1.787576 J1.401884
G03 X63.382586 Y48.760820 Z-1.000000 I0.043825 J0.067939
G01 X63.382586 Y48.760820 Z-1.000000
G00 Z5.000000

(End cutting path id: path395)


(Start cutting path id: path395)
(Change tool to Cylindrical cutter)

G00 Z5.000000
G00 X67.718746 Y40.800000

G01 Z-1.000000 F100.0(Penetrate)
G03 X67.697331 Y41.259768 Z-1.000000 I-0.920313 J0.187515 F400.000000
G03 X67.573366 Y41.280000 Z-1.000000 I-0.066942 J-0.020275
G02 X67.327948 Y41.106341 Z-1.000000 I-0.370289 J0.263056
G02 X67.227476 Y41.181100 Z-1.000000 I-0.021667 J0.075775
G02 X67.309930 Y41.514183 Z-1.000000 I0.674968 J0.009660
G02 X67.543176 Y41.760360 Z-1.000000 I0.581604 J-0.317468
G02 X68.590841 Y41.451747 Z-1.000000 I0.385530 J-0.623810
G02 X68.351536 Y40.062280 Z-1.000000 I-1.103481 J-0.525291
G02 X68.256150 Y40.073614 Z-1.000000 I-0.043230 J0.043230
G02 X68.177686 Y40.346660 Z-1.000000 I0.455909 J0.278810
G03 X68.066894 Y40.447752 Z-1.000000 I-0.102517 J-0.001096
G03 X67.847956 Y40.319960 Z-1.000000 I0.023639 J-0.291942
G02 X67.733024 Y40.339213 Z-1.000000 I-0.053064 J0.035908
G02 X67.718746 Y40.799960 Z-1.000000 I0.968044 J0.260592
G01 X67.718746 Y40.800000 Z-1.000000
G00 Z5.000000

(End cutting path id: path395)


(Start cutting path id: path395)
(Change tool to Cylindrical cutter)

G00 Z5.000000
G00 X70.702916 Y37.030320

G01 Z-1.000000 F100.0(Penetrate)
G02 X71.808217 Y38.257510 Z-1.000000 I5.239851 J-3.608053 F400.000000
G02 X72.022586 Y38.158760 Z-1.000000 I0.084440 J-0.098750
G02 X71.935428 Y37.917810 Z-1.000000 I-0.376635 J0.000000
G02 X71.008026 Y36.939870 Z-1.000000 I-8.008830 J6.666242
G01 X69.993466 Y36.000000 Z-1.000000
G01 X70.702916 Y37.030320 Z-1.000000
G00 Z5.000000

(End cutting path id: path395)


(Start cutting path id: path395)
(Change tool to Cylindrical cutter)

G00 Z5.000000
G00 X72.342586 Y39.000820

G01 Z-1.000000 F100.0(Penetrate)
G02 X72.422686 Y39.243876 Z-1.000000 I0.408813 J-0.000000 F400.000000
G02 X72.874976 Y39.720820 Z-1.000000 I2.168264 J-1.603253
G02 X73.024027 Y39.691075 Z-1.000000 I0.062399 J-0.075642
G02 X73.023716 Y39.440000 Z-1.000000 I-0.236459 J-0.125244
G02 X72.527075 Y38.900261 Z-1.000000 I-1.286733 J0.685625
G02 X72.342586 Y39.000820 Z-1.000000 I-0.064839 J0.100559
G01 X72.342586 Y39.000820 Z-1.000000
G00 Z5.000000

(End cutting path id: path395)


(Start cutting path id: path395)
(Change tool to Cylindrical cutter)

G00 Z5.000000
G00 X75.223446 Y42.461110

G01 Z-1.000000 F100.0(Penetrate)
G02 X75.301484 Y42.690070 Z-1.000000 I0.377388 J-0.000848 F400.000000
G02 X76.527396 Y44.160000 Z-1.000000 I18.794752 J-14.428539
G01 X77.830466 Y45.600000 Z-1.000000
G01 X76.773376 Y44.053680 Z-1.000000
G02 X75.408518 Y42.385556 Z-1.000000 I-10.346464 J7.073044
G02 X75.223446 Y42.461110 Z-1.000000 I-0.077261 J0.075193
G01 X75.223446 Y42.461110 Z-1.000000
G00 Z5.000000

(End cutting path id: path395)


(Start cutting path id: path395)
(Change tool to Cylindrical cutter)

G00 Z5.000000
G00 X79.064686 Y47.208800

G01 Z-1.000000 F100.0(Penetrate)
G02 X79.261951 Y47.816413 Z-1.000000 I1.055867 J-0.006965 F400.000000
G02 X81.782586 Y51.006030 Z-1.000000 I34.788498 J-24.901259
G03 X83.274673 Y52.884327 Z-1.000000 I-20.109726 J17.506612
G03 X83.382586 Y53.217590 Z-1.000000 I-0.460643 J0.333263
G02 X83.512950 Y53.483297 Z-1.000000 I0.335964 J-0.000000
G02 X84.022586 Y53.712810 Z-1.000000 I0.733260 J-0.947629
G02 X84.145560 Y53.526225 Z-1.000000 I0.022591 J-0.118928
G02 X81.897646 Y50.560000 Z-1.000000 I-27.844521 J18.766715
G03 X80.162546 Y48.456526 Z-1.000000 I73.084365 J-62.052714
G03 X79.597096 Y47.688800 Z-1.000000 I9.147727 J-7.329634
G02 X79.147490 Y47.171632 Z-1.000000 I-2.342799 J1.582719
G01 X79.064686 Y47.208800 Z-1.000000
G01 X79.064686 Y47.208800 Z-1.000000
G00 Z5.000000

(End cutting path id: path395)


(Start cutting path id: path395)
(Change tool to Cylindrical cutter)

G00 Z5.000000
G00 X75.683746 Y51.690180

G01 Z-1.000000 F100.0(Penetrate)
G02 X76.333346 Y52.075245 Z-1.000000 I2.029509 J-2.683287 F400.000000
G02 X76.728446 Y52.160000 Z-1.000000 I0.395100 J-0.878541
G03 X77.074023 Y52.298668 Z-1.000000 I0.000000 J0.499943
G03 X77.740996 Y53.128560 Z-1.000000 I-2.825211 J2.953548
G02 X78.359207 Y53.698827 Z-1.000000 I1.303215 J-0.792553
G02 X78.723846 Y53.622570 Z-1.000000 I0.134382 J-0.267353
G02 X78.972627 Y53.137932 Z-1.000000 I-0.966996 J-0.802564
G02 X78.928136 Y52.841350 Z-1.000000 I-0.368466 J-0.096354
G03 X78.910596 Y52.588713 Z-1.000000 I0.231363 J-0.142990
G03 X79.140586 Y52.360030 Z-1.000000 I0.406928 J0.179259
G01 X79.131212 Y52.315608 Z-1.000000
G02 X78.680766 Y52.363030 Z-1.000000 I0.014537 J2.301117
G03 X77.615962 Y52.148208 Z-1.000000 I-0.279840 J-1.359280
G03 X77.527046 Y51.571710 Z-1.000000 I0.226353 J-0.330018
G02 X77.549304 Y51.425895 Z-1.000000 I-0.118579 J-0.092707
G02 X77.462546 Y51.400660 Z-1.000000 I-0.052845 J0.019927
G03 X76.960612 Y51.594000 Z-1.000000 I-0.591746 J-0.788033
G03 X76.342546 Y51.503150 Z-1.000000 I-0.121140 J-1.323690
G02 X75.724968 Y51.470306 Z-1.000000 I-0.356731 J0.885049
G02 X75.683706 Y51.690380 Z-1.000000 I0.034191 J0.120316
G01 X75.683746 Y51.690180 Z-1.000000
G00 Z5.000000

(End cutting path id: path395)


(Start cutting path id: path395)
(Change tool to Cylindrical cutter)

G00 Z5.000000
G00 X84.644016 Y56.929960

G01 Z-1.000000 F100.0(Penetrate)
G02 X84.877655 Y57.083997 Z-1.000000 I0.282921 J-0.174918 F400.000000
G02 X85.462906 Y57.052640 Z-1.000000 I0.216158 J-1.442857
G02 X85.571707 Y56.828918 Z-1.000000 I-0.041443 J-0.158472
G02 X85.283696 Y56.640000 Z-1.000000 I-0.288011 J0.125082
G02 X84.693524 Y56.767515 Z-1.000000 I0.000000 J1.429488
G02 X84.644016 Y56.929960 Z-1.000000 I0.046687 J0.102995
G01 X84.644016 Y56.929960 Z-1.000000
G00 Z5.000000

(End cutting path id: path395)


(Start cutting path id: path395)
(Change tool to Cylindrical cutter)

G00 Z5.000000
G00 X88.822586 Y59.200000

G01 Z-1.000000 F100.0(Penetrate)
G02 X89.045956 Y59.474082 Z-1.000000 I1.157880 J-0.715583 F400.000000
G02 X89.161466 Y59.520000 Z-1.000000 I0.115510 J-0.122327
G02 X89.246884 Y59.464318 Z-1.000000 I0.000000 J-0.093357
G02 X89.302586 Y59.200000 Z-1.000000 I-0.599266 J-0.264318
G02 X89.206190 Y58.976397 Z-1.000000 I-0.307536 J0.000000
G02 X88.963696 Y58.880000 Z-1.000000 I-0.242494 J0.256808
G02 X88.807479 Y58.981844 Z-1.000000 I-0.000000 J0.170732
G02 X88.822586 Y59.200000 Z-1.000000 I0.214811 J0.094725
G01 X88.822586 Y59.200000 Z-1.000000
G00 Z5.000000

(End cutting path id: path395)


(Start cutting path id: path395)
(Change tool to Cylindrical cutter)

G00 Z5.000000
G00 X88.982586 Y61.600000

G01 Z-1.000000 F100.0(Penetrate)
G03 X88.648466 Y62.086075 Z-1.000000 I-0.520629 J0.000000 F400.000000
G03 X88.216816 Y61.893830 Z-1.000000 I-0.119699 J-0.311956
G03 X88.170362 Y61.056579 Z-1.000000 I1.279277 J-0.490894
G03 X88.502586 Y60.800000 Z-1.000000 I0.332224 J0.086796
G03 X88.809058 Y60.973520 Z-1.000000 I-0.000000 J0.357407
G03 X88.982586 Y61.600000 Z-1.000000 I-1.044113 J0.626480
G01 X88.982586 Y61.600000 Z-1.000000
G00 Z5.000000

(End cutting path id: path395)


(Start cutting path id: path395)
(Change tool to Cylindrical cutter)

G00 Z5.000000
G00 X89.942586 Y61.760000

G01 Z-1.000000 F100.0(Penetrate)
G03 X89.848860 Y61.986274 Z-1.000000 I-0.320000 J-0.000000 F400.000000
G03 X89.622586 Y62.080000 Z-1.000000 I-0.226274 J-0.226274
G03 X89.396312 Y61.986274 Z-1.000000 I0.000000 J-0.320000
G03 X89.302586 Y61.760000 Z-1.000000 I0.226274 J-0.226274
G03 X89.396312 Y61.533726 Z-1.000000 I0.320000 J-0.000000
G03 X89.622586 Y61.440000 Z-1.000000 I0.226274 J0.226274
G03 X89.848860 Y61.533726 Z-1.000000 I-0.000000 J0.320000
G03 X89.942586 Y61.760000 Z-1.000000 I-0.226274 J0.226274
G01 X89.942586 Y61.760000 Z-1.000000
G00 Z5.000000

(End cutting path id: path395)


(Start cutting path id: path395)
(Change tool to Cylindrical cutter)

G00 Z5.000000
G00 X90.582586 Y62.720000

G01 Z-1.000000 F100.0(Penetrate)
G03 X90.464892 Y62.921273 Z-1.000000 I-0.230949 J0.000000 F400.000000
G03 X90.022586 Y63.035100 Z-1.000000 I-0.434538 J-0.772251
G03 X89.866829 Y62.912892 Z-1.000000 I0.001355 J-0.162089
G03 X89.942586 Y62.720000 Z-1.000000 I0.172171 J-0.043703
G03 X90.436791 Y62.574205 Z-1.000000 I0.494205 J0.764708
G03 X90.582586 Y62.720000 Z-1.000000 I0.000000 J0.145795
G01 X90.582586 Y62.720000 Z-1.000000
G00 Z5.000000

(End cutting path id: path395)


(Start cutting path id: path395)
(Change tool to Cylindrical cutter)

G00 Z5.000000
G00 X91.222586 Y66.953420

G01 Z-1.000000 F100.0(Penetrate)
G03 X91.113835 Y67.046804 Z-1.000000 I-0.094470 J0.000000 F400.000000
G03 X90.742586 Y66.880020 Z-1.000000 I0.115133 J-0.752857
G03 X90.299660 Y66.464251 Z-1.000000 I3.178859 J-3.830301
G03 X90.262586 Y66.370880 Z-1.000000 I0.099038 J-0.093371
G01 X90.310450 Y66.329775 Z-1.000000
G03 X90.742586 Y66.444280 Z-1.000000 I-0.315126 J2.061960
G03 X91.121226 Y66.698147 Z-1.000000 I-0.367292 J0.957112
G03 X91.222586 Y66.953420 Z-1.000000 I-0.270768 J0.255273
G01 X91.222586 Y66.953420 Z-1.000000
G00 Z5.000000

(End cutting path id: path395)


(Start cutting path id: path395)
(Change tool to Cylindrical cutter)

G00 Z5.000000
G00 X89.843166 Y68.080000

G01 Z-1.000000 F100.0(Penetrate)
G01 X89.768784 Y68.079998 Z-1.000000 F400.000000
G03 X89.696826 Y67.520000 Z-1.000000 I2.143065 J-0.559998
G03 X89.768803 Y66.959993 Z-1.000000 I2.214532 J0.000000
G01 X89.843166 Y66.960000 Z-1.000000
G03 X89.915139 Y67.520000 Z-1.000000 I-2.142609 J0.560000
G03 X89.843166 Y68.080000 Z-1.000000 I-2.214582 J0.000000
G01 X89.843166 Y68.080000 Z-1.000000
G00 Z5.000000

(End cutting path id: path395)


(Start cutting path id: path395)
(Change tool to Cylindrical cutter)

G00 Z5.000000
G00 X91.410866 Y69.038380

G01 Z-1.000000 F100.0(Penetrate)
G03 X91.121409 Y68.976222 Z-1.000000 I-0.124638 J-0.124634 F400.000000
G03 X91.125596 Y68.285800 Z-1.000000 I0.896395 J-0.339788
G03 X91.322883 Y68.142749 Z-1.000000 I0.210484 J0.082718
G03 X91.481416 Y68.265000 Z-1.000000 I0.008907 J0.152367
G03 X91.511512 Y68.823597 Z-1.000000 I-1.899023 J0.382425
G03 X91.410916 Y69.038340 Z-1.000000 I-0.347189 J-0.031706
G01 X91.410866 Y69.038380 Z-1.000000
G00 Z5.000000

(End cutting path id: path395)


(Start cutting path id: path395)
(Change tool to Cylindrical cutter)

G00 Z5.000000
G00 X90.621646 Y70.616000

G01 Z-1.000000 F100.0(Penetrate)
G03 X90.389520 Y70.785590 Z-1.000000 I-0.309511 J-0.179987 F400.000000
G03 X90.272316 Y70.693330 Z-1.000000 I-0.020833 J-0.094111
G03 X90.504668 Y69.924786 Z-1.000000 I1.304739 J-0.024937
G03 X90.825246 Y69.896000 Z-1.000000 I0.172310 J0.119482
G03 X90.863983 Y70.044649 Z-1.000000 I-0.107346 J0.107346
G03 X90.621646 Y70.615996 Z-1.000000 I-2.383557 J-0.673920
G01 X90.621646 Y70.616000 Z-1.000000
G00 Z5.000000

(End cutting path id: path395)


(Start cutting path id: path395)
(Change tool to Cylindrical cutter)

G00 Z5.000000
G00 X89.462586 Y70.400000

G01 Z-1.000000 F100.0(Penetrate)
G02 X89.458298 Y70.612148 Z-1.000000 I0.177496 J0.109705 F400.000000
G02 X89.642876 Y70.720000 Z-1.000000 I0.184578 J-0.104018
G03 X89.773329 Y70.836281 Z-1.000000 I0.000000 J0.131316
G03 X89.688976 Y71.120000 Z-1.000000 I-0.374238 J0.043134
G02 X89.413203 Y71.543017 Z-1.000000 I1.693364 J1.405338
G02 X89.329796 Y71.840000 Z-1.000000 I0.734838 J0.366580
G03 X88.932863 Y72.168834 Z-1.000000 I-0.360008 J-0.030579
G03 X88.473256 Y71.752000 Z-1.000000 I0.053504 J-0.520796
G03 X88.499931 Y71.663345 Z-1.000000 I0.095982 J-0.019462
G01 X88.553256 Y71.672000 Z-1.000000
G02 X88.935988 Y71.842562 Z-1.000000 I0.294445 J-0.146022
G02 X89.098306 Y71.520000 Z-1.000000 I-0.065568 J-0.235116
G03 X89.035986 Y70.416993 Z-1.000000 I1.690678 J-0.648787
G03 X89.471426 Y70.080000 Z-1.000000 I0.435440 J0.112827
G03 X89.537826 Y70.148285 Z-1.000000 I0.000000 J0.066426
G03 X89.462426 Y70.400000 Z-1.000000 I-0.505064 J-0.014140
G01 X89.462586 Y70.400000 Z-1.000000
G00 Z5.000000

(End cutting path id: path395)


(Start cutting path id: path395)
(Change tool to Cylindrical cutter)

G00 Z5.000000
G00 X83.542586 Y72.760820

G01 Z-1.000000 F100.0(Penetrate)
G02 X83.584236 Y72.861371 Z-1.000000 I0.142200 J-0.000000 F400.000000
G02 X84.102586 Y73.320820 Z-1.000000 I4.072940 J-4.072965
G02 X84.216534 Y73.313954 Z-1.000000 I0.053101 J-0.067708
G02 X84.223396 Y73.200001 Z-1.000000 I-0.060852 J-0.060848
G02 X83.667257 Y72.692883 Z-1.000000 I-1.787636 J1.401931
G02 X83.542586 Y72.760820 Z-1.000000 I-0.043825 J0.067937
G01 X83.542586 Y72.760820 Z-1.000000
G00 Z5.000000

(End cutting path id: path395)


(Start cutting path id: path395)
(Change tool to Cylindrical cutter)

G00 Z5.000000
G00 X83.543746 Y74.400001

G01 Z-1.000000 F100.0(Penetrate)
G03 X84.333928 Y75.366145 Z-1.000000 I-56.581522 J47.082685 F400.000000
G03 X84.422586 Y75.493335 Z-1.000000 I-0.884993 J0.711375
G02 X84.513372 Y75.539003 Z-1.000000 I0.081469 J-0.048883
G02 X84.659246 Y75.470005 Z-1.000000 I-0.023489 J-0.238360
G02 X84.667555 Y75.317049 Z-1.000000 I-0.081070 J-0.081108
G02 X83.780406 Y74.376674 Z-1.000000 I-6.368500 J5.119384
G01 X82.744906 Y73.440002 Z-1.000000
G01 X83.543746 Y74.400001 Z-1.000000
G00 Z5.000000

(End cutting path id: path395)


(Start cutting path id: path395)
(Change tool to Cylindrical cutter)

G00 Z5.000000
G00 X85.279226 Y76.646871

G01 Z-1.000000 F100.0(Penetrate)
G02 X85.840789 Y76.771186 Z-1.000000 I0.416377 J-0.550361 F400.000000
G02 X85.955736 Y76.501291 Z-1.000000 I-0.037769 J-0.175511
G02 X85.686454 Y76.267018 Z-1.000000 I-0.511658 J0.316220
G02 X85.203696 Y76.170177 Z-1.000000 I-0.461235 J1.047577
G02 X85.081103 Y76.316467 Z-1.000000 I0.002370 J0.126498
G02 X85.279196 Y76.646871 Z-1.000000 I0.509076 J-0.080630
G01 X85.279226 Y76.646871 Z-1.000000
G00 Z5.000000

(End cutting path id: path395)


(Start cutting path id: path395)
(Change tool to Cylindrical cutter)

G00 Z5.000000
G00 X87.860316 Y81.596336

G01 Z-1.000000 F100.0(Penetrate)
G03 X87.821156 Y81.718261 Z-1.000000 I-0.071603 J0.044254 F400.000000
G03 X87.559206 Y81.722099 Z-1.000000 I-0.135765 J-0.325038
G03 X87.260707 Y81.438155 Z-1.000000 I0.192234 J-0.500960
G03 X87.363696 Y81.280000 Z-1.000000 I0.102989 J-0.045545
G03 X87.622719 Y81.355489 Z-1.000000 I0.000000 J0.482132
G03 X87.860316 Y81.596336 Z-1.000000 I-0.407297 J0.639421
G01 X87.860316 Y81.596336 Z-1.000000
G00 Z5.000000

(End cutting path id: path395)


(Start cutting path id: path395)
(Change tool to Cylindrical cutter)

G00 Z5.000000
G00 X75.552756 Y72.880001

G01 Z-1.000000 F100.0(Penetrate)
G02 X75.646072 Y73.497914 Z-1.000000 I1.901682 J0.028813 F400.000000
G02 X75.786696 Y73.600001 Z-1.000000 I0.140624 J-0.045810
G03 X75.972938 Y73.689931 Z-1.000000 I0.000000 J0.237815
G03 X76.358416 Y74.320001 Z-1.000000 I-2.375668 J1.886391
G02 X76.768544 Y74.877632 Z-1.000000 I1.531636 J-0.696856
G02 X77.074296 Y74.960001 Z-1.000000 I0.234694 J-0.262522
G03 X77.308384 Y75.069205 Z-1.000000 I0.043664 J0.211899
G03 X77.462586 Y75.680001 Z-1.000000 I-1.132582 J0.610796
G02 X77.591136 Y76.351443 Z-1.000000 I1.817808 J0.000000
G02 X77.780576 Y76.480001 Z-1.000000 I0.189440 J-0.075298
G02 X78.093607 Y76.069414 Z-1.000000 I0.000000 J-0.324621
G02 X77.185576 Y74.313387 Z-1.000000 I-4.589373 J1.260355
G03 X76.482820 Y73.430182 Z-1.000000 I30.437614 J-24.940035
G03 X76.016436 Y72.800001 Z-1.000000 I15.028994 J-11.610329
G02 X75.724237 Y72.679298 Z-1.000000 I-0.241811 J0.171347
G02 X75.552756 Y72.880001 Z-1.000000 I0.035132 J0.203625
G01 X75.552756 Y72.880001 Z-1.000000
G00 Z5.000000

(End cutting path id: path395)


(Start cutting path id: path395)
(Change tool to Cylindrical cutter)

G00 Z5.000000
G00 X75.862586 Y70.520819

G01 Z-1.000000 F100.0(Penetrate)
G02 X75.904236 Y70.621370 Z-1.000000 I0.142200 J-0.000000 F400.000000
G02 X76.422586 Y71.080819 Z-1.000000 I4.072940 J-4.072965
G02 X76.536534 Y71.073953 Z-1.000000 I0.053101 J-0.067708
G02 X76.543396 Y70.960000 Z-1.000000 I-0.060852 J-0.060848
G02 X75.987257 Y70.452882 Z-1.000000 I-1.787636 J1.401931
G02 X75.862586 Y70.520819 Z-1.000000 I-0.043825 J0.067937
G01 X75.862586 Y70.520819 Z-1.000000
G00 Z5.000000

(End cutting path id: path395)


(Start cutting path id: path395)
(Change tool to Cylindrical cutter)

G00 Z5.000000
G00 X77.782586 Y68.388800

G01 Z-1.000000 F100.0(Penetrate)
G02 X77.944234 Y68.790259 Z-1.000000 I0.579345 J-0.000000 F400.000000
G02 X79.299548 Y70.072946 Z-1.000000 I14.213731 J-13.661172
G02 X80.707037 Y71.153725 Z-1.000000 I10.398392 J-12.084855
G02 X80.914656 Y71.083782 Z-1.000000 I0.077406 J-0.113348
G02 X80.886931 Y70.792019 Z-1.000000 I-0.343453 J-0.114562
G02 X80.362586 Y70.100000 Z-1.000000 I-2.772441 J1.556028
G03 X79.789322 Y69.404070 Z-1.000000 I3.313154 J-3.313246
G03 X79.702586 Y69.120000 Z-1.000000 I0.421812 J-0.284070
G02 X79.584046 Y68.918540 Z-1.000000 I-0.230462 J0.000000
G02 X79.126586 Y68.800000 Z-1.000000 I-0.457460 J0.823428
G03 X78.593139 Y68.697268 Z-1.000000 I-0.000000 J-1.436350
G03 X78.166586 Y68.416000 Z-1.000000 I0.471880 J-1.179701
G02 X77.889222 Y68.289449 Z-1.000000 I-0.308150 J0.308150
G02 X77.782586 Y68.388800 Z-1.000000 I-0.007036 J0.099351
G01 X77.782586 Y68.388800 Z-1.000000
G00 Z5.000000

(End cutting path id: path395)


(Start cutting path id: path395)
(Change tool to Cylindrical cutter)

G00 Z5.000000
G00 X77.462586 Y67.642680

G01 Z-1.000000 F100.0(Penetrate)
G02 X77.515415 Y67.724607 Z-1.000000 I0.089941 J0.000000 F400.000000
G02 X78.103026 Y67.932840 Z-1.000000 I1.519024 J-3.353318
G02 X78.515687 Y67.931958 Z-1.000000 I0.204658 J-0.782724
G02 X78.564136 Y67.810160 Z-1.000000 I-0.020986 J-0.078883
G02 X77.831308 Y67.325780 Z-1.000000 I-0.890109 J0.550118
G02 X77.462586 Y67.642680 Z-1.000000 I-0.048180 J0.316900
G01 X77.462586 Y67.642680 Z-1.000000
G00 Z5.000000

(End cutting path id: path395)


(Start cutting path id: path395)
(Change tool to Cylindrical cutter)

G00 Z5.000000
G00 X74.925596 Y65.760000

G01 Z-1.000000 F100.0(Penetrate)
G02 X75.006072 Y66.051249 Z-1.000000 I0.567263 J0.000000 F400.000000
G02 X75.635906 Y66.947200 Z-1.000000 I6.394898 J-3.826116
G02 X76.390911 Y67.538160 Z-1.000000 I1.696316 J-1.389423
G02 X76.824396 Y67.512110 Z-1.000000 I0.193110 J-0.406276
G02 X76.938297 Y67.313231 Z-1.000000 I-0.130866 J-0.207005
G02 X76.834596 Y67.204900 Z-1.000000 I-0.104800 J-0.003479
G03 X76.429816 Y67.068198 Z-1.000000 I0.008060 J-0.691499
G03 X75.646106 Y66.320000 Z-1.000000 I2.647028 J-3.557221
G02 X75.022885 Y65.712397 Z-1.000000 I-3.012522 J2.466533
G02 X74.925596 Y65.760000 Z-1.000000 I-0.036998 J0.047603
G01 X74.925596 Y65.760000 Z-1.000000
G00 Z5.000000

(End cutting path id: path395)


(Start cutting path id: path395)
(Change tool to Cylindrical cutter)

G00 Z5.000000
G00 X73.462586 Y65.600000

G01 Z-1.000000 F100.0(Penetrate)
G02 X73.704107 Y65.841524 Z-1.000000 I0.632293 J-0.390765 F400.000000
G02 X73.980356 Y65.920000 Z-1.000000 I0.276249 J-0.446984
G02 X74.123539 Y65.821418 Z-1.000000 I0.000000 J-0.153272
G02 X74.102586 Y65.600000 Z-1.000000 I-0.234374 J-0.089521
G02 X73.861059 Y65.358476 Z-1.000000 I-0.632359 J0.390841
G02 X73.584816 Y65.280000 Z-1.000000 I-0.276243 J0.446960
G02 X73.441631 Y65.378581 Z-1.000000 I0.000000 J0.153276
G02 X73.462586 Y65.600000 Z-1.000000 I0.234358 J0.089522
G01 X73.462586 Y65.600000 Z-1.000000
G00 Z5.000000

(End cutting path id: path395)


(Start cutting path id: path395)
(Change tool to Cylindrical cutter)

G00 Z5.000000
G00 X71.702586 Y69.101100

G01 Z-1.000000 F100.0(Penetrate)
G02 X71.778456 Y69.359909 Z-1.000000 I0.479362 J0.000000 F400.000000
G02 X72.022586 Y69.599990 Z-1.000000 I0.650339 J-0.417144
G02 X72.221124 Y69.579929 Z-1.000000 I0.086191 J-0.139464
G02 X72.342586 Y69.298870 Z-1.000000 I-0.264449 J-0.281059
G02 X72.229492 Y68.913086 Z-1.000000 I-0.714536 J0.000000
G02 X72.022586 Y68.799990 Z-1.000000 I-0.206906 J0.132716
G02 X71.793444 Y68.890848 Z-1.000000 I-0.000000 J0.334375
G02 X71.702586 Y69.101100 Z-1.000000 I0.197841 J0.210252
G01 X71.702586 Y69.101100 Z-1.000000
G00 Z5.000000

(End cutting path id: path395)


(Start cutting path id: path395)
(Change tool to Cylindrical cutter)

G00 Z5.000000
G00 X67.625766 Y69.615360

G01 Z-1.000000 F100.0(Penetrate)
G02 X67.439639 Y70.017231 Z-1.000000 I0.532907 J0.490854 F400.000000
G02 X67.548066 Y70.243366 Z-1.000000 I0.230528 J0.028529
G02 X67.800740 Y70.243763 Z-1.000000 I0.126659 J-0.204940
G02 X68.064416 Y69.926480 Z-1.000000 I-0.335920 J-0.547370
G02 X67.959697 Y69.580258 Z-1.000000 I-0.275353 J-0.105664
G02 X67.625806 Y69.615360 Z-1.000000 I-0.147003 J0.207244
G01 X67.625766 Y69.615360 Z-1.000000
G00 Z5.000000

(End cutting path id: path395)


(Start cutting path id: path395)
(Change tool to Cylindrical cutter)

G00 Z5.000000
G00 X66.742586 Y72.960001

G01 Z-1.000000 F100.0(Penetrate)
G02 X66.727474 Y73.178148 Z-1.000000 I0.199705 J0.123431 F400.000000
G02 X66.883696 Y73.280001 Z-1.000000 I0.156222 J-0.068880
G02 X67.126190 Y73.183604 Z-1.000000 I-0.000000 J-0.353205
G02 X67.222586 Y72.960001 Z-1.000000 I-0.211140 J-0.223603
G02 X67.166896 Y72.695696 Z-1.000000 I-0.655045 J0.000000
G02 X67.081466 Y72.640001 Z-1.000000 I-0.085430 J0.037673
G02 X66.965966 Y72.685913 Z-1.000000 I0.000000 J0.168235
G02 X66.742586 Y72.960001 Z-1.000000 I0.934428 J0.989627
G01 X66.742586 Y72.960001 Z-1.000000
G00 Z5.000000

(End cutting path id: path395)


(Start cutting path id: path395)
(Change tool to Cylindrical cutter)

G00 Z5.000000
G00 X66.262586 Y74.080001

G01 Z-1.000000 F100.0(Penetrate)
G02 X66.095798 Y74.451245 Z-1.000000 I0.586031 J0.486373 F400.000000
G02 X66.189186 Y74.560001 Z-1.000000 I0.093388 J0.014282
G02 X66.444459 Y74.458641 Z-1.000000 I0.000000 J-0.372128
G02 X66.698326 Y74.080001 Z-1.000000 I-0.703245 J-0.745931
G02 X66.812850 Y73.647893 Z-1.000000 I-1.948399 J-0.747624
G01 X66.771726 Y73.600001 Z-1.000000
G02 X66.678393 Y73.637058 Z-1.000000 I-0.000000 J0.136065
G02 X66.262586 Y74.080001 Z-1.000000 I3.413144 J3.620683
G01 X66.262586 Y74.080001 Z-1.000000
G00 Z5.000000

(End cutting path id: path395)


(Start cutting path id: path395)
(Change tool to Cylindrical cutter)

G00 Z5.000000
G00 X66.772446 Y76.396798

G01 Z-1.000000 F100.0(Penetrate)
G03 X66.582091 Y76.481572 Z-1.000000 I-0.205670 J-0.205717 F400.000000
G03 X64.042686 Y76.540705 Z-1.000000 I-2.275427 J-43.160257
G02 X61.547474 Y76.660394 Z-1.000000 I-0.140750 J23.135047
G02 X61.288676 Y76.822500 Z-1.000000 I0.035169 J0.343781
G03 X61.044017 Y77.010947 Z-1.000000 I-0.371959 J-0.229869
G03 X60.311076 Y77.120001 Z-1.000000 I-0.732941 J-2.408480
G02 X59.924678 Y77.298181 Z-1.000000 I0.000000 J0.508058
G02 X59.929966 Y77.566414 Z-1.000000 I0.153609 J0.131140
G02 X60.359401 Y77.894273 Z-1.000000 I1.154737 J-1.067325
G02 X60.549056 Y77.888251 Z-1.000000 I0.089459 J-0.172083
G03 X60.892463 Y77.973160 Z-1.000000 I0.129240 J0.214194
G03 X61.142586 Y78.871483 Z-1.000000 I-1.488113 J0.898323
G03 X61.097808 Y78.935683 Z-1.000000 I-0.068412 J0.000000
G03 X60.296296 Y79.183025 Z-1.000000 I-2.713626 J-7.371195
G02 X60.304244 Y79.538957 Z-1.000000 I0.044440 J0.177062
G02 X62.422586 Y79.616814 Z-1.000000 I1.293662 J-6.341098
G03 X64.825907 Y79.435013 Z-1.000000 I2.939025 J22.876243
G03 X67.382586 Y79.501582 Z-1.000000 I0.603198 J25.963144
G02 X71.013735 Y79.313623 Z-1.000000 I1.079606 J-14.312029
G02 X71.066306 Y78.836110 Z-1.000000 I-0.044540 J-0.246554
G02 X69.994018 Y78.573975 Z-1.000000 I-1.357378 J3.228262
G02 X65.726956 Y78.400001 Z-1.000000 I-4.267062 J52.242272
G03 X61.713380 Y78.239115 Z-1.000000 I0.000000 J-50.143144
G03 X61.628226 Y78.070871 Z-1.000000 I0.008845 J-0.110149
G03 X61.914788 Y77.891440 Z-1.000000 I0.325356 J0.201070
G03 X64.767106 Y77.750846 Z-1.000000 I2.767672 J27.145770
G02 X67.701040 Y77.730583 Z-1.000000 I0.454178 J-146.655024
G02 X68.342586 Y77.690386 Z-1.000000 I-0.119048 J-7.039650
G03 X70.858345 Y77.846771 Z-1.000000 I0.803300 J7.390976
G03 X71.764636 Y78.500402 Z-1.000000 I-0.336533 J1.421743
G02 X71.959523 Y78.557019 Z-1.000000 I0.128792 J-0.079598
G02 X72.209826 Y78.284383 Z-1.000000 I-0.219825 J-0.453035
G02 X71.828654 Y77.152196 Z-1.000000 I-0.874868 J-0.335717
G02 X69.012076 Y76.302242 Z-1.000000 I-2.994239 J4.830544
G02 X66.962240 Y76.313467 Z-1.000000 I-0.872235 J27.888355
G02 X66.772446 Y76.396792 Z-1.000000 I0.012050 J0.285262
G01 X66.772446 Y76.396798 Z-1.000000
G00 Z5.000000

(End cutting path id: path395)


(Start cutting path id: path395)
(Change tool to Cylindrical cutter)

G00 Z5.000000
G00 X69.142586 Y72.960001

G01 Z-1.000000 F100.0(Penetrate)
G02 X69.829587 Y73.162672 Z-1.000000 I0.687001 J-1.063041 F400.000000
G02 X69.942586 Y72.960001 Z-1.000000 I0.000000 J-0.132837
G02 X69.688700 Y72.741713 Z-1.000000 I-0.471162 J0.291210
G02 X69.203696 Y72.644900 Z-1.000000 I-0.474065 J1.111651
