%
(Header)
(Generated by gcodetools from Inkscape.)
(Using default header. To add your own header create file "header" in the output dir.)
M3
(Header end.)
G21 (All units in mm)

(Start cutting path id: path334)
(Change tool to Cylindrical cutter)

G00 Z5.000000
G00 X274.000000 Y8.300000

G01 Z-1.000000 F100.0(Penetrate)
G03 X274.193111 Y7.459305 Z-1.000000 I1.926505 J-0.000000 F400.000000
G03 X275.000000 Y6.000000 Z-1.000000 I14.025744 J6.802479
G03 X275.563766 Y5.908421 Z-1.000000 I0.324458 J0.216305
G03 X276.000000 Y6.800000 Z-1.000000 I-0.692992 J0.891579
G03 X275.641178 Y8.574511 Z-1.000000 I-4.567229 J0.000000
G03 X275.000000 Y9.000000 Z-1.000000 I-0.641178 J-0.270358
G03 X274.268082 Y8.787473 Z-1.000000 I-0.000000 J-1.366582
G03 X274.000000 Y8.300000 Z-1.000000 I0.309162 J-0.487473
G01 X274.000000 Y8.300000 Z-1.000000
G00 Z5.000000

(End cutting path id: path334)


(Start cutting path id: path332)
(Change tool to Cylindrical cutter)

G00 Z5.000000
G00 X349.500000 Y7.000000

G01 Z-1.000000 F100.0(Penetrate)
G03 X350.312013 Y6.400482 Z-1.000000 I1.235389 J0.823593 F400.000000
G03 X351.100000 Y6.500000 Z-1.000000 I0.280992 J0.944510
G03 X351.356088 Y7.394612 Z-1.000000 I-0.381281 J0.593103
G03 X350.400000 Y8.000000 Z-1.000000 I-0.956088 J-0.452280
G03 X349.550423 Y7.607867 Z-1.000000 I0.000000 J-1.116394
G03 X349.500000 Y7.000000 Z-1.000000 I0.397670 J-0.339012
G01 X349.500000 Y7.000000 Z-1.000000
G00 Z5.000000

(End cutting path id: path332)


(Start cutting path id: path330)
(Change tool to Cylindrical cutter)

G00 Z5.000000
G00 X349.500000 Y10.000000

G01 Z-1.000000 F100.0(Penetrate)
G03 X350.140331 Y9.187851 Z-1.000000 I3.494499 J2.096700 F400.000000
G03 X350.600000 Y9.000000 Z-1.000000 I0.459669 J0.468475
G03 X350.838516 Y9.161484 Z-1.000000 I0.000000 J0.256890
G03 X351.000000 Y10.000000 Z-1.000000 I-2.096291 J0.838516
G03 X350.667883 Y10.717883 Z-1.000000 I-0.941923 J0.000000
G03 X349.900000 Y11.000000 Z-1.000000 I-0.767883 J-0.903976
G03 X349.481329 Y10.726129 Z-1.000000 I0.000000 J-0.456951
G03 X349.500000 Y10.000000 Z-1.000000 I0.784674 J-0.343128
G01 X349.500000 Y10.000000 Z-1.000000
G00 Z5.000000

(End cutting path id: path330)


(Start cutting path id: path328)
(Change tool to Cylindrical cutter)

G00 Z5.000000
G00 X338.000000 Y10.000000

G01 Z-1.000000 F100.0(Penetrate)
G03 X338.292893 Y9.292893 Z-1.000000 I1.000000 J0.000000 F400.000000
G03 X339.000000 Y9.000000 Z-1.000000 I0.707107 J0.707107
G03 X339.751099 Y9.339810 Z-1.000000 I-0.000000 J1.000000
G03 X340.000000 Y10.000000 Z-1.000000 I-0.751099 J0.660190
G03 X339.707107 Y10.707107 Z-1.000000 I-1.000000 J-0.000000
G03 X339.000000 Y11.000000 Z-1.000000 I-0.707107 J-0.707107
G03 X338.339810 Y10.751099 Z-1.000000 I0.000000 J-1.000000
G03 X338.000000 Y10.000000 Z-1.000000 I0.660190 J-0.751099
G01 X338.000000 Y10.000000 Z-1.000000
G00 Z5.000000

(End cutting path id: path328)


(Start cutting path id: path326)
(Change tool to Cylindrical cutter)

G00 Z5.000000
G00 X389.000000 Y62.000000

G01 Z-1.000000 F100.0(Penetrate)
G03 X389.158337 Y59.735339 Z-1.000000 I16.274695 J0.000000 F400.000000
G03 X389.500000 Y59.200000 Z-1.000000 I0.756878 J0.106356
G03 X390.117394 Y59.126712 Z-1.000000 I0.383379 J0.592495
G03 X392.100000 Y60.000000 Z-1.000000 I-4.675239 J13.301264
G03 X393.674832 Y63.068136 Z-1.000000 I-1.491855 J2.703987
G03 X391.500000 Y65.000000 Z-1.000000 I-2.174832 J-0.258247
G03 X389.792010 Y64.197120 Z-1.000000 I-0.000000 J-2.218168
G03 X389.000000 Y62.000000 Z-1.000000 I2.651516 J-2.197120
G01 X389.000000 Y62.000000 Z-1.000000
G00 Z5.000000

(End cutting path id: path326)


(Start cutting path id: path324)
(Change tool to Cylindrical cutter)

G00 Z5.000000
G00 X262.700000 Y58.500000

G01 Z-1.000000 F100.0(Penetrate)
G03 X262.550906 Y55.075899 Z-1.000000 I4.812066 J-1.924826 F400.000000
G03 X264.000000 Y54.000000 Z-1.000000 I1.449094 J0.437920
G03 X265.113886 Y54.954412 Z-1.000000 I0.000000 J1.127210
G03 X264.600000 Y57.900000 Z-1.000000 I-4.604563 J0.714310
G03 X263.421875 Y58.867537 Z-1.000000 I-1.798900 J-0.989395
G03 X262.700000 Y58.500000 Z-1.000000 I-0.174472 J-0.550004
G01 X262.700000 Y58.500000 Z-1.000000
G00 Z5.000000

(End cutting path id: path324)


(Start cutting path id: path322)
(Change tool to Cylindrical cutter)

G00 Z5.000000
G00 X333.000000 Y85.100000

G01 Z-1.000000 F100.0(Penetrate)
G02 X332.885361 Y84.222146 Z-1.000000 I-3.418415 J0.000000 F400.000000
G02 X332.400000 Y82.600000 Z-1.000000 I-26.381381 J7.009861
G03 X332.635259 Y81.542979 Z-1.000000 I0.997823 J-0.332608
G03 X333.900000 Y81.000000 Z-1.000000 I1.264741 J1.201468
G03 X335.352842 Y81.957076 Z-1.000000 I0.000000 J1.581246
G03 X335.400000 Y84.400000 Z-1.000000 I-2.977994 J1.279404
G03 X333.884978 Y85.762905 Z-1.000000 I-2.176918 J-0.896378
G03 X333.000000 Y85.100000 Z-1.000000 I-0.194209 J-0.662905
G01 X333.000000 Y85.100000 Z-1.000000
G00 Z5.000000

(End cutting path id: path322)


(Start cutting path id: path320)
(Change tool to Cylindrical cutter)

G00 Z5.000000
G00 X299.000000 Y90.500000

G01 Z-1.000000 F100.0(Penetrate)
G03 X298.224419 Y88.878687 Z-1.000000 I2.511540 J-2.197598 F400.000000
G03 X297.800000 Y84.000000 Z-1.000000 I27.827987 J-4.878687
G03 X299.410005 Y77.607595 Z-1.000000 I13.495289 J-0.000000
G03 X302.100000 Y76.000000 Z-1.000000 I2.689995 J1.446792
G03 X307.092064 Y79.805436 Z-1.000000 I0.000000 J5.177074
G03 X306.000000 Y90.100000 Z-1.000000 I-13.667505 J3.755335
G03 X302.756818 Y92.109010 Z-1.000000 I-3.452736 J-1.951546
G03 X299.000000 Y90.500000 Z-1.000000 I-0.244426 J-4.619632
G01 X299.000000 Y90.500000 Z-1.000000
G00 Z5.000000

(End cutting path id: path320)


(Start cutting path id: path318)
(Change tool to Cylindrical cutter)

G00 Z5.000000
G00 X279.000000 Y92.000000

G01 Z-1.000000 F100.0(Penetrate)
G03 X279.275775 Y89.150259 Z-1.000000 I14.861870 J-0.000000 F400.000000
G03 X279.787500 Y88.325000 Z-1.000000 I1.345134 J0.262804
G03 X280.676543 Y88.137687 Z-1.000000 I0.640410 J0.836091
G03 X282.900000 Y89.000000 Z-1.000000 I-2.144670 J8.827721
G03 X284.861599 Y93.222923 Z-1.000000 I-1.777026 J3.392505
G03 X281.400000 Y96.000000 Z-1.000000 I-3.461599 J-0.768885
G03 X279.867619 Y95.132381 Z-1.000000 I0.000000 J-1.787048
G03 X279.000000 Y92.000000 Z-1.000000 I5.220635 J-3.132381
G01 X279.000000 Y92.000000 Z-1.000000
G00 Z5.000000

(End cutting path id: path318)


(Start cutting path id: path316)
(Change tool to Cylindrical cutter)

G00 Z5.000000
G00 X342.600000 Y157.500000

G01 Z-1.000000 F100.0(Penetrate)
G03 X341.872289 Y156.429147 Z-1.000000 I1.197189 J-1.596252 F400.000000
G03 X342.200000 Y156.000000 Z-1.000000 I0.327711 J-0.089448
G03 X343.502436 Y156.430309 Z-1.000000 I-0.000000 J2.186225
G03 X344.400000 Y157.500000 Z-1.000000 I-1.790276 J2.413611
G03 X344.780238 Y158.699501 Z-1.000000 I-9.180692 J3.570269
G03 X344.662500 Y158.850000 Z-1.000000 I-0.117738 J0.029195
G03 X344.351129 Y158.753807 Z-1.000000 I0.000000 J-0.552041
G03 X342.600000 Y157.500000 Z-1.000000 I27.463480 J-40.206619
G01 X342.600000 Y157.500000 Z-1.000000
G00 Z5.000000

(End cutting path id: path316)


(Start cutting path id: path314)
(Change tool to Cylindrical cutter)

G00 Z5.000000
G00 X338.100000 Y118.400000

G01 Z-1.000000 F100.0(Penetrate)
G03 X338.377467 Y117.730136 Z-1.000000 I0.947330 J-0.000000 F400.000000
G03 X338.700000 Y117.800000 Z-1.000000 I0.138774 J0.138774
G03 X338.897212 Y119.070576 Z-1.000000 I-2.380016 J1.020007
G03 X338.600000 Y119.700000 Z-1.000000 I-1.026430 J-0.099794
G03 X338.302013 Y119.664667 Z-1.000000 I-0.138749 J-0.104062
G03 X338.100000 Y118.400000 Z-1.000000 I2.385181 J-1.029467
G01 X338.100000 Y118.400000 Z-1.000000
G00 Z5.000000

(End cutting path id: path314)


(Start cutting path id: path312)
(Change tool to Cylindrical cutter)

G00 Z5.000000
G00 X315.000000 Y125.300000

G01 Z-1.000000 F100.0(Penetrate)
G03 X313.571974 Y120.810691 Z-1.000000 I22.373754 J-9.588752 F400.000000
G03 X313.900000 Y119.700000 Z-1.000000 I1.184864 J-0.253853
G03 X314.677934 Y119.442647 Z-1.000000 I0.644867 J0.644867
G03 X315.400000 Y119.900000 Z-1.000000 I-0.153550 J1.041096
G02 X316.297766 Y120.614977 Z-1.000000 I1.563914 J-1.042609
G02 X318.400000 Y121.000000 Z-1.000000 I2.102234 J-5.546603
G02 X320.461435 Y120.665475 Z-1.000000 I0.000000 J-6.518831
G02 X321.700000 Y119.900000 Z-1.000000 I-1.002020 J-3.006060
G03 X322.717835 Y119.478399 Z-1.000000 I1.017835 J1.017835
G03 X323.400000 Y119.900000 Z-1.000000 I-0.000000 J0.762684
G03 X323.611564 Y121.382688 Z-1.000000 I-1.568363 J0.980227
G03 X322.050000 Y125.550000 Z-1.000000 I-25.710001 J-7.257755
G03 X319.823232 Y129.366066 Z-1.000000 I-23.166436 J-10.960464
G03 X318.600000 Y130.000000 Z-1.000000 I-1.223232 J-0.863200
G03 X317.504158 Y129.457745 Z-1.000000 I0.000000 J-1.378421
G03 X315.000000 Y125.300000 Z-1.000000 I17.623765 J-13.447556
G01 X315.000000 Y125.300000 Z-1.000000
G00 Z5.000000

(End cutting path id: path312)


(Start cutting path id: path310)
(Change tool to Cylindrical cutter)

G00 Z5.000000
G00 X293.600000 Y129.800000

G01 Z-1.000000 F100.0(Penetrate)
G03 X292.574858 Y126.162997 Z-1.000000 I4.694595 J-3.286216 F400.000000
G03 X294.000000 Y123.000000 Z-1.000000 I4.887910 J0.299772
G03 X298.727016 Y120.901340 Z-1.000000 I5.088553 J5.088553
G03 X301.400000 Y122.600000 Z-1.000000 I0.137621 J2.735854
G03 X301.306829 Y125.774051 Z-1.000000 I-3.814120 J1.476434
G03 X299.400000 Y127.000000 Z-1.000000 I-1.906829 J-0.869957
G03 X298.090527 Y126.382360 Z-1.000000 I0.000000 J-1.696943
G03 X298.100000 Y125.400000 Z-1.000000 I0.589091 J-0.485545
G02 X298.227051 Y124.479324 Z-1.000000 I-0.652308 J-0.559121
G02 X297.500000 Y124.100000 Z-1.000000 I-0.610159 J0.283061
G02 X296.061165 Y124.987386 Z-1.000000 I0.676953 J2.707811
G02 X295.500000 Y126.500000 Z-1.000000 I1.758035 J1.512614
G02 X296.209923 Y127.743647 Z-1.000000 I1.444276 J0.000000
G02 X298.800000 Y128.400000 Z-1.000000 I2.414332 J-4.088744
G03 X301.213401 Y128.489482 Z-1.000000 I0.741184 J12.600120
G03 X301.787500 Y128.812500 Z-1.000000 I-0.117753 J0.880963
G03 X301.844376 Y129.367130 Z-1.000000 I-0.398110 J0.321057
G03 X300.800000 Y130.800000 Z-1.000000 I-5.090562 J-2.613317
G03 X297.220273 Y132.000985 Z-1.000000 I-2.996713 J-2.996713
G03 X293.600000 Y129.800000 Z-1.000000 I0.734071 J-5.285313
G01 X293.600000 Y129.800000 Z-1.000000
G00 Z5.000000

(End cutting path id: path310)


(Start cutting path id: path308)
(Change tool to Cylindrical cutter)

G00 Z5.000000
G00 X333.400000 Y132.800000

G01 Z-1.000000 F100.0(Penetrate)
G03 X335.369673 Y122.567348 Z-1.000000 I78.618679 J9.827335 F400.000000
G03 X336.400000 Y121.400000 Z-1.000000 I1.672334 J0.437670
G03 X337.527465 Y121.276552 Z-1.000000 I0.849544 J2.548632
G03 X340.500000 Y121.800000 Z-1.000000 I-2.210977 J21.257495
G03 X342.649101 Y123.901493 Z-1.000000 I-0.813022 J2.981080
G03 X341.500000 Y125.300000 Z-1.000000 I-1.047141 J0.310943
G02 X339.213152 Y126.291541 Z-1.000000 I-0.226918 J2.609559
G02 X338.000000 Y129.800000 Z-1.000000 I4.466686 J3.508459
G03 X337.421105 Y131.716385 Z-1.000000 I-3.461466 J-0.000000
G03 X336.000000 Y132.700000 Z-1.000000 I-1.946765 J-1.294244
G02 X334.677895 Y133.467247 Z-1.000000 I0.783507 J2.872858
G02 X334.600000 Y134.100000 Z-1.000000 I0.366260 J0.366260
G03 X334.614712 Y134.691425 Z-1.000000 I-0.514490 J0.308694
G03 X334.100000 Y135.000000 Z-1.000000 I-0.514712 J-0.274990
G03 X333.573107 Y134.632799 Z-1.000000 I0.000000 J-0.561618
G03 X333.400000 Y132.800000 Z-1.000000 I3.367749 J-1.242657
G01 X333.400000 Y132.800000 Z-1.000000
G00 Z5.000000

(End cutting path id: path308)


(Start cutting path id: path306)
(Change tool to Cylindrical cutter)

G00 Z5.000000
G00 X354.200000 Y137.400000

G01 Z-1.000000 F100.0(Penetrate)
G03 X352.280177 Y131.682515 Z-1.000000 I2.818830 J-4.127572 F400.000000
G03 X357.400000 Y128.000000 Z-1.000000 I5.119823 J1.717803
G03 X362.566170 Y131.482105 Z-1.000000 I0.000000 J5.573407
G03 X361.200000 Y137.300000 Z-1.000000 I-4.798642 J1.942524
G03 X357.998133 Y138.561053 Z-1.000000 I-3.252079 J-3.561801
G03 X354.200000 Y137.400000 Z-1.000000 I-0.068393 J-6.569176
G01 X354.200000 Y137.400000 Z-1.000000
G00 Z5.000000

(End cutting path id: path306)


(Start cutting path id: path306)
(Change tool to Cylindrical cutter)

G00 Z5.000000
G00 X359.800000 Y133.700000

G01 Z-1.000000 F100.0(Penetrate)
G02 X358.613920 Y131.321221 Z-1.000000 I-2.125774 J-0.425155 F400.000000
G02 X355.800000 Y131.800000 Z-1.000000 I-1.069405 J2.223294
G02 X355.321221 Y134.613920 Z-1.000000 I1.744515 J1.744515
G02 X357.700000 Y135.800000 Z-1.000000 I1.953624 J-0.939694
G02 X359.067914 Y135.067914 Z-1.000000 I-0.525000 J-2.625000
G02 X359.800000 Y133.700000 Z-1.000000 I-1.892914 J-1.892914
G01 X359.800000 Y133.700000 Z-1.000000
G00 Z5.000000

(End cutting path id: path306)


(Start cutting path id: path304)
(Change tool to Cylindrical cutter)

G00 Z5.000000
G00 X272.600000 Y135.000000

G01 Z-1.000000 F100.0(Penetrate)
G03 X271.524579 Y129.900421 Z-1.000000 I13.499579 J-5.510032 F400.000000
G03 X272.400000 Y129.000000 Z-1.000000 I0.875421 J-0.024653
G03 X273.383710 Y129.415700 Z-1.000000 I0.000000 J1.371771
G03 X274.500000 Y131.300000 Z-1.000000 I-3.354015 J3.259778
G02 X274.979593 Y132.607549 Z-1.000000 I11.105830 J-3.331749
G02 X275.187500 Y132.675000 Z-1.000000 I0.133854 J-0.058439
G02 X275.398918 Y132.420462 Z-1.000000 I-0.247377 J-0.420541
G02 X276.100000 Y130.300000 Z-1.000000 I-37.700806 J-13.641028
G03 X277.387755 Y127.488219 Z-1.000000 I9.437874 J2.621632
G03 X278.300000 Y127.000000 Z-1.000000 I0.912245 J0.608163
G03 X281.366521 Y128.789361 Z-1.000000 I-0.000000 J3.522309
G03 X283.000000 Y135.000000 Z-1.000000 I-10.989976 J6.210639
G03 X281.910650 Y135.913013 Z-1.000000 I-0.927285 J0.000000
G03 X279.500000 Y134.400000 Z-1.000000 I0.662545 J-3.732543
G02 X278.653988 Y134.273729 Z-1.000000 I-0.480212 J0.320141
G02 X277.700000 Y135.900000 Z-1.000000 I1.724541 J2.104580
G03 X276.516195 Y138.476936 Z-1.000000 I-6.239458 J-1.305933
G03 X275.525000 Y138.862500 Z-1.000000 I-0.813677 J-0.624924
G03 X274.437243 Y138.209200 Z-1.000000 I0.305967 J-1.741661
G03 X272.600000 Y135.000000 Z-1.000000 I10.222731 J-7.982940
G01 X272.600000 Y135.000000 Z-1.000000
G00 Z5.000000

(End cutting path id: path304)


(Start cutting path id: path302)
(Change tool to Cylindrical cutter)

G00 Z5.000000
G00 X255.500000 Y145.500000

G01 Z-1.000000 F100.0(Penetrate)
G03 X252.420366 Y143.130723 Z-1.000000 I9.660485 J-15.743012 F400.000000
G03 X251.650000 Y141.950000 Z-1.000000 I2.118591 J-2.223957
G03 X251.927313 Y141.177019 Z-1.000000 I0.605991 J-0.218830
G03 X253.800000 Y140.800000 Z-1.000000 I1.474941 J2.486750
G02 X255.594748 Y140.366904 Z-1.000000 I0.324050 J-2.592399
G02 X257.000000 Y138.600000 Z-1.000000 I-2.143363 J-3.146921
G03 X258.318015 Y136.393635 Z-1.000000 I6.835234 J2.586305
G03 X259.075000 Y136.200000 Z-1.000000 I0.518463 J0.450376
G03 X259.791443 Y136.844144 Z-1.000000 I-0.453785 J1.225219
G03 X261.000000 Y140.100000 Z-1.000000 I-14.776110 J7.337047
G03 X261.894941 Y145.562358 Z-1.000000 I-24.933695 J6.889574
G03 X261.325000 Y147.037500 Z-1.000000 I-1.919461 J0.106064
G03 X259.921645 Y147.403591 Z-1.000000 I-1.019144 J-1.033915
G03 X255.500000 Y145.500000 Z-1.000000 I4.607717 J-16.789836
G01 X255.500000 Y145.500000 Z-1.000000
G00 Z5.000000

(End cutting path id: path302)


(Start cutting path id: path302)
(Change tool to Cylindrical cutter)

G00 Z5.000000
G00 X259.000000 Y143.000000

G01 Z-1.000000 F100.0(Penetrate)
G02 X258.751099 Y142.339810 Z-1.000000 I-1.000000 J-0.000000 F400.000000
G02 X258.000000 Y142.000000 Z-1.000000 I-0.751099 J0.660190
G02 X257.292893 Y142.292893 Z-1.000000 I0.000000 J1.000000
G02 X257.000000 Y143.000000 Z-1.000000 I0.707107 J0.707107
G02 X257.339810 Y143.751099 Z-1.000000 I1.000000 J-0.000000
G02 X258.000000 Y144.000000 Z-1.000000 I0.660190 J-0.751099
G02 X258.707107 Y143.707107 Z-1.000000 I-0.000000 J-1.000000
G02 X259.000000 Y143.000000 Z-1.000000 I-0.707107 J-0.707107
G01 X259.000000 Y143.000000 Z-1.000000
G00 Z5.000000

(End cutting path id: path302)


(Start cutting path id: path300)
(Change tool to Cylindrical cutter)

G00 Z5.000000
G00 X372.800000 Y147.800000

G01 Z-1.000000 F100.0(Penetrate)
G01 X369.200000 Y145.700000 Z-1.000000 F400.000000
G01 X372.300000 Y141.400000 Z-1.000000
G03 X374.864136 Y138.383689 Z-1.000000 I17.045665 J11.892324
G03 X375.925000 Y137.762500 Z-1.000000 I1.793397 J1.846290
G03 X376.474627 Y138.079642 Z-1.000000 I0.124442 J0.419174
G03 X376.400000 Y140.200000 Z-1.000000 I-3.857644 J0.925721
G02 X376.743167 Y141.366169 Z-1.000000 I1.107561 J0.307656
G02 X378.100000 Y141.700000 Z-1.000000 I0.994217 J-1.116634
G03 X381.243687 Y142.175071 Z-1.000000 I0.990374 J4.085293
G03 X381.100000 Y143.500000 Z-1.000000 I-0.375485 J0.629535
G02 X379.585834 Y144.342661 Z-1.000000 I0.808729 J3.234917
G02 X379.500000 Y145.000000 Z-1.000000 I0.371712 J0.382811
G03 X379.652901 Y147.403716 Z-1.000000 I-2.321854 J1.354415
G03 X377.600000 Y149.300000 Z-1.000000 I-3.126938 J-1.325829
G03 X376.336863 Y149.361926 Z-1.000000 I-0.714861 J-1.668010
G03 X372.800000 Y147.800000 Z-1.000000 I5.372059 J-16.950062
G01 X372.800000 Y147.800000 Z-1.000000
G00 Z5.000000

(End cutting path id: path300)


(Start cutting path id: path300)
(Change tool to Cylindrical cutter)

G00 Z5.000000
G00 X376.500000 Y145.000000

G01 Z-1.000000 F100.0(Penetrate)
G02 X375.833999 Y144.290666 Z-1.000000 I-1.969025 J1.181415 F400.000000
G02 X374.900000 Y144.000000 Z-1.000000 I-0.933999 J1.355276
G02 X374.252784 Y144.302784 Z-1.000000 I0.000000 J0.843122
G02 X374.000000 Y145.000000 Z-1.000000 I0.835124 J0.697216
G02 X374.376814 Y145.663186 Z-1.000000 I0.772005 J0.000000
G02 X375.600000 Y146.000000 Z-1.000000 I1.223186 J-2.052677
G02 X376.405123 Y145.651137 Z-1.000000 I-0.000000 J-1.103483
G02 X376.500000 Y145.000000 Z-1.000000 I-0.420031 J-0.393684
G01 X376.500000 Y145.000000 Z-1.000000
G00 Z5.000000

(End cutting path id: path300)


(Start cutting path id: path298)
(Change tool to Cylindrical cutter)

G00 Z5.000000
G00 X227.500000 Y152.000000

G01 Z-1.000000 F100.0(Penetrate)
G03 X228.140331 Y151.187851 Z-1.000000 I3.494499 J2.096700 F400.000000
G03 X228.600000 Y151.000000 Z-1.000000 I0.459669 J0.468475
G03 X228.838516 Y151.161484 Z-1.000000 I0.000000 J0.256890
G03 X229.000000 Y152.000000 Z-1.000000 I-2.096291 J0.838516
G03 X228.667883 Y152.717883 Z-1.000000 I-0.941923 J0.000000
G03 X227.900000 Y153.000000 Z-1.000000 I-0.767883 J-0.903976
G03 X227.481329 Y152.726129 Z-1.000000 I0.000000 J-0.456951
G03 X227.500000 Y152.000000 Z-1.000000 I0.784674 J-0.343128
G01 X227.500000 Y152.000000 Z-1.000000
G00 Z5.000000

(End cutting path id: path298)


(Start cutting path id: path296)
(Change tool to Cylindrical cutter)

G00 Z5.000000
G00 X387.000000 Y160.500000

G01 Z-1.000000 F100.0(Penetrate)
G01 X384.600000 Y157.900000 Z-1.000000 F400.000000
G01 X388.300000 Y154.300000 Z-1.000000
G01 X392.000000 Y150.600000 Z-1.000000
G01 X395.000000 Y153.500000 Z-1.000000
G03 X397.158922 Y156.361253 Z-1.000000 I-7.531581 J7.927981
G03 X397.000000 Y157.400000 Z-1.000000 I-0.786463 J0.411206
G03 X396.051732 Y157.672683 Z-1.000000 I-0.720537 J-0.720537
G03 X394.200000 Y156.700000 Z-1.000000 I0.915085 J-3.991029
G02 X392.078909 Y155.137288 Z-1.000000 I-8.105868 J8.781357
G02 X391.550000 Y155.050000 Z-1.000000 I-0.380069 J0.656911
G02 X391.410269 Y155.316277 Z-1.000000 I0.037942 J0.189712
G02 X392.500000 Y157.000000 Z-1.000000 I5.522840 J-2.379960
G03 X393.751226 Y159.058580 Z-1.000000 I-4.470959 J4.127039
G03 X393.625000 Y159.625000 Z-1.000000 I-0.508745 J0.183901
G03 X393.058580 Y159.751226 Z-1.000000 I-0.382519 J-0.382519
G03 X391.000000 Y158.500000 Z-1.000000 I2.068459 J-5.722185
G02 X389.316590 Y157.479121 Z-1.000000 I-3.458035 J3.803838
G02 X389.000000 Y157.700000 Z-1.000000 I-0.081244 J0.220879
G02 X389.292614 Y158.642613 Z-1.000000 I1.664552 J-0.000000
G02 X390.500000 Y160.000000 Z-1.000000 I6.005513 J-4.126186
G03 X391.740027 Y161.328452 Z-1.000000 I-5.935316 J6.783218
G03 X392.000000 Y162.100000 Z-1.000000 I-1.014915 J0.771548
G03 X390.867107 Y162.937388 Z-1.000000 I-0.875928 J0.000000
G03 X387.000000 Y160.500000 Z-1.000000 I2.563386 J-8.353440
G01 X387.000000 Y160.500000 Z-1.000000
G00 Z5.000000

(End cutting path id: path296)


(Start cutting path id: path294)
(Change tool to Cylindrical cutter)

G00 Z5.000000
G00 X238.800000 Y160.100000

G01 Z-1.000000 F100.0(Penetrate)
G03 X237.058365 Y156.388027 Z-1.000000 I4.035879 J-4.158179 F400.000000
G03 X238.300000 Y153.200000 Z-1.000000 I3.933584 J-0.303796
G03 X242.582886 Y151.432445 Z-1.000000 I4.501627 J4.835081
G03 X244.700000 Y153.000000 Z-1.000000 I0.070189 J2.118650
G02 X245.612172 Y154.586246 Z-1.000000 I3.490948 J-0.952077
G02 X246.600000 Y155.000000 Z-1.000000 I0.987828 J-0.972332
G03 X247.932684 Y156.575458 Z-1.000000 I0.000000 J1.351390
G03 X245.700000 Y160.800000 Z-1.000000 I-7.498574 J-1.260760
G03 X242.558066 Y161.868299 Z-1.000000 I-2.760842 J-2.965349
G03 X238.800000 Y160.100000 Z-1.000000 I0.576597 J-6.102961
G01 X238.800000 Y160.100000 Z-1.000000
G00 Z5.000000

(End cutting path id: path294)


(Start cutting path id: path294)
(Change tool to Cylindrical cutter)

G00 Z5.000000
G00 X245.000000 Y158.000000

G01 Z-1.000000 F100.0(Penetrate)
G02 X244.751099 Y157.339810 Z-1.000000 I-1.000000 J-0.000000 F400.000000
G02 X244.000000 Y157.000000 Z-1.000000 I-0.751099 J0.660190
G02 X243.292893 Y157.292893 Z-1.000000 I0.000000 J1.000000
G02 X243.000000 Y158.000000 Z-1.000000 I0.707107 J0.707107
G02 X243.339810 Y158.751099 Z-1.000000 I1.000000 J-0.000000
G02 X244.000000 Y159.000000 Z-1.000000 I0.660190 J-0.751099
G02 X244.707107 Y158.707107 Z-1.000000 I-0.000000 J-1.000000
G02 X245.000000 Y158.000000 Z-1.000000 I-0.707107 J-0.707107
G01 X245.000000 Y158.000000 Z-1.000000
G00 Z5.000000

(End cutting path id: path294)


(Start cutting path id: path294)
(Change tool to Cylindrical cutter)

G00 Z5.000000
G00 X242.000000 Y154.900000

G01 Z-1.000000 F100.0(Penetrate)
G02 X241.685288 Y154.456428 Z-1.000000 I-0.469953 J0.000000 F400.000000
G02 X241.000000 Y154.500000 Z-1.000000 I-0.291137 J0.831873
G02 X240.246732 Y155.239697 Z-1.000000 I1.162070 J1.936784
G02 X240.000000 Y156.100000 Z-1.000000 I1.376485 J0.860303
G02 X240.351538 Y156.577689 Z-1.000000 I0.500324 J0.000000
G02 X241.000000 Y156.500000 Z-1.000000 I0.237524 J-0.762587
G02 X241.796342 Y155.721346 Z-1.000000 I-0.815058 J-1.630117
G02 X242.000000 Y154.900000 Z-1.000000 I-1.554404 J-0.821346
G01 X242.000000 Y154.900000 Z-1.000000
G00 Z5.000000

(End cutting path id: path294)


(Start cutting path id: path292)
(Change tool to Cylindrical cutter)

G00 Z5.000000
G00 X223.100000 Y162.400000

G01 Z-1.000000 F100.0(Penetrate)
G03 X223.377467 Y161.730136 Z-1.000000 I0.947330 J0.000000 F400.000000
G03 X223.700000 Y161.800000 Z-1.000000 I0.138774 J0.138774
G03 X223.897212 Y163.070576 Z-1.000000 I-2.380016 J1.020007
G03 X223.600000 Y163.700000 Z-1.000000 I-1.026430 J-0.099794
G03 X223.302013 Y163.664667 Z-1.000000 I-0.138749 J-0.104062
G03 X223.100000 Y162.400000 Z-1.000000 I2.385181 J-1.029467
G01 X223.100000 Y162.400000 Z-1.000000
G00 Z5.000000

(End cutting path id: path292)


(Start cutting path id: path290)
(Change tool to Cylindrical cutter)

G00 Z5.000000
G00 X429.500000 Y214.800000

G01 Z-1.000000 F100.0(Penetrate)
G02 X431.400677 Y213.537251 Z-1.000000 I-6.283260 J-11.519310 F400.000000
G02 X432.800000 Y212.200000 Z-1.000000 I-6.772304 J-8.487424
G03 X433.652047 Y211.549210 Z-1.000000 I1.374399 J0.916266
G03 X434.000000 Y211.800000 Z-1.000000 I0.083597 J0.250790
G03 X432.631492 Y214.588635 Z-1.000000 I-3.525482 J-0.000000
G03 X428.500000 Y216.000000 Z-1.000000 I-4.131492 J-5.341382
G03 X428.381449 Y215.760689 Z-1.000000 I0.000000 J-0.149019
G03 X429.500000 Y214.800000 Z-1.000000 I2.809879 J2.140080
G01 X429.500000 Y214.800000 Z-1.000000
G00 Z5.000000

(End cutting path id: path290)


(Start cutting path id: path288)
(Change tool to Cylindrical cutter)

G00 Z5.000000
G00 X405.800000 Y219.300000

G01 Z-1.000000 F100.0(Penetrate)
G03 X407.070576 Y219.102788 Z-1.000000 I1.020007 J2.380016 F400.000000
G03 X407.700000 Y219.400000 Z-1.000000 I-0.099794 J1.026430
G03 X407.664667 Y219.697987 Z-1.000000 I-0.104062 J0.138749
G03 X406.400000 Y219.900000 Z-1.000000 I-1.029467 J-2.385181
G03 X405.730136 Y219.622533 Z-1.000000 I0.000000 J-0.947330
G03 X405.800000 Y219.300000 Z-1.000000 I0.138774 J-0.138774
G01 X405.800000 Y219.300000 Z-1.000000
G00 Z5.000000

(End cutting path id: path288)


(Start cutting path id: path286)
(Change tool to Cylindrical cutter)

G00 Z5.000000
G00 X418.200000 Y218.500000

G01 Z-1.000000 F100.0(Penetrate)
G02 X410.372271 Y214.869278 Z-1.000000 I-10.653889 J12.715933 F400.000000
G02 X403.500000 Y216.000000 Z-1.000000 I-1.808272 J10.459140
G03 X401.007886 Y216.878500 Z-1.000000 I-4.749187 J-9.498373
G03 X400.400000 Y216.700000 Z-1.000000 I-0.140489 J-0.645896
G03 X400.755206 Y215.216076 Z-1.000000 I0.632963 J-0.632963
G03 X408.400000 Y214.000000 Z-1.000000 I7.644794 J23.421248
G03 X416.082811 Y215.340788 Z-1.000000 I0.000000 J22.681930
G03 X418.400000 Y217.600000 Z-1.000000 I-1.322934 J3.674816
G02 X420.404760 Y218.949485 Z-1.000000 I1.936934 J-0.713607
G02 X424.600000 Y217.400000 Z-1.000000 I-0.232913 J-7.084677
G02 X425.525627 Y216.410784 Z-1.000000 I-3.684417 J-4.375245
G02 X425.425000 Y216.225000 Z-1.000000 I-0.094147 J-0.069150
G02 X424.784157 Y216.356191 Z-1.000000 I0.124344 J2.238187
G02 X421.600000 Y217.600000 Z-1.000000 I24.268736 J66.825721
G03 X420.399786 Y216.553624 Z-1.000000 I-0.313760 J-0.851634
G03 X422.800000 Y211.700000 Z-1.000000 I10.989516 J2.414247
G03 X424.243200 Y210.844842 Z-1.000000 I2.152052 J1.986510
G03 X425.100000 Y211.200000 Z-1.000000 I0.188603 J0.756077
G02 X426.140252 Y211.761149 Z-1.000000 I1.078862 J-0.755203
G02 X427.800000 Y211.300000 Z-1.000000 I0.085359 J-2.910199
G03 X429.602128 Y210.674067 Z-1.000000 I2.397828 J3.996381
G03 X430.900000 Y211.000000 Z-1.000000 I0.233961 J1.815409
G03 X430.662916 Y212.670011 Z-1.000000 I-0.462459 J0.786181
G03 X425.000000 Y212.500000 Z-1.000000 I-2.535497 J-9.943194
G02 X423.532035 Y212.585525 Z-1.000000 I-0.634772 J1.745624
G02 X422.600000 Y213.600000 Z-1.000000 I0.871164 J1.735754
G02 X422.954959 Y215.200000 Z-1.000000 I1.433637 J0.521322
G02 X424.200000 Y215.200000 Z-1.000000 I0.622521 J-0.622521
G03 X425.982578 Y214.179845 Z-1.000000 I2.766378 J2.766378
G03 X426.562500 Y214.425000 Z-1.000000 I0.130099 J0.500736
G03 X426.693100 Y215.293852 Z-1.000000 I-1.063113 J0.604042
G03 X425.700000 Y217.700000 Z-1.000000 I-7.375802 J-1.636230
G03 X422.380951 Y219.804466 Z-1.000000 I-3.805625 J-2.332480
G03 X418.200000 Y218.500000 Z-1.000000 I-0.596604 J-5.440252
G01 X418.200000 Y218.500000 Z-1.000000
G00 Z5.000000

(End cutting path id: path286)


(Start cutting path id: path284)
(Change tool to Cylindrical cutter)

G00 Z5.000000
G00 X411.000000 Y220.000000

G01 Z-1.000000 F100.0(Penetrate)
G03 X410.337414 Y219.491367 Z-1.000000 I0.337765 J-1.125885 F400.000000
G03 X410.500000 Y219.200000 Z-1.000000 I0.162586 J-0.100321
G03 X412.452301 Y219.368219 Z-1.000000 I-0.000000 J11.413027
G03 X414.500000 Y220.000000 Z-1.000000 I-1.442991 J8.311299
G03 X414.387638 Y220.534365 Z-1.000000 I-0.112362 J0.255369
G03 X411.000000 Y220.000000 Z-1.000000 I0.000000 J-11.005245
G01 X411.000000 Y220.000000 Z-1.000000
G00 Z5.000000

(End cutting path id: path284)


(Start cutting path id: path282)
(Change tool to Cylindrical cutter)

G00 Z5.000000
G00 X395.000000 Y219.500000

G01 Z-1.000000 F100.0(Penetrate)
G03 X398.419909 Y217.703906 Z-1.000000 I8.240608 J11.536851 F400.000000
G03 X399.300000 Y217.900000 Z-1.000000 I0.285781 J0.790404
G03 X399.476082 Y220.000721 Z-1.000000 I-1.154511 J1.154511
G03 X397.400000 Y220.600000 Z-1.000000 I-1.414991 J-1.006228
G02 X396.214163 Y220.487164 Z-1.000000 I-0.769030 J1.794404
G02 X395.500000 Y221.000000 Z-1.000000 I0.236764 J1.083392
G03 X394.623388 Y221.718535 Z-1.000000 I-1.615664 J-1.077109
G03 X393.200000 Y222.000000 Z-1.000000 I-1.423388 J-3.458347
G03 X392.971517 Y221.559644 Z-1.000000 I0.000000 J-0.279454
G03 X395.000000 Y219.500000 Z-1.000000 I7.228608 J5.090527
G01 X395.000000 Y219.500000 Z-1.000000
G00 Z5.000000

(End cutting path id: path282)


(Start cutting path id: path282)
(Change tool to Cylindrical cutter)

G00 Z5.000000
G00 X399.000000 Y219.000000

G01 Z-1.000000 F100.0(Penetrate)
G02 X398.838516 Y218.161484 Z-1.000000 I-2.257775 J0.000000 F400.000000
G02 X398.600000 Y218.000000 Z-1.000000 I-0.238516 J0.095407
G02 X398.140331 Y218.187851 Z-1.000000 I0.000000 J0.656327
G02 X397.500000 Y219.000000 Z-1.000000 I2.854168 J2.908848
G02 X397.481329 Y219.726129 Z-1.000000 I0.766002 J0.383001
G02 X397.900000 Y220.000000 Z-1.000000 I0.418671 J-0.183080
G02 X398.667883 Y219.717883 Z-1.000000 I-0.000000 J-1.186093
G02 X399.000000 Y219.000000 Z-1.000000 I-0.609806 J-0.717883
G01 X399.000000 Y219.000000 Z-1.000000
G00 Z5.000000

(End cutting path id: path282)


(Start cutting path id: path280)
(Change tool to Cylindrical cutter)

G00 Z5.000000
G00 X418.000000 Y222.000000

G01 Z-1.000000 F100.0(Penetrate)
G03 X418.150935 Y221.501495 Z-1.000000 I0.150935 J-0.226403 F400.000000
G03 X420.500000 Y222.000000 Z-1.000000 I-0.000000 J5.783901
G03 X421.167263 Y222.611798 Z-1.000000 I-0.622465 J1.348674
G03 X421.000000 Y222.900000 Z-1.000000 I-0.167263 J0.095564
G03 X419.563107 Y222.697167 Z-1.000000 I0.000000 J-5.190977
G03 X418.000000 Y222.000000 Z-1.000000 I1.708883 J-5.932350
G01 X418.000000 Y222.000000 Z-1.000000
G00 Z5.000000

(End cutting path id: path280)


(Start cutting path id: path278)
(Change tool to Cylindrical cutter)

G00 Z5.000000
G00 X336.600000 Y227.200000

G01 Z-1.000000 F100.0(Penetrate)
G02 X335.575553 Y225.395528 Z-1.000000 I-5.845631 J2.125684 F400.000000
G02 X331.700000 Y221.200000 Z-1.000000 I-35.815574 J29.196313
G02 X326.991326 Y218.017770 Z-1.000000 I-13.253413 J14.536001
G02 X319.900000 Y215.500000 Z-1.000000 I-15.136457 J31.386712
G03 X307.524132 Y211.328777 Z-1.000000 I18.938470 J-76.634740
G03 X302.825000 Y208.037500 Z-1.000000 I5.641608 J-13.055066
G03 X301.095168 Y203.528042 Z-1.000000 I4.613784 J-4.356363
G03 X303.000000 Y197.500000 Z-1.000000 I11.358064 J0.274113
G01 X305.000000 Y194.500000 Z-1.000000
G01 X305.000000 Y198.100000 Z-1.000000
G02 X307.212645 Y203.123085 Z-1.000000 I6.807956 J-0.000000
G02 X319.600000 Y211.400000 Z-1.000000 I33.227143 J-36.320230
G03 X327.287100 Y215.598130 Z-1.000000 I-34.588430 J72.470996
G03 X330.800000 Y218.300000 Z-1.000000 I-11.546675 J18.647302
G03 X337.876299 Y226.738754 Z-1.000000 I-37.976463 J39.031365
G03 X337.700000 Y228.600000 Z-1.000000 I-1.213518 J0.824027
G03 X337.306359 Y228.579301 Z-1.000000 I-0.187505 J-0.187505
G03 X336.600000 Y227.200000 Z-1.000000 I2.930106 J-2.371064
G01 X336.600000 Y227.200000 Z-1.000000
G00 Z5.000000

(End cutting path id: path278)


(Start cutting path id: path276)
(Change tool to Cylindrical cutter)

G00 Z5.000000
G00 X432.000000 Y231.500000

G01 Z-1.000000 F100.0(Penetrate)
G02 X430.582120 Y230.285059 Z-1.000000 I-4.913191 J4.299042 F400.000000
G02 X429.600000 Y230.000000 Z-1.000000 I-0.982120 J1.549331
G02 X429.404882 Y230.288196 Z-1.000000 I0.000000 J0.210149
G02 X430.000000 Y231.000000 Z-1.000000 I1.386661 J-0.554664
G03 X430.518898 Y231.709073 Z-1.000000 I-0.708668 J1.063002
G03 X430.300000 Y232.000000 Z-1.000000 I-0.218898 J0.063112
G03 X427.102363 Y230.922637 Z-1.000000 I0.000000 J-5.284011
G03 X426.000000 Y228.700000 Z-1.000000 I1.689513 J-2.222637
G03 X426.088269 Y228.608513 Z-1.000000 I0.091546 J0.000000
G03 X432.800000 Y228.400000 Z-1.000000 I25.317207 J706.799556
G02 X439.503085 Y228.238767 Z-1.000000 I-0.000000 J-139.416923
G02 X441.500000 Y228.100000 Z-1.000000 I-2.261395 J-46.980183
G03 X443.513570 Y228.102929 Z-1.000000 I0.990929 J10.900224
G03 X446.100000 Y228.500000 Z-1.000000 I-2.081535 J22.180907
G02 X448.482302 Y228.539094 Z-1.000000 I1.261878 J-4.290386
G02 X450.300000 Y227.500000 Z-1.000000 I-0.997433 J-3.854225
G03 X451.661789 Y226.667165 Z-1.000000 I2.919324 J3.243693
G03 X452.000000 Y226.900000 Z-1.000000 I0.088960 J0.232835
G03 X451.703743 Y227.838992 Z-1.000000 I-1.636205 J0.000000
G03 X449.900000 Y229.800000 Z-1.000000 I-8.263683 J-5.790920
G03 X446.619975 Y231.719737 Z-1.000000 I-5.546350 J-5.714421
G03 X440.500000 Y232.900000 Z-1.000000 I-9.058486 J-30.513679
G03 X434.319057 Y232.789851 Z-1.000000 I-2.593044 J-27.967828
G03 X432.000000 Y231.500000 Z-1.000000 I0.457506 J-3.552235
G01 X432.000000 Y231.500000 Z-1.000000
G00 Z5.000000

(End cutting path id: path276)


(Start cutting path id: path274)
(Change tool to Cylindrical cutter)

G00 Z5.000000
G00 X312.700000 Y237.300000

G01 Z-1.000000 F100.0(Penetrate)
G03 X312.189357 Y236.623503 Z-1.000000 I0.917847 J-1.223796 F400.000000
G03 X312.000000 Y235.600000 Z-1.000000 I2.671415 J-1.023503
G03 X312.312925 Y235.337679 Z-1.000000 I0.266413 J0.000000
G03 X313.200000 Y235.800000 Z-1.000000 I-0.290833 J1.640229
G03 X313.958888 Y236.966550 Z-1.000000 I-2.375434 J2.375434
G03 X313.900000 Y237.500000 Z-1.000000 I-0.544214 J0.209899
G03 X313.329651 Y237.682777 Z-1.000000 I-0.462759 J-0.462759
G03 X312.700000 Y237.300000 Z-1.000000 I0.162860 J-0.977160
G01 X312.700000 Y237.300000 Z-1.000000
G00 Z5.000000

(End cutting path id: path274)


(Start cutting path id: path272)
(Change tool to Cylindrical cutter)

G00 Z5.000000
G00 X314.600000 Y240.300000

G01 Z-1.000000 F100.0(Penetrate)
G03 X314.684657 Y239.728867 Z-1.000000 I0.505967 J-0.216843 F400.000000
G03 X315.100000 Y239.700000 Z-1.000000 I0.221628 J0.186372
G03 X315.915613 Y240.960000 Z-1.000000 I-2.534758 J2.534758
G03 X315.800000 Y241.500000 Z-1.000000 I-0.474916 J0.180697
G03 X315.363187 Y241.510524 Z-1.000000 I-0.223928 J-0.223928
G03 X314.600000 Y240.300000 Z-1.000000 I1.796401 J-1.978401
G01 X314.600000 Y240.300000 Z-1.000000
G00 Z5.000000

(End cutting path id: path272)


(Start cutting path id: path270)
(Change tool to Cylindrical cutter)

G00 Z5.000000
G00 X330.900000 Y252.700000

G01 Z-1.000000 F100.0(Penetrate)
G02 X332.487317 Y248.757581 Z-1.000000 I-10.504954 J-6.520316 F400.000000
G02 X332.800000 Y244.000000 Z-1.000000 I-16.201172 J-3.453856
G03 X333.174397 Y240.811072 Z-1.000000 I9.795180 J-0.466437
G03 X333.800000 Y240.700000 Z-1.000000 I0.340112 J0.098288
G03 X335.190971 Y247.497198 Z-1.000000 I-6.775150 J4.927382
G03 X330.400000 Y255.000000 Z-1.000000 I-12.893671 J-2.952295
G03 X330.058599 Y254.787760 Z-1.000000 I-0.133180 J-0.166475
G03 X330.900000 Y252.700000 Z-1.000000 I6.622742 J1.455643
G01 X330.900000 Y252.700000 Z-1.000000
G00 Z5.000000

(End cutting path id: path270)


(Start cutting path id: path268)
(Change tool to Cylindrical cutter)

G00 Z5.000000
G00 X439.500000 Y260.100000

G01 Z-1.000000 F100.0(Penetrate)
G03 X437.123270 Y258.775075 Z-1.000000 I0.929505 J-4.461624 F400.000000
G03 X435.200000 Y255.500000 Z-1.000000 I6.092363 J-5.779960
G02 X433.444224 Y251.816747 Z-1.000000 I-14.258473 J4.536787
G02 X430.500000 Y248.400000 Z-1.000000 I-14.575311 J9.582704
G03 X426.967456 Y244.194563 Z-1.000000 I14.000578 J-15.346787
G03 X426.962500 Y243.300000 Z-1.000000 I0.710099 J-0.451229
G03 X427.696351 Y243.060724 Z-1.000000 I0.508788 J0.315448
G03 X432.200000 Y245.700000 Z-1.000000 I-6.807026 J16.777620
G02 X435.515462 Y248.361538 Z-1.000000 I74.316155 J-89.179386
G03 X435.900000 Y248.700000 Z-1.000000 I-2.463193 J3.186193
G03 X436.140185 Y248.996128 Z-1.000000 I-0.206465 J0.412929
G03 X436.900000 Y252.700000 Z-1.000000 I-34.239132 J8.953714
G02 X438.242929 Y255.945452 Z-1.000000 I7.690837 J-1.281806
G02 X440.800000 Y258.200000 Z-1.000000 I6.122095 J-4.366211
G03 X443.200279 Y259.707117 Z-1.000000 I-5.139885 J10.850868
G03 X443.262500 Y260.125000 Z-1.000000 I-0.195885 J0.242740
G03 X442.784220 Y260.380205 Z-1.000000 I-0.481606 J-0.326804
G03 X439.500000 Y260.100000 Z-1.000000 I-0.103838 J-18.169852
G01 X439.500000 Y260.100000 Z-1.000000
G00 Z5.000000

(End cutting path id: path268)


(Start cutting path id: path266)
(Change tool to Cylindrical cutter)

G00 Z5.000000
G00 X330.900000 Y266.100000

G01 Z-1.000000 F100.0(Penetrate)
G02 X335.527175 Y257.200530 Z-1.000000 I-28.354013 J-20.394992 F400.000000
G02 X337.000000 Y248.500000 Z-1.000000 I-24.962225 J-8.700530
G03 X337.409127 Y243.981981 Z-1.000000 I25.150962 J-0.000000
G03 X337.887500 Y243.600000 Z-1.000000 I0.458555 J0.083735
G03 X338.506629 Y243.993305 Z-1.000000 I-0.031194 J0.733064
G03 X340.500000 Y248.600000 Z-1.000000 I-30.473980 J15.921076
G02 X342.182665 Y252.019883 Z-1.000000 I12.217381 J-3.887349
G02 X343.100000 Y252.500000 Z-1.000000 I0.917335 J-0.636294
G02 X346.971850 Y250.145432 Z-1.000000 I-0.000000 J-4.360717
G02 X350.700000 Y237.600000 Z-1.000000 I-30.894764 J-16.007723
G03 X351.840392 Y233.397676 Z-1.000000 I13.673038 J1.454578
G03 X352.700000 Y233.200000 Z-1.000000 I0.504946 J0.227919
G03 X353.942790 Y234.464914 Z-1.000000 I-3.543042 J4.724056
G03 X355.600000 Y237.200000 Z-1.000000 I-15.995891 J11.561636
G02 X357.200111 Y239.658906 Z-1.000000 I14.905999 J-7.949866
G02 X357.900000 Y240.000000 Z-1.000000 I0.699889 J-0.547501
G02 X358.841477 Y239.488742 Z-1.000000 I0.000000 J-1.122489
G02 X361.475000 Y234.837500 Z-1.000000 I-36.989313 J-24.014438
G02 X363.566082 Y229.938174 Z-1.000000 I-46.800602 J-22.870882
G02 X364.000000 Y227.500000 Z-1.000000 I-6.633060 J-2.438174
G03 X364.565147 Y225.530288 Z-1.000000 I3.715100 J-0.000000
G03 X365.287500 Y225.262500 Z-1.000000 I0.534784 J0.334408
G03 X366.224616 Y225.902357 Z-1.000000 I-0.576283 J1.850171
G03 X368.000000 Y228.800000 Z-1.000000 I-10.654308 J8.520599
G02 X369.913890 Y231.107144 Z-1.000000 I5.291704 J-2.442325
G02 X371.800000 Y231.500000 Z-1.000000 I1.391498 J-1.956554
G03 X374.169176 Y231.050142 Z-1.000000 I6.926529 J30.014958
G03 X382.300000 Y229.900000 Z-1.000000 I76.212391 J509.461610
G02 X390.497937 Y228.796199 Z-1.000000 I-19.704389 J-177.339499
G02 X392.000000 Y228.400000 Z-1.000000 I-1.206111 J-7.617997
G03 X393.449023 Y228.001837 Z-1.000000 I3.670431 J10.521902
G03 X393.525000 Y228.067188 Z-1.000000 I0.012642 J0.062144
G03 X393.441866 Y228.218298 Z-1.000000 I-0.197035 J-0.009976
G03 X392.275000 Y228.962500 Z-1.000000 I-8.374817 J-11.844332
G03 X389.669244 Y230.333345 Z-1.000000 I-20.484429 J-35.775622
G03 X385.200000 Y232.300000 Z-1.000000 I-31.114552 J-64.646615
G02 X366.346224 Y242.388127 Z-1.000000 I41.226412 J99.710392
G02 X345.500000 Y259.000000 Z-1.000000 I90.307574 J134.712784
G03 X334.500642 Y267.700735 Z-1.000000 I-58.137043 J-62.193116
G03 X330.200000 Y269.000000 Z-1.000000 I-4.300642 J-6.468054
G03 X329.803118 Y268.494949 Z-1.000000 I0.000000 J-0.408466
G03 X330.900000 Y266.100000 Z-1.000000 I6.749358 J1.642534
G01 X330.900000 Y266.100000 Z-1.000000
G00 Z5.000000

(End cutting path id: path266)


(Start cutting path id: path264)
(Change tool to Cylindrical cutter)

G00 Z5.000000
G00 X305.700000 Y273.500000

G01 Z-1.000000 F100.0(Penetrate)
G02 X302.953238 Y263.672168 Z-1.000000 I-38.774227 J5.539175 F400.000000
G02 X298.800000 Y257.300000 Z-1.000000 I-20.154232 J8.596503
G03 X297.394027 Y255.065291 Z-1.000000 I4.205615 J-4.205615
G03 X297.500000 Y253.900000 Z-1.000000 I1.328617 J-0.466638
G02 X297.575982 Y253.394692 Z-1.000000 I-0.458164 J-0.327260
G02 X297.300000 Y253.300000 Z-1.000000 I-0.174154 J0.058051
G03 X296.271716 Y253.327818 Z-1.000000 I-0.536280 J-0.804420
G03 X292.400000 Y250.400000 Z-1.000000 I10.900751 J-18.438909
G02 X288.287013 Y246.972788 Z-1.000000 I-41.775404 J45.952944
G02 X283.000000 Y243.200000 Z-1.000000 I-61.963415 J81.241814
G03 X270.985403 Y234.399278 Z-1.000000 I62.996287 J-98.602883
G03 X266.100000 Y229.100000 Z-1.000000 I17.805189 J-21.316166
G03 X264.529073 Y226.186384 Z-1.000000 I9.684022 J-7.101616
G03 X263.500000 Y222.500000 Z-1.000000 I21.375689 J-7.953958
G01 X262.800000 Y218.500000 Z-1.000000
G01 X264.900000 Y222.600000 Z-1.000000
G02 X267.419942 Y226.408175 Z-1.000000 I23.548317 J-12.844537
G02 X272.400000 Y232.000000 Z-1.000000 I50.805899 J-40.234015
G03 X277.248504 Y237.472221 Z-1.000000 I-42.850525 J42.850525
G03 X277.300000 Y238.300000 Z-1.000000 I-0.575936 J0.451320
G02 X277.406513 Y238.713580 Z-1.000000 I0.257138 J0.154283
G02 X278.100000 Y238.800000 Z-1.000000 I0.448300 J-0.771737
G03 X280.095259 Y239.182612 Z-1.000000 I0.545846 J2.547283
G03 X291.600000 Y248.000000 Z-1.000000 I-63.137861 J94.295206
G02 X295.870017 Y251.417108 Z-1.000000 I112.006409 J-135.586705
G02 X298.400000 Y253.300000 Z-1.000000 I49.416503 J-63.758237
G03 X300.602458 Y255.321108 Z-1.000000 I-7.124692 J9.974568
G03 X301.000000 Y256.400000 Z-1.000000 I-1.265234 J1.078892
G02 X301.406764 Y257.530572 Z-1.000000 I1.774555 J0.000000
G02 X302.500000 Y258.400000 Z-1.000000 I2.604241 J-2.152582
G03 X303.595507 Y259.210536 Z-1.000000 I-0.871125 J2.323001
G03 X304.000000 Y260.400000 Z-1.000000 I-1.546640 J1.189464
G02 X304.351993 Y261.485093 Z-1.000000 I1.848511 J0.000000
G02 X305.600000 Y262.400000 Z-1.000000 I2.047951 J-1.484926
G02 X306.338211 Y262.048246 Z-1.000000 I0.202292 J-0.525960
G02 X306.500000 Y259.700000 Z-1.000000 I-4.605252 J-1.496989
G02 X305.529633 Y256.807510 Z-1.000000 I-16.060615 J3.778968
G02 X304.900000 Y256.200000 Z-1.000000 I-1.060109 J0.468678
G03 X304.293094 Y255.641566 Z-1.000000 I0.430944 J-1.077359
G03 X304.000000 Y254.400000 Z-1.000000 I2.483132 J-1.241566
G02 X303.760993 Y252.987324 Z-1.000000 I-4.294389 J-0.000000
G02 X302.500000 Y250.000000 Z-1.000000 I-23.855769 J8.310065
G03 X302.144087 Y247.983922 Z-1.000000 I3.213521 J-1.606761
G03 X302.800000 Y247.500000 Z-1.000000 I0.553281 J0.063446
G02 X304.432561 Y247.760198 Z-1.000000 I2.959860 J-13.319371
G02 X307.300000 Y247.900000 Z-1.000000 I2.867439 J-29.336702
G03 X309.065870 Y248.914433 Z-1.000000 I-0.087887 J2.197170
G03 X310.100000 Y252.300000 Z-1.000000 I-5.564925 J3.550544
G02 X310.465175 Y256.434453 Z-1.000000 I46.454984 J-2.019782
G02 X311.000000 Y259.000000 Z-1.000000 I17.861902 J-2.385047
G02 X311.531626 Y260.418481 Z-1.000000 I14.289996 J-4.546817
G02 X311.650000 Y260.425000 Z-1.000000 I0.060819 J-0.026370
G02 X311.724869 Y260.148689 Z-1.000000 I-0.493556 J-0.282032
G02 X311.700000 Y257.800000 Z-1.000000 I-56.868347 J-0.572330
G03 X313.279465 Y252.203771 Z-1.000000 I10.703777 J0.000000
G03 X315.100000 Y252.200000 Z-1.000000 I0.911429 J0.559008
G02 X315.595217 Y252.194324 Z-1.000000 I0.245763 J-0.163842
G02 X316.000000 Y250.800000 Z-1.000000 I-2.199069 J-1.394324
G02 X315.465248 Y248.534752 Z-1.000000 I-5.065248 J0.000000
G02 X314.600000 Y248.000000 Z-1.000000 I-0.865248 J0.432624
G03 X313.856812 Y247.468247 Z-1.000000 I0.000000 J-0.785223
G03 X313.800000 Y245.800000 Z-1.000000 I2.720143 J-0.927725
G01 X314.300000 Y243.600000 Z-1.000000
G01 X315.100000 Y245.800000 Z-1.000000
G02 X316.255508 Y247.624633 Z-1.000000 I5.900767 J-2.458653
G02 X317.100000 Y248.000000 Z-1.000000 I0.844492 J-0.762277
G03 X317.904113 Y248.765336 Z-1.000000 I0.000000 J0.805095
G03 X317.687500 Y255.075000 Z-1.000000 I-37.702633 J1.864207
G03 X316.572678 Y261.507644 Z-1.000000 I-60.546323 J-7.180173
G03 X314.900000 Y266.500000 Z-1.000000 I-26.193038 J-5.999529
G03 X312.372799 Y271.215244 Z-1.000000 I-33.160903 J-14.738179
G03 X309.500000 Y274.800000 Z-1.000000 I-17.693550 J-11.235995
G01 X306.300000 Y278.200000 Z-1.000000
G01 X305.700000 Y273.500000 Z-1.000000
G01 X305.700000 Y273.500000 Z-1.000000
G00 Z5.000000

(End cutting path id: path264)


(Start cutting path id: path264)
(Change tool to Cylindrical cutter)

G00 Z5.000000
G00 X314.700000 Y259.800000

G01 Z-1.000000 F100.0(Penetrate)
G02 X314.377467 Y259.730136 Z-1.000000 I-0.183760 J0.068910 F400.000000
G02 X314.100000 Y260.400000 Z-1.000000 I0.669864 J0.669864
G02 X314.302013 Y261.664667 Z-1.000000 I2.587194 J0.235199
G02 X314.600000 Y261.700000 Z-1.000000 I0.159238 J-0.068729
G02 X314.897212 Y261.070576 Z-1.000000 I-0.729218 J-0.729218
G02 X314.700000 Y259.800000 Z-1.000000 I-2.577228 J-0.250569
G01 X314.700000 Y259.800000 Z-1.000000
G00 Z5.000000

(End cutting path id: path264)


(Start cutting path id: path264)
(Change tool to Cylindrical cutter)

G00 Z5.000000
G00 X308.200000 Y256.800000

G01 Z-1.000000 F100.0(Penetrate)
G02 X307.771561 Y256.894838 Z-1.000000 I-0.183989 J0.183989 F400.000000
G02 X307.700000 Y258.100000 Z-1.000000 I1.980563 J0.722309
G02 X308.361096 Y259.195531 Z-1.000000 I2.526526 J-0.777393
G02 X308.800000 Y259.100000 Z-1.000000 I0.188627 J-0.189385
G02 X308.808937 Y257.852063 Z-1.000000 I-2.240152 J-0.640043
G02 X308.200000 Y256.800000 Z-1.000000 I-2.276229 J0.615230
G01 X308.200000 Y256.800000 Z-1.000000
G00 Z5.000000

(End cutting path id: path264)


(Start cutting path id: path264)
(Change tool to Cylindrical cutter)

G00 Z5.000000
G00 X299.100000 Y254.700000

G01 Z-1.000000 F100.0(Penetrate)
G02 X298.684657 Y254.728867 Z-1.000000 I-0.193715 J0.215239 F400.000000
G02 X298.600000 Y255.300000 Z-1.000000 I0.421310 J0.354290
G02 X299.363187 Y256.510524 Z-1.000000 I2.559588 J-0.767876
G02 X299.800000 Y256.500000 Z-1.000000 I0.212885 J-0.234453
G02 X299.915613 Y255.960000 Z-1.000000 I-0.359303 J-0.359303
G02 X299.100000 Y254.700000 Z-1.000000 I-3.350372 J1.274758
G01 X299.100000 Y254.700000 Z-1.000000
G00 Z5.000000

(End cutting path id: path264)


(Start cutting path id: path262)
(Change tool to Cylindrical cutter)

G00 Z5.000000
G00 X364.400000 Y298.900000

G01 Z-1.000000 F100.0(Penetrate)
G03 X364.469810 Y298.469810 Z-1.000000 I0.333333 J-0.166667 F400.000000
G03 X364.900000 Y298.400000 Z-1.000000 I0.263523 J0.263523
G02 X365.964494 Y298.438538 Z-1.000000 I0.568993 J-0.995738
G02 X368.100000 Y296.800000 Z-1.000000 I-2.819860 J-5.885995
G01 X370.200000 Y294.500000 Z-1.000000
G01 X368.800000 Y296.900000 Z-1.000000
G03 X366.081229 Y299.381236 Z-1.000000 I-5.358200 J-3.141014
G03 X364.400000 Y298.900000 Z-1.000000 I-0.564998 J-1.203503
G01 X364.400000 Y298.900000 Z-1.000000
G00 Z5.000000

(End cutting path id: path262)


(Start cutting path id: path260)
(Change tool to Cylindrical cutter)

G00 Z5.000000
G00 X302.000000 Y316.100000

G01 Z-1.000000 F100.0(Penetrate)
G03 X302.244848 Y315.204111 Z-1.000000 I1.761434 J-0.000000 F400.000000
G03 X303.000000 Y314.500000 Z-1.000000 I1.571317 J0.928220
G03 X303.395200 Y314.652271 Z-1.000000 I0.128169 J0.256337
G03 X303.400000 Y315.400000 Z-1.000000 I-0.975435 J0.380141
G03 X302.477025 Y316.399261 Z-1.000000 I-1.731380 J-0.673315
G03 X302.000000 Y316.100000 Z-1.000000 I-0.144642 J-0.299261
G01 X302.000000 Y316.100000 Z-1.000000
G00 Z5.000000

(End cutting path id: path260)


(Start cutting path id: path258)
(Change tool to Cylindrical cutter)

G00 Z5.000000
G00 X321.900000 Y373.300000

G01 Z-1.000000 F100.0(Penetrate)
G03 X321.700418 Y372.645112 Z-1.000000 I0.647838 J-0.555290 F400.000000
G03 X322.000000 Y372.500000 Z-1.000000 I0.196100 J0.023048
G02 X326.170766 Y373.391071 Z-1.000000 I3.282660 J-5.158466
G02 X332.000000 Y371.000000 Z-1.000000 I-1.897915 J-12.928093
G03 X335.026085 Y369.568872 Z-1.000000 I6.371048 J9.556572
G03 X338.700000 Y369.100000 Z-1.000000 I3.214425 J10.558900
G01 X342.500000 Y369.200000 Z-1.000000
G01 X339.000000 Y369.900000 Z-1.000000
G02 X335.610845 Y370.881796 Z-1.000000 I4.884866 J23.203115
G02 X331.300000 Y372.800000 Z-1.000000 I13.238709 J35.554849
G03 X324.754184 Y374.584656 Z-1.000000 I-7.558378 J-14.826049
G03 X321.900000 Y373.300000 Z-1.000000 I-0.204708 J-3.358159
G01 X321.900000 Y373.300000 Z-1.000000
G00 Z5.000000

(End cutting path id: path258)


(Start cutting path id: path256)
(Change tool to Cylindrical cutter)

G00 Z5.000000
G00 X224.000000 Y337.000000

G01 Z-1.000000 F100.0(Penetrate)
G03 X224.284317 Y336.329771 Z-1.000000 I0.932133 J0.000000 F400.000000
G03 X225.100000 Y336.000000 Z-1.000000 I0.815683 J0.843903
G03 X225.555421 Y336.308335 Z-1.000000 I0.000000 J0.490504
G03 X225.500000 Y337.000000 Z-1.000000 I-0.724918 J0.289967
G03 X224.833644 Y337.842633 Z-1.000000 I-2.354849 J-1.177424
G03 X224.400000 Y338.000000 Z-1.000000 I-0.433644 J-0.518797
G03 X224.187064 Y337.862936 Z-1.000000 I0.000000 J-0.233935
G03 X224.000000 Y337.000000 Z-1.000000 I1.896850 J-0.862936
G01 X224.000000 Y337.000000 Z-1.000000
G00 Z5.000000

(End cutting path id: path256)


(Start cutting path id: path254)
(Change tool to Cylindrical cutter)

G00 Z5.000000
G00 X220.400000 Y379.600000

G01 Z-1.000000 F100.0(Penetrate)
G03 X213.818400 Y367.436936 Z-1.000000 I18.147290 J-17.681974 F400.000000
G03 X215.100000 Y356.300000 Z-1.000000 I16.680433 J-3.722683
G03 X217.135705 Y352.605251 Z-1.000000 I34.303085 J16.491868
G03 X217.500000 Y352.412500 Z-1.000000 I0.348496 J0.218021
G03 X217.694887 Y352.646043 Z-1.000000 I-0.007871 J0.204655
G03 X216.900000 Y356.400000 Z-1.000000 I-28.310960 J-4.033611
G02 X217.068596 Y368.777647 Z-1.000000 I21.349384 J5.899172
G02 X224.800000 Y382.300000 Z-1.000000 I33.741713 J-10.320430
G03 X226.539379 Y384.707291 Z-1.000000 I-9.205166 J8.483193
G03 X226.350000 Y384.887500 Z-1.000000 I-0.118062 J0.065542
G03 X224.801968 Y383.744307 Z-1.000000 I6.384038 J-10.264532
G03 X220.400000 Y379.600000 Z-1.000000 I50.250814 J-57.784999
G01 X220.400000 Y379.600000 Z-1.000000
G00 Z5.000000

(End cutting path id: path254)


(Start cutting path id: path252)
(Change tool to Cylindrical cutter)

G00 Z5.000000
G00 X440.300000 Y359.300000

G01 Z-1.000000 F100.0(Penetrate)
G03 X438.340283 Y358.537174 Z-1.000000 I0.737397 J-4.793082 F400.000000
G03 X438.000000 Y357.900000 Z-1.000000 I0.426407 J-0.637174
G02 X437.596092 Y357.372090 Z-1.000000 I-0.546945 J0.000000
G02 X434.800000 Y357.000000 Z-1.000000 I-2.796092 J10.319650
G02 X433.010843 Y357.480722 Z-1.000000 I-0.000000 J3.569817
G02 X433.000000 Y358.000000 Z-1.000000 I0.152286 J0.262932
G03 X432.853723 Y358.483120 Z-1.000000 I-0.146277 J0.219415
G03 X430.500000 Y358.000000 Z-1.000000 I0.000000 J-5.975140
G03 X430.396133 Y357.458402 Z-1.000000 I0.106285 J-0.301142
G03 X432.000000 Y356.700000 Z-1.000000 I2.137978 J2.446262
G03 X441.066436 Y355.978340 Z-1.000000 I8.368067 J47.817528
G03 X441.200000 Y356.800000 Z-1.000000 I-0.006081 J0.422674
G02 X440.875070 Y357.404475 Z-1.000000 I0.139341 J0.464471
G02 X441.700000 Y358.600000 Z-1.000000 I2.271472 J-0.684980
G03 X443.052132 Y359.713935 Z-1.000000 I-6.415272 J9.164675
G03 X443.000000 Y359.800000 Z-1.000000 I-0.035819 J0.037125
G03 X442.462923 Y359.736993 Z-1.000000 I0.000000 J-2.320560
G02 X440.300000 Y359.300000 Z-1.000000 I-7.466634 J31.385276
G01 X440.300000 Y359.300000 Z-1.000000
G00 Z5.000000

(End cutting path id: path252)


(Start cutting path id: path250)
(Change tool to Cylindrical cutter)

G00 Z5.000000
G00 X426.400000 Y358.500000

G01 Z-1.000000 F100.0(Penetrate)
G03 X425.361430 Y357.355863 Z-1.000000 I3.048610 J-3.810763 F400.000000
G03 X425.500000 Y357.100000 Z-1.000000 I0.138570 J-0.090408
G03 X426.503802 Y357.322652 Z-1.000000 I0.000000 J2.374093
G03 X428.400000 Y358.500000 Z-1.000000 I-3.971371 J8.511810
G03 X429.548358 Y359.732458 Z-1.000000 I-2.597317 J3.571311
G03 X429.400000 Y360.000000 Z-1.000000 I-0.148358 J0.092637
G03 X428.412109 Y359.754859 Z-1.000000 I-0.000000 J-2.113118
G03 X426.400000 Y358.500000 Z-1.000000 I7.795520 J-14.740349
G01 X426.400000 Y358.500000 Z-1.000000
G00 Z5.000000

(End cutting path id: path250)


(Start cutting path id: path248)
(Change tool to Cylindrical cutter)

G00 Z5.000000
G00 X415.300000 Y354.200000

G01 Z-1.000000 F100.0(Penetrate)
G03 X413.266687 Y348.460000 Z-1.000000 I49.603462 J-20.801452 F400.000000
G03 X411.700000 Y342.000000 Z-1.000000 I69.569029 J-20.291945
G03 X411.277891 Y335.561177 Z-1.000000 I24.049181 J-4.809836
G03 X412.400000 Y330.800000 Z-1.000000 I14.858924 J0.989118
G03 X414.585897 Y326.298974 Z-1.000000 I35.549758 J14.483235
G03 X415.100000 Y326.000000 Z-1.000000 I0.514103 J0.292528
G03 X415.700731 Y326.529626 Z-1.000000 I0.000000 J0.605504
G03 X417.500000 Y344.500000 Z-1.000000 I-346.577795 J43.776082
G02 X418.311955 Y352.474298 Z-1.000000 I369.165404 J-33.560491
G02 X418.700000 Y354.500000 Z-1.000000 I13.324633 J-1.502459
G01 X419.200000 Y356.500000 Z-1.000000
G01 X417.600000 Y354.500000 Z-1.000000
G02 X416.379073 Y353.465720 Z-1.000000 I-2.731248 J1.986362
G02 X416.000000 Y353.700000 Z-1.000000 I-0.117140 J0.234280
G02 X416.255827 Y354.703416 Z-1.000000 I2.095734 J-0.000000
G02 X417.600000 Y356.500000 Z-1.000000 I6.908266 J-3.767510
G03 X418.605996 Y358.166667 Z-1.000000 I-2.868152 J2.868152
G03 X418.400000 Y359.000000 Z-1.000000 I-0.793303 J0.246026
G03 X417.639142 Y358.912455 Z-1.000000 I-0.345690 J-0.345690
G03 X415.300000 Y354.200000 Z-1.000000 I23.417193 J-14.560466
G01 X415.300000 Y354.200000 Z-1.000000
G00 Z5.000000

(End cutting path id: path248)


(Start cutting path id: path248)
(Change tool to Cylindrical cutter)

G00 Z5.000000
G00 X414.700000 Y347.800000

G01 Z-1.000000 F100.0(Penetrate)
G02 X414.377467 Y347.730136 Z-1.000000 I-0.183760 J0.068910 F400.000000
G02 X414.100000 Y348.400000 Z-1.000000 I0.669864 J0.669864
G02 X414.302013 Y349.664667 Z-1.000000 I2.587194 J0.235199
G02 X414.600000 Y349.700000 Z-1.000000 I0.159238 J-0.068729
G02 X414.897212 Y349.070576 Z-1.000000 I-0.729218 J-0.729218
G02 X414.700000 Y347.800000 Z-1.000000 I-2.577228 J-0.250569
G01 X414.700000 Y347.800000 Z-1.000000
G00 Z5.000000

(End cutting path id: path248)


(Start cutting path id: path248)
(Change tool to Cylindrical cutter)

G00 Z5.000000
G00 X416.700000 Y346.800000

G01 Z-1.000000 F100.0(Penetrate)
G02 X416.377467 Y346.730136 Z-1.000000 I-0.183760 J0.068910 F400.000000
G02 X416.100000 Y347.400000 Z-1.000000 I0.669864 J0.669864
G02 X416.302013 Y348.664667 Z-1.000000 I2.587194 J0.235199
G02 X416.600000 Y348.700000 Z-1.000000 I0.159238 J-0.068729
G02 X416.897212 Y348.070576 Z-1.000000 I-0.729218 J-0.729218
G02 X416.700000 Y346.800000 Z-1.000000 I-2.577228 J-0.250569
G01 X416.700000 Y346.800000 Z-1.000000
G00 Z5.000000

(End cutting path id: path248)


(Start cutting path id: path248)
(Change tool to Cylindrical cutter)

G00 Z5.000000
G00 X414.300000 Y341.900000

G01 Z-1.000000 F100.0(Penetrate)
G02 X413.616202 Y340.163213 Z-1.000000 I-9.287085 J2.653453 F400.000000
G02 X413.412500 Y340.137500 Z-1.000000 I-0.110598 J0.056438
G02 X413.257939 Y340.505022 Z-1.000000 I0.468297 J0.413204
G02 X413.200000 Y343.100000 Z-1.000000 I25.446359 J1.866284
G02 X413.612913 Y344.876522 Z-1.000000 I5.392997 J-0.317235
G02 X414.000000 Y344.900000 Z-1.000000 I0.199338 J-0.083807
G02 X414.409496 Y343.713785 Z-1.000000 I-2.064957 J-1.376638
G02 X414.300000 Y341.900000 Z-1.000000 I-6.628082 J-0.510068
G01 X414.300000 Y341.900000 Z-1.000000
G00 Z5.000000

(End cutting path id: path248)


(Start cutting path id: path246)
(Change tool to Cylindrical cutter)

G00 Z5.000000
G00 X444.800000 Y360.100000

G01 Z-1.000000 F100.0(Penetrate)
G02 X445.112103 Y359.375181 Z-1.000000 I-0.306261 J-0.561478 F400.000000
G02 X444.400000 Y358.600000 Z-1.000000 I-1.091968 J0.288443
G03 X443.315388 Y357.862472 Z-1.000000 I0.762576 J-2.287729
G03 X443.300000 Y357.300000 Z-1.000000 I0.346667 J-0.290930
G03 X445.571707 Y357.221374 Z-1.000000 I1.184050 J1.353200
G03 X447.000000 Y360.100000 Z-1.000000 I-2.186689 J2.878626
G03 X446.647377 Y360.675949 Z-1.000000 I-0.646668 J0.000000
G03 X445.300000 Y361.000000 Z-1.000000 I-1.347377 J-2.639115
G03 X444.676471 Y360.631556 Z-1.000000 I0.000000 J-0.711831
G03 X444.800000 Y360.100000 Z-1.000000 I0.357718 J-0.197001
G01 X444.800000 Y360.100000 Z-1.000000
G00 Z5.000000

(End cutting path id: path246)


(Start cutting path id: path244)
(Change tool to Cylindrical cutter)

G00 Z5.000000
G00 X419.600000 Y363.500000

G01 Z-1.000000 F100.0(Penetrate)
G03 X419.130157 Y361.806870 Z-1.000000 I16.329804 J-5.443268 F400.000000
G03 X419.100000 Y360.700000 Z-1.000000 I2.826011 J-0.630842
G03 X419.343575 Y360.611814 Z-1.000000 I0.137751 J0.000000
G03 X420.100000 Y361.900000 Z-1.000000 I-3.519180 J2.932650
G03 X420.794453 Y364.218735 Z-1.000000 I-14.842315 J5.708583
G03 X420.600000 Y364.700000 Z-1.000000 I-0.449862 J0.098152
G03 X420.329709 Y364.686371 Z-1.000000 I-0.128985 J-0.128985
G03 X419.600000 Y363.500000 Z-1.000000 I4.061886 J-3.315969
G01 X419.600000 Y363.500000 Z-1.000000
G00 Z5.000000

(End cutting path id: path244)


(Start cutting path id: path242)
(Change tool to Cylindrical cutter)

G00 Z5.000000
G00 X411.400000 Y367.300000

G01 Z-1.000000 F100.0(Penetrate)
G02 X407.358748 Y361.663207 Z-1.000000 I-70.307145 J46.139064 F400.000000
G02 X400.200000 Y352.700000 Z-1.000000 I-423.161082 J330.630535
G03 X394.817800 Y345.707075 Z-1.000000 I85.148669 J-71.103528
G03 X393.537500 Y342.850000 Z-1.000000 I6.596494 J-4.671392
G03 X393.872543 Y340.070319 Z-1.000000 I4.018676 J-0.925650
G03 X396.400000 Y336.300000 Z-1.000000 I16.357156 J8.232816
G03 X398.632476 Y334.683173 Z-1.000000 I4.936173 J4.466062
G03 X399.300000 Y335.000000 Z-1.000000 I0.197766 J0.444943
G02 X402.431072 Y343.507090 Z-1.000000 I58.656100 J-16.758886
G02 X407.600000 Y353.300000 Z-1.000000 I86.013808 J-39.139517
G03 X416.246249 Y370.297646 Z-1.000000 I-120.352827 J71.918153
G03 X415.800000 Y372.600000 Z-1.000000 I-1.927839 J0.820765
G03 X415.346893 Y372.529895 Z-1.000000 I-0.188280 J-0.282421
G03 X411.400000 Y367.300000 Z-1.000000 I87.255292 J-69.954026
G01 X411.400000 Y367.300000 Z-1.000000
G00 Z5.000000

(End cutting path id: path242)


(Start cutting path id: path240)
(Change tool to Cylindrical cutter)

G00 Z5.000000
G00 X409.400000 Y369.300000

G01 Z-1.000000 F100.0(Penetrate)
G02 X406.440039 Y365.551412 Z-1.000000 I-109.791566 J83.650717 F400.000000
G02 X400.400000 Y358.400000 Z-1.000000 I-231.267634 J189.200850
G03 X394.711202 Y351.230394 Z-1.000000 I57.680882 J-51.609210
G03 X393.600000 Y348.900000 Z-1.000000 I6.371818 J-4.468400
G01 X392.900000 Y346.500000 Z-1.000000
G01 X394.700000 Y349.000000 Z-1.000000
G02 X396.523171 Y351.356437 Z-1.000000 I421.609197 J-324.314767
G02 X402.500000 Y359.000000 Z-1.000000 I1638.894130 J-1275.362886
G03 X412.927123 Y372.552737 Z-1.000000 I-268.681977 J217.504457
G03 X412.700000 Y373.000000 Z-1.000000 I-0.227123 J0.165964
G03 X412.265042 Y372.797141 Z-1.000000 I-0.000000 J-0.567735
G03 X409.400000 Y369.300000 Z-1.000000 I148.915253 J-124.921376
G01 X409.400000 Y369.300000 Z-1.000000
G00 Z5.000000

(End cutting path id: path240)


(Start cutting path id: path238)
(Change tool to Cylindrical cutter)

G00 Z5.000000
G00 X451.500000 Y392.200000

G01 Z-1.000000 F100.0(Penetrate)
G02 X450.299655 Y391.545704 Z-1.000000 I-2.250693 J2.700832 F400.000000
G02 X445.000000 Y390.100000 Z-1.000000 I-22.135028 J70.705894
G03 X434.389582 Y386.363606 Z-1.000000 I8.864618 J-42.106934
G03 X433.000000 Y384.100000 Z-1.000000 I1.148897 J-2.263606
G03 X433.364266 Y383.660704 Z-1.000000 I0.447023 J0.000000
G03 X435.300000 Y383.700000 Z-1.000000 I0.874076 J4.639814
G02 X436.861561 Y383.946818 Z-1.000000 I1.938084 J-7.198597
G02 X436.950000 Y383.787500 Z-1.000000 I0.005126 J-0.101360
G02 X436.580067 Y383.434231 Z-1.000000 I-1.053505 J0.732873
G02 X434.100000 Y382.000000 Z-1.000000 I-20.398142 J32.411021
G02 X432.535503 Y381.556606 Z-1.000000 I-2.189636 J4.744212
G02 X432.400000 Y381.800000 Z-1.000000 I-0.018003 J0.149393
G03 X432.544125 Y382.744674 Z-1.000000 I-1.391146 J0.695573
G03 X432.100000 Y383.400000 Z-1.000000 I-0.927626 J-0.150509
G03 X430.483414 Y382.701979 Z-1.000000 I-0.582025 J-0.873037
G03 X430.800000 Y375.900000 Z-1.000000 I15.800427 J-2.672955
G03 X431.261978 Y374.258632 Z-1.000000 I28.154054 J7.038513
G03 X431.400000 Y374.200000 Z-1.000000 I0.093978 J0.029457
G03 X431.537573 Y374.372827 Z-1.000000 I-0.117251 J0.234501
G03 X432.000000 Y376.400000 Z-1.000000 I-76.647151 J18.550654
G02 X434.708922 Y380.622987 Z-1.000000 I6.517824 J-1.200652
G02 X442.400000 Y383.700000 Z-1.000000 I10.366904 J-14.761823
G03 X446.945665 Y385.078691 Z-1.000000 I-1.817285 J14.174820
G03 X450.300000 Y387.700000 Z-1.000000 I-4.726341 J9.504848
G02 X453.477159 Y390.251633 Z-1.000000 I8.790644 J-7.691813
G02 X456.400000 Y391.000000 Z-1.000000 I2.922841 J-5.333579
G03 X458.004561 Y391.482633 Z-1.000000 I0.000000 J2.908578
G03 X458.000000 Y392.000000 Z-1.000000 I-0.170119 J0.257204
G03 X454.135240 Y393.180463 Z-1.000000 I-4.091275 J-6.477852
G03 X451.500000 Y392.200000 Z-1.000000 I-0.110466 J-3.734763
G01 X451.500000 Y392.200000 Z-1.000000
G00 Z5.000000

(End cutting path id: path238)


(Start cutting path id: path238)
(Change tool to Cylindrical cutter)

G00 Z5.000000
G00 X440.000000 Y386.000000

G01 Z-1.000000 F100.0(Penetrate)
G02 X439.637358 Y385.421465 Z-1.000000 I-0.642799 J-0.000000 F400.000000
G02 X437.800000 Y385.000000 Z-1.000000 I-1.837358 J3.794208
G02 X436.908421 Y385.436234 Z-1.000000 I-0.000000 J1.129226
G02 X437.000000 Y386.000000 Z-1.000000 I0.307885 J0.239307
G02 X439.291189 Y386.708811 Z-1.000000 I2.291189 J-3.348661
G02 X440.000000 Y386.000000 Z-1.000000 I0.000000 J-0.708811
G01 X440.000000 Y386.000000 Z-1.000000
G00 Z5.000000

(End cutting path id: path238)


(Start cutting path id: path236)
(Change tool to Cylindrical cutter)

G00 Z5.000000
G00 X269.000000 Y281.100000

G01 Z-1.000000 F100.0(Penetrate)
G02 X267.581022 Y278.392070 Z-1.000000 I-11.581521 J4.343071 F400.000000
G02 X265.500000 Y276.000000 Z-1.000000 I-11.929090 J8.276670
G03 X263.662994 Y273.666697 Z-1.000000 I6.524958 J-7.026878
G03 X263.700000 Y272.700000 Z-1.000000 I0.807324 J-0.453152
G02 X263.644152 Y272.355848 Z-1.000000 I-0.266667 J-0.133333
G02 X263.300000 Y272.300000 Z-1.000000 I-0.210819 J0.210819
G03 X262.341986 Y272.520175 Z-1.000000 I-0.817408 J-1.362347
G03 X258.400000 Y271.900000 Z-1.000000 I2.620682 J-29.495913
G02 X254.376955 Y271.529843 Z-1.000000 I-3.209920 J12.839682
G02 X250.400000 Y272.400000 Z-1.000000 I0.815664 J13.251089
G03 X247.907934 Y273.385458 Z-1.000000 I-36.339444 J-88.252937
G03 X247.537500 Y273.462500 Z-1.000000 I-0.427814 J-1.127929
G03 X247.493041 Y273.358283 Z-1.000000 I-0.002875 J-0.060365
G03 X248.500000 Y272.500000 Z-1.000000 I8.591212 J9.059586
G03 X250.604365 Y271.162923 Z-1.000000 I6.610663 J8.079699
G03 X254.200000 Y269.800000 Z-1.000000 I9.889789 J20.666616
G03 X257.903692 Y269.488260 Z-1.000000 I2.661466 J9.462992
G03 X263.100000 Y270.800000 Z-1.000000 I-2.020953 J18.953934
G02 X268.162626 Y272.534555 Z-1.000000 I14.103221 J-32.907516
G02 X269.100000 Y272.400000 Z-1.000000 I0.308601 J-1.182510
G02 X269.754556 Y271.763444 Z-1.000000 I-0.444928 J-1.112320
G02 X271.100000 Y268.000000 Z-1.000000 I-28.216474 J-12.209706
G03 X272.531520 Y264.239168 Z-1.000000 I34.469270 J10.967495
G03 X272.900000 Y264.000000 Z-1.000000 I0.368480 J0.164269
G02 X273.196234 Y263.746228 Z-1.000000 I0.000000 J-0.299787
G02 X273.400000 Y260.000000 Z-1.000000 I-18.611616 J-2.890983
G03 X273.803042 Y256.474471 Z-1.000000 I15.620940 J-0.000000
G03 X274.400000 Y256.000000 Z-1.000000 I0.596958 J0.138297
G02 X274.529040 Y255.753056 Z-1.000000 I0.000000 J-0.157187
G02 X273.400000 Y254.600000 Z-1.000000 I-3.982027 J2.769801
G03 X272.047543 Y253.118526 Z-1.000000 I4.028857 J-5.036071
G03 X272.100000 Y252.600000 Z-1.000000 I0.343853 J-0.227130
G03 X272.621036 Y252.553510 Z-1.000000 I0.288317 J0.288317
G03 X275.100000 Y254.700000 Z-1.000000 I-8.826000 J12.697790
G03 X276.281257 Y256.327846 Z-1.000000 I-6.123331 J5.685950
G03 X276.100000 Y256.500000 Z-1.000000 I-0.112841 J0.062690
G02 X275.381040 Y256.517108 Z-1.000000 I-0.345963 J0.576604
G02 X275.200000 Y257.100000 Z-1.000000 I0.268671 J0.403007
G03 X276.541501 Y261.362261 Z-1.000000 I-22.251821 J9.345765
G03 X276.200000 Y261.600000 Z-1.000000 I-0.220438 J0.047496
G02 X275.688638 Y261.850984 Z-1.000000 I-0.177714 J0.284343
G02 X275.700000 Y266.200000 Z-1.000000 I21.195091 J2.119150
G02 X276.349652 Y270.757508 Z-1.000000 I89.844054 J-10.481806
G02 X276.612500 Y271.700000 Z-1.000000 I4.605817 J-0.776599
G02 X276.796367 Y271.681655 Z-1.000000 I0.089321 J-0.035356
G02 X277.000000 Y269.400000 Z-1.000000 I-12.680879 J-2.281655
G03 X277.386043 Y266.591448 Z-1.000000 I10.409461 J0.000000
G03 X278.200000 Y265.200000 Z-1.000000 I3.063910 J0.858505
G02 X278.464854 Y264.402163 Z-1.000000 I-0.662958 J-0.662958
G02 X278.000000 Y264.000000 Z-1.000000 I-0.464854 J0.067577
G03 X277.617898 Y263.655166 Z-1.000000 I0.000000 J-0.384116
G03 X277.900000 Y263.100000 Z-1.000000 I0.571666 J-0.058770
G02 X278.510479 Y262.044708 Z-1.000000 I-0.764210 J-1.146316
G02 X278.000000 Y260.600000 Z-1.000000 I-1.936660 J-0.128234
G03 X277.208302 Y259.038388 Z-1.000000 I3.624372 J-2.818956
G03 X277.400000 Y258.300000 Z-1.000000 I0.723960 J-0.206126
G03 X278.522429 Y258.566809 Z-1.000000 I0.479052 J0.479052
G03 X279.400000 Y264.400000 Z-1.000000 I-16.621431 J5.483211
G03 X276.613370 Y276.629136 Z-1.000000 I-32.882049 J-1.060711
G03 X273.800000 Y276.900000 Z-1.000000 I-1.482764 J-0.654774
G02 X273.495322 Y276.876095 Z-1.000000 I-0.162553 J0.118220
G02 X273.400000 Y277.300000 Z-1.000000 I0.287267 J0.287267
G03 X273.433249 Y279.093368 Z-1.000000 I-2.599253 J0.945183
G03 X272.100000 Y281.600000 Z-1.000000 I-7.667862 J-2.470564
G01 X270.200000 Y284.000000 Z-1.000000
G01 X269.000000 Y281.100000 Z-1.000000
G01 X269.000000 Y281.100000 Z-1.000000
G00 Z5.000000

(End cutting path id: path236)


(Start cutting path id: path236)
(Change tool to Cylindrical cutter)

G00 Z5.000000
G00 X272.000000 Y274.000000

G01 Z-1.000000 F100.0(Penetrate)
G02 X271.751099 Y273.339810 Z-1.000000 I-1.000000 J-0.000000 F400.000000
G02 X271.000000 Y273.000000 Z-1.000000 I-0.751099 J0.660190
G02 X270.292893 Y273.292893 Z-1.000000 I0.000000 J1.000000
G02 X270.000000 Y274.000000 Z-1.000000 I0.707107 J0.707107
G02 X270.339810 Y274.751099 Z-1.000000 I1.000000 J-0.000000
G02 X271.000000 Y275.000000 Z-1.000000 I0.660190 J-0.751099
G02 X271.707107 Y274.707107 Z-1.000000 I-0.000000 J-1.000000
G02 X272.000000 Y274.000000 Z-1.000000 I-0.707107 J-0.707107
G01 X272.000000 Y274.000000 Z-1.000000
G00 Z5.000000

(End cutting path id: path236)


(Start cutting path id: path236)
(Change tool to Cylindrical cutter)

G00 Z5.000000
G00 X275.000000 Y268.800000

G01 Z-1.000000 F100.0(Penetrate)
G02 X274.731157 Y268.250661 Z-1.000000 I-0.695666 J-0.000000 F400.000000
G02 X274.000000 Y268.000000 Z-1.000000 I-0.731157 J0.941030
G02 X273.438365 Y268.355032 Z-1.000000 I0.000000 J0.621748
G02 X273.000000 Y270.300000 Z-1.000000 I4.095596 J1.944968
G02 X273.427357 Y271.110776 Z-1.000000 I0.982776 J-0.000000
G02 X274.000000 Y271.000000 Z-1.000000 I0.231628 J-0.338120
G02 X274.838418 Y269.494108 Z-1.000000 I-14.453705 J-9.033566
G02 X275.000000 Y268.800000 Z-1.000000 I-1.410049 J-0.694108
G01 X275.000000 Y268.800000 Z-1.000000
G00 Z5.000000

(End cutting path id: path236)


(Start cutting path id: path234)
(Change tool to Cylindrical cutter)

G00 Z5.000000
G00 X254.200000 Y299.600000

G01 Z-1.000000 F100.0(Penetrate)
G02 X249.320719 Y294.738587 Z-1.000000 I-11.488088 J6.650998 F400.000000
G02 X242.800000 Y293.000000 Z-1.000000 I-6.520719 J11.358963
G03 X241.269415 Y292.882772 Z-1.000000 I1.123784 J-24.723249
G03 X241.100000 Y292.737500 Z-1.000000 I0.021153 J-0.196090
G03 X241.167373 Y292.516567 Z-1.000000 I0.211226 J-0.056327
G03 X242.400000 Y291.500000 Z-1.000000 I18.391421 J21.044740
G03 X246.216436 Y290.336192 Z-1.000000 I3.545109 J4.785897
G03 X252.500000 Y292.000000 Z-1.000000 I-0.699512 J15.338998
G02 X256.273994 Y293.000902 Z-1.000000 I4.301131 J-8.602263
G02 X257.700000 Y292.300000 Z-1.000000 I0.088933 J-1.620141
G02 X259.071713 Y287.958600 Z-1.000000 I-5.018656 J-3.973103
G02 X257.100000 Y280.700000 Z-1.000000 I-18.210306 J1.049517
G03 X255.851649 Y278.116788 Z-1.000000 I95.149317 J-47.574659
G03 X255.762500 Y277.675000 Z-1.000000 I0.867713 J-0.404985
G03 X255.962954 Y277.542274 Z-1.000000 I0.147935 J0.005690
G03 X257.200000 Y278.100000 Z-1.000000 I-3.953747 J10.420231
G03 X260.546844 Y281.536886 Z-1.000000 I-3.579665 J6.833907
G03 X262.000000 Y287.800000 Z-1.000000 I-12.770460 J6.263114
G03 X260.822247 Y295.216802 Z-1.000000 I-23.942228 J-0.000000
G03 X257.700000 Y301.400000 Z-1.000000 I-21.657177 J-7.056038
G03 X256.413016 Y301.690063 Z-1.000000 I-0.816988 J-0.624756
G03 X254.200000 Y299.600000 Z-1.000000 I2.497290 J-4.860832
G01 X254.200000 Y299.600000 Z-1.000000
G00 Z5.000000

(End cutting path id: path234)


(Start cutting path id: path232)
(Change tool to Cylindrical cutter)

G00 Z5.000000
G00 X322.000000 Y314.400000

G01 Z-1.000000 F100.0(Penetrate)
G03 X322.491470 Y313.426599 Z-1.000000 I1.209690 J0.000000 F400.000000
G03 X323.400000 Y313.300000 Z-1.000000 I0.570902 J0.773742
G02 X324.621302 Y313.366514 Z-1.000000 I0.716525 J-1.910732
G02 X325.400000 Y312.700000 Z-1.000000 I-0.286726 J-1.123125
G03 X325.660678 Y312.614056 Z-1.000000 I0.159534 J0.045581
G03 X325.900000 Y313.100000 Z-1.000000 I-0.373693 J0.485944
G03 X325.576210 Y314.484778 Z-1.000000 I-2.117066 J0.235230
G03 X324.400000 Y315.400000 Z-1.000000 I-1.883812 J-1.207586
G03 X322.658137 Y315.391155 Z-1.000000 I-0.860276 J-2.102897
G03 X322.000000 Y314.400000 Z-1.000000 I0.417272 J-0.991155
G01 X322.000000 Y314.400000 Z-1.000000
G00 Z5.000000

(End cutting path id: path232)


(Start cutting path id: path230)
(Change tool to Cylindrical cutter)

G00 Z5.000000
G00 X306.700000 Y364.600000

G01 Z-1.000000 F100.0(Penetrate)
G03 X305.717680 Y358.205490 Z-1.000000 I12.954505 J-5.262768 F400.000000
G03 X307.700000 Y350.000000 Z-1.000000 I27.074515 J2.198591
G03 X309.341696 Y346.850069 Z-1.000000 I26.098141 J11.599174
G03 X310.012500 Y346.225000 Z-1.000000 I1.430523 J0.862715
G03 X310.632936 Y346.359557 Z-1.000000 I0.227982 J0.446465
G03 X311.500000 Y348.000000 Z-1.000000 I-3.941912 J3.132884
G02 X314.176091 Y350.625183 Z-1.000000 I3.901392 J-1.300464
G02 X325.300000 Y352.200000 Z-1.000000 I10.382654 J-33.264176
G03 X333.820619 Y353.038569 Z-1.000000 I0.474256 J38.889006
G03 X336.700000 Y354.600000 Z-1.000000 I-1.190918 J5.631730
G03 X338.787213 Y357.176984 Z-1.000000 I-11.226990 J11.226990
G03 X338.700000 Y357.600000 Z-1.000000 I-0.257636 J0.167382
G03 X338.142857 Y357.672487 Z-1.000000 I-0.325656 J-0.325656
G03 X336.100000 Y356.100000 Z-1.000000 I5.021762 J-8.637106
G02 X332.984556 Y354.817099 Z-1.000000 I-3.097287 J3.097287
G02 X316.800000 Y356.200000 Z-1.000000 I0.415612 J100.262159
G02 X310.701111 Y357.869682 Z-1.000000 I4.610069 J28.812931
G02 X310.000000 Y358.900000 Z-1.000000 I0.406496 J1.030318
G03 X309.682309 Y360.454969 Z-1.000000 I-8.690728 J-0.965636
G03 X308.600000 Y363.500000 Z-1.000000 I-31.525367 J-9.490346
G03 X307.430201 Y364.859144 Z-1.000000 I-2.567873 J-1.027149
G03 X306.700000 Y364.600000 Z-1.000000 I-0.256008 J-0.436966
G01 X306.700000 Y364.600000 Z-1.000000
G00 Z5.000000

(End cutting path id: path230)


(Start cutting path id: path228)
(Change tool to Cylindrical cutter)

G00 Z5.000000
G00 X340.000000 Y383.600000

G01 Z-1.000000 F100.0(Penetrate)
G03 X340.157197 Y383.357786 Z-1.000000 I0.265203 J0.000000 F400.000000
G03 X342.000000 Y382.700000 Z-1.000000 I5.206657 J11.676343
G03 X343.638301 Y382.653378 Z-1.000000 I0.915322 J3.356179
G03 X344.000000 Y383.100000 Z-1.000000 I-0.094892 J0.446622
G03 X343.643456 Y383.649706 Z-1.000000 I-0.602030 J0.000000
G03 X342.000000 Y384.000000 Z-1.000000 I-1.643456 J-3.680114
G03 X340.164928 Y383.804303 Z-1.000000 I-0.000000 J-8.701698
G03 X340.000000 Y383.600000 Z-1.000000 I0.044076 J-0.204303
G01 X340.000000 Y383.600000 Z-1.000000
G00 Z5.000000

(End cutting path id: path228)


(Start cutting path id: path226)
(Change tool to Cylindrical cutter)

G00 Z5.000000
G00 X345.500000 Y385.100000

G01 Z-1.000000 F100.0(Penetrate)
G03 X345.400482 Y384.312013 Z-1.000000 I0.844992 J-0.506995 F400.000000
G03 X346.000000 Y383.500000 Z-1.000000 I1.423111 J0.423376
G03 X346.607867 Y383.550423 Z-1.000000 I0.268855 J0.448092
G03 X347.000000 Y384.400000 Z-1.000000 I-0.724261 J0.849577
G03 X346.394612 Y385.356088 Z-1.000000 I-1.057668 J0.000000
G03 X345.500000 Y385.100000 Z-1.000000 I-0.301509 J-0.637368
G01 X345.500000 Y385.100000 Z-1.000000
G00 Z5.000000

(End cutting path id: path226)


(Start cutting path id: path224)
(Change tool to Cylindrical cutter)

G00 Z5.000000
G00 X307.800000 Y387.200000

G01 Z-1.000000 F100.0(Penetrate)
G03 X304.080135 Y381.708724 Z-1.000000 I14.916572 J-14.110271 F400.000000
G03 X303.000000 Y376.800000 Z-1.000000 I10.613897 J-4.908724
G02 X302.489335 Y373.670246 Z-1.000000 I-9.846124 J-0.000000
G02 X300.500000 Y369.500000 Z-1.000000 I-18.053868 J6.052638
G03 X298.242589 Y361.092670 Z-1.000000 I13.308407 J-8.080104
G03 X300.800000 Y356.000000 Z-1.000000 I6.626727 J0.139307
G01 X303.500000 Y353.800000 Z-1.000000
G01 X304.100000 Y359.200000 Z-1.000000
G02 X304.976477 Y364.420154 Z-1.000000 I41.636616 J-4.307236
G02 X305.800000 Y366.700000 Z-1.000000 I10.109053 J-2.362918
G03 X306.651765 Y368.976428 Z-1.000000 I-6.203512 J3.618715
G03 X307.600000 Y376.200000 Z-1.000000 I-62.289182 J11.850700
G02 X308.672862 Y383.420603 Z-1.000000 I75.951882 J-7.595188
G02 X309.700000 Y386.300000 Z-1.000000 I10.216116 J-2.021392
G03 X310.824474 Y389.123818 Z-1.000000 I-14.272731 J7.319349
G03 X310.662500 Y389.487500 Z-1.000000 I-0.295534 J0.086287
G03 X310.209181 Y389.438127 Z-1.000000 I-0.187039 J-0.388465
G03 X307.800000 Y387.200000 Z-1.000000 I12.261532 J-15.614366
G01 X307.800000 Y387.200000 Z-1.000000
G00 Z5.000000

(End cutting path id: path224)


(Start cutting path id: path222)
(Change tool to Cylindrical cutter)

G00 Z5.000000
G00 X281.500000 Y388.700000

G01 Z-1.000000 F100.0(Penetrate)
G03 X278.257488 Y385.805907 Z-1.000000 I4.186047 J-7.953490 F400.000000
G03 X275.600000 Y380.000000 Z-1.000000 I15.720221 J-10.706629
G03 X275.438284 Y378.601101 Z-1.000000 I4.166654 J-1.190473
G03 X275.700000 Y378.500000 Z-1.000000 I0.153236 J0.007379
G02 X280.774356 Y382.957761 Z-1.000000 I15.124757 J-12.099805
G02 X284.500000 Y384.000000 Z-1.000000 I3.725644 J-6.137824
G02 X285.391882 Y383.431136 Z-1.000000 I0.000000 J-0.983591
G02 X285.500000 Y381.800000 Z-1.000000 I-2.054462 J-0.955330
G03 X285.105855 Y380.154945 Z-1.000000 I40.879569 J-10.664235
G03 X285.175000 Y380.037500 Z-1.000000 I0.097957 J-0.021406
G03 X285.325904 Y380.081798 Z-1.000000 I0.041422 J0.138074
G03 X286.500000 Y381.500000 Z-1.000000 I-41.697183 J35.715225
G03 X287.563916 Y383.522843 Z-1.000000 I-6.413632 J4.664459
G03 X287.600000 Y384.700000 Z-1.000000 I-1.826088 J0.645108
G02 X287.504205 Y385.823690 Z-1.000000 I1.648394 J0.706455
G02 X288.000000 Y386.500000 Z-1.000000 I1.052669 J-0.251814
G03 X288.512836 Y387.214163 Z-1.000000 I-0.570556 J0.950927
G03 X288.400000 Y388.400000 Z-1.000000 I-1.907240 J0.416807
G03 X286.264261 Y389.886987 Z-1.000000 I-2.197519 J-0.879008
G03 X281.500000 Y388.700000 Z-1.000000 I-0.240005 J-9.191440
G01 X281.500000 Y388.700000 Z-1.000000
G00 Z5.000000

(End cutting path id: path222)


(Start cutting path id: path222)
(Change tool to Cylindrical cutter)

G00 Z5.000000
G00 X286.000000 Y388.000000

G01 Z-1.000000 F100.0(Penetrate)
G02 X286.711804 Y388.595118 Z-1.000000 I1.266468 J-0.791543 F400.000000
G02 X287.000000 Y388.400000 Z-1.000000 I0.078047 J-0.195118
G02 X286.740725 Y387.404638 Z-1.000000 I-2.040245 J-0.000000
G02 X285.600000 Y386.100000 Z-1.000000 I-3.648551 J2.039131
G02 X284.381737 Y385.693820 Z-1.000000 I-1.142352 J1.396208
G02 X283.600000 Y386.200000 Z-1.000000 I0.038594 J0.916345
G03 X282.983151 Y386.614158 Z-1.000000 I-0.673584 J-0.336792
G03 X282.400000 Y386.300000 Z-1.000000 I-0.046269 J-0.612425
G02 X281.672708 Y385.318628 Z-1.000000 I-2.432386 J1.042451
G02 X280.800000 Y385.000000 Z-1.000000 I-0.872708 J1.035841
G02 X280.536093 Y385.369310 Z-1.000000 I0.000000 J0.278948
G02 X281.500000 Y387.000000 Z-1.000000 I4.423885 J-1.514745
G02 X283.274480 Y388.109037 Z-1.000000 I2.722852 J-2.382495
G02 X284.200000 Y387.800000 Z-1.000000 I0.230724 J-0.849434
G03 X284.993085 Y387.398807 Z-1.000000 I0.715046 J0.429028
G03 X286.000000 Y388.000000 Z-1.000000 I-0.127605 J1.357539
G01 X286.000000 Y388.000000 Z-1.000000
G00 Z5.000000

(End cutting path id: path222)


(Start cutting path id: path220)
(Change tool to Cylindrical cutter)

G00 Z5.000000
G00 X326.000000 Y389.300000

G01 Z-1.000000 F100.0(Penetrate)
G03 X331.724789 Y385.840283 Z-1.000000 I15.417724 J19.045423 F400.000000
G03 X335.800000 Y385.000000 Z-1.000000 I4.075211 J9.461861
G03 X335.877460 Y385.129059 Z-1.000000 I0.000000 J0.087775
G03 X335.000000 Y386.400000 Z-1.000000 I-5.960772 J-3.176958
G03 X333.683184 Y387.364962 Z-1.000000 I-2.246824 J-1.685118
G03 X332.500000 Y387.400000 Z-1.000000 I-0.646680 J-1.842728
G02 X331.842053 Y387.641963 Z-1.000000 I-0.194575 J0.486438
G02 X331.700000 Y388.900000 Z-1.000000 I1.536205 J0.810502
G03 X331.695948 Y390.537068 Z-1.000000 I-3.242056 J0.810514
G03 X331.100000 Y391.000000 Z-1.000000 I-0.595948 J-0.152126
G03 X330.605627 Y390.660934 Z-1.000000 I0.000000 J-0.529942
G03 X330.600000 Y389.500000 Z-1.000000 I1.522571 J-0.587860
G02 X330.708519 Y388.387210 Z-1.000000 I-1.395562 J-0.697781
G02 X330.200000 Y388.000000 Z-1.000000 I-0.508519 J0.140312
G02 X329.319572 Y388.263639 Z-1.000000 I-0.000000 J1.601926
G02 X328.800000 Y388.900000 Z-1.000000 I0.753713 J1.145676
G03 X328.390957 Y389.455119 Z-1.000000 I-0.879650 J-0.219913
G03 X326.000000 Y390.500000 Z-1.000000 I-5.079654 J-8.365559
G01 X323.500000 Y391.200000 Z-1.000000
G01 X326.000000 Y389.300000 Z-1.000000
G01 X326.000000 Y389.300000 Z-1.000000
G00 Z5.000000

(End cutting path id: path220)


(Start cutting path id: path218)
(Change tool to Cylindrical cutter)

G00 Z5.000000
G00 X269.700000 Y392.500000

G01 Z-1.000000 F100.0(Penetrate)
G03 X268.342228 Y391.010323 Z-1.000000 I3.643486 J-4.684482 F400.000000
G03 X265.400000 Y385.500000 Z-1.000000 I33.768203 J-21.571136
G02 X262.277654 Y379.996133 Z-1.000000 I-36.910911 J17.301990
G02 X258.900000 Y375.900000 Z-1.000000 I-22.993283 J15.519497
G03 X255.678692 Y372.247757 Z-1.000000 I27.516578 J-27.516578
G03 X255.800000 Y372.000000 Z-1.000000 I0.121308 J-0.094181
G03 X259.757043 Y373.767275 Z-1.000000 I-0.000000 J5.313677
G03 X266.500000 Y383.800000 Z-1.000000 I-32.491632 J29.119823
G02 X268.737594 Y387.262251 Z-1.000000 I14.428530 J-6.870729
G02 X271.700000 Y390.200000 Z-1.000000 I18.423805 J-15.615931
G03 X273.547905 Y392.426149 Z-1.000000 I-4.247359 J5.405730
G03 X273.200000 Y393.200000 Z-1.000000 I-0.478912 J0.249823
G03 X271.447596 Y393.290364 Z-1.000000 I-1.060882 J-3.536274
G03 X269.700000 Y392.500000 Z-1.000000 I0.767236 J-4.023720
G01 X269.700000 Y392.500000 Z-1.000000
G00 Z5.000000

(End cutting path id: path218)


(Start cutting path id: path218)
(Change tool to Cylindrical cutter)

G00 Z5.000000
G00 X270.800000 Y391.000000

G01 Z-1.000000 F100.0(Penetrate)
G02 X269.544715 Y389.538797 Z-1.000000 I-7.982288 J5.587602 F400.000000
G02 X269.100000 Y389.500000 Z-1.000000 I-0.246592 J0.258388
G02 X268.916202 Y391.603243 Z-1.000000 I1.161121 J1.161121
G02 X271.600000 Y393.000000 Z-1.000000 I2.683798 J-1.880014
G02 X271.705446 Y392.850303 Z-1.000000 I0.000000 J-0.111986
G02 X270.800000 Y391.000000 Z-1.000000 I-8.705351 J3.113273
G01 X270.800000 Y391.000000 Z-1.000000
G00 Z5.000000

(End cutting path id: path218)


(Start cutting path id: path216)
(Change tool to Cylindrical cutter)

G00 Z5.000000
G00 X324.000000 Y393.400000

G01 Z-1.000000 F100.0(Penetrate)
G02 X317.432086 Y391.557677 Z-1.000000 I-10.553707 J24.995622 F400.000000
G02 X315.500000 Y392.100000 Z-1.000000 I-0.360605 J2.428100
G03 X314.853766 Y391.957410 Z-1.000000 I-0.258879 J-0.362430
G03 X314.200000 Y389.700000 Z-1.000000 I4.401704 J-2.498147
G03 X314.397551 Y386.018856 Z-1.000000 I16.409321 J-0.965254
G03 X314.900000 Y385.212500 Z-1.000000 I1.228574 J0.205818
G03 X315.629364 Y385.241460 Z-1.000000 I0.346101 J0.482444
G03 X317.400000 Y387.400000 Z-1.000000 I-4.974782 J5.886272
G02 X320.444462 Y390.468146 Z-1.000000 I6.633774 J-3.538013
G02 X328.500000 Y393.400000 Z-1.000000 I13.816363 J-25.429133
G03 X328.711111 Y393.745606 Z-1.000000 I-0.125601 J0.314004
G03 X328.400000 Y394.200000 Z-1.000000 I-0.564813 J-0.053011
G03 X327.417150 Y394.441377 Z-1.000000 I-0.751882 J-0.939852
G03 X324.000000 Y393.400000 Z-1.000000 I3.342915 J-17.096532
G01 X324.000000 Y393.400000 Z-1.000000
G00 Z5.000000

(End cutting path id: path216)


(Start cutting path id: path216)
(Change tool to Cylindrical cutter)

G00 Z5.000000
G00 X317.200000 Y390.100000

G01 Z-1.000000 F100.0(Penetrate)
G02 X317.623173 Y390.326475 Z-1.000000 I0.423173 J-0.282116 F400.000000
G02 X317.800000 Y390.100000 Z-1.000000 I0.000000 J-0.182269
G02 X316.205560 Y388.693407 Z-1.000000 I-1.866804 J0.509128
G02 X315.100000 Y389.700000 Z-1.000000 I-0.136550 J0.960449
G02 X315.360317 Y390.200982 Z-1.000000 I0.612230 J0.000000
G02 X315.700000 Y390.100000 Z-1.000000 I0.129883 J-0.184902
G03 X316.362399 Y389.673473 Z-1.000000 I0.662399 J0.301090
G03 X317.200000 Y390.100000 Z-1.000000 I0.000000 J1.035692
G01 X317.200000 Y390.100000 Z-1.000000
G00 Z5.000000

(End cutting path id: path216)


(Start cutting path id: path214)
(Change tool to Cylindrical cutter)

G00 Z5.000000
G00 X349.500000 Y396.000000

G01 Z-1.000000 F100.0(Penetrate)
G02 X347.711389 Y394.411587 Z-1.000000 I-2.192104 J0.667162 F400.000000
G02 X345.200000 Y395.200000 Z-1.000000 I-0.500720 J2.799082
G03 X344.268668 Y395.789345 Z-1.000000 I-1.775955 J-1.775955
G03 X344.000000 Y395.600000 Z-1.000000 I-0.067613 J-0.189345
G03 X344.197288 Y394.973265 Z-1.000000 I1.094132 J-0.000000
G03 X345.600000 Y393.300000 Z-1.000000 I10.213189 J7.137212
G03 X347.148766 Y392.818494 Z-1.000000 I1.232372 J1.232372
G03 X349.600000 Y394.000000 Z-1.000000 I-0.937546 J5.078603
G03 X351.681380 Y397.161068 Z-1.000000 I-5.912378 J6.158727
G03 X351.100000 Y398.000000 Z-1.000000 I-0.581380 J0.218018
G03 X350.393414 Y397.676817 Z-1.000000 I0.000000 J-0.934009
G03 X349.500000 Y396.000000 Z-1.000000 I3.245434 J-2.805594
G01 X349.500000 Y396.000000 Z-1.000000
G00 Z5.000000

(End cutting path id: path214)


(Start cutting path id: path212)
(Change tool to Cylindrical cutter)

G00 Z5.000000
G00 X310.900000 Y396.000000

G01 Z-1.000000 F100.0(Penetrate)
G03 X313.293666 Y394.235458 Z-1.000000 I14.342001 J16.949638 F400.000000
G03 X314.100000 Y394.000000 Z-1.000000 I0.806334 J1.262927
G03 X314.366264 Y394.616145 Z-1.000000 I0.000000 J0.365605
G03 X311.800000 Y396.500000 Z-1.000000 I-6.384780 J-6.007745
G01 X308.500000 Y398.100000 Z-1.000000
G01 X310.900000 Y396.000000 Z-1.000000
G01 X310.900000 Y396.000000 Z-1.000000
G00 Z5.000000

(End cutting path id: path212)


(Start cutting path id: path210)
(Change tool to Cylindrical cutter)

G00 Z5.000000
G00 X342.600000 Y398.500000

G01 Z-1.000000 F100.0(Penetrate)
G03 X343.400315 Y397.347723 Z-1.000000 I4.389954 J2.194977 F400.000000
G03 X344.200000 Y397.000000 Z-1.000000 I0.799685 J0.745688
G03 X344.601478 Y397.312740 Z-1.000000 I0.000000 J0.414068
G03 X344.500000 Y398.000000 Z-1.000000 I-0.877707 J0.221523
G02 X344.456428 Y398.685288 Z-1.000000 I0.788301 J0.394150
G02 X344.900000 Y399.000000 Z-1.000000 I0.443572 J-0.155240
G02 X345.711890 Y398.712994 Z-1.000000 I-0.000000 J-1.291853
G02 X346.900000 Y397.300000 Z-1.000000 I-3.039190 J-3.761494
G03 X347.733171 Y396.452014 Z-1.000000 I2.178399 J1.307039
G03 X348.000000 Y396.600000 Z-1.000000 I0.092377 J0.147986
G03 X346.912939 Y398.890717 Z-1.000000 I-2.957097 J0.000000
G03 X343.800000 Y400.000000 Z-1.000000 I-3.112939 J-3.813223
G03 X342.797554 Y399.518200 Z-1.000000 I-0.000000 J-1.283757
G03 X342.600000 Y398.500000 Z-1.000000 I0.871758 J-0.697406
G01 X342.600000 Y398.500000 Z-1.000000
G00 Z5.000000

(End cutting path id: path210)


(Start cutting path id: path208)
(Change tool to Cylindrical cutter)

G00 Z5.000000
G00 X303.500000 Y408.100000

G01 Z-1.000000 F100.0(Penetrate)
G02 X306.393569 Y407.117220 Z-1.000000 I-1.745194 J-9.889433 F400.000000
G02 X312.100000 Y403.800000 Z-1.000000 I-32.866434 J-63.105160
G03 X317.862691 Y400.554606 Z-1.000000 I22.503591 J33.219587
G03 X320.400000 Y400.000000 Z-1.000000 I2.537309 J5.526760
G03 X327.437011 Y401.609797 Z-1.000000 I-0.000000 J16.185572
G03 X329.000000 Y404.100000 Z-1.000000 I-1.202240 J2.490203
G03 X328.691425 Y404.614712 Z-1.000000 I-0.583565 J0.000000
G03 X328.100000 Y404.600000 Z-1.000000 I-0.282731 J-0.529202
G02 X327.298015 Y404.548784 Z-1.000000 I-0.450587 J0.750978
G02 X326.000000 Y405.500000 Z-1.000000 I1.482372 J3.384055
G03 X324.672707 Y406.432592 Z-1.000000 I-2.492225 J-2.136193
G03 X319.700000 Y407.900000 Z-1.000000 I-12.140243 J-31.981094
G03 X303.663235 Y409.514471 Z-1.000000 I-17.263482 J-91.025633
G03 X303.500000 Y408.100000 Z-1.000000 I-0.009475 J-0.715561
G01 X303.500000 Y408.100000 Z-1.000000
G00 Z5.000000

(End cutting path id: path208)


(Start cutting path id: path206)
(Change tool to Cylindrical cutter)

G00 Z5.000000
G00 X318.000000 Y410.100000

G01 Z-1.000000 F100.0(Penetrate)
G03 X325.688100 Y408.594613 Z-1.000000 I22.912488 J96.630926 F400.000000
G03 X325.800000 Y408.900000 Z-1.000000 I0.025423 J0.163879
G03 X324.060556 Y409.662040 Z-1.000000 I-3.023535 J-4.535303
G03 X319.300000 Y410.500000 Z-1.000000 I-8.961276 J-36.968518
G03 X316.271324 Y410.748888 Z-1.000000 I-9.668377 J-99.100867
G03 X315.987500 Y410.712500 Z-1.000000 I-0.049427 J-0.739578
G01 X315.988843 Y410.632312 Z-1.000000
G03 X318.000000 Y410.100000 Z-1.000000 I10.020793 J33.794699
G01 X318.000000 Y410.100000 Z-1.000000
G00 Z5.000000

(End cutting path id: path206)


(Start cutting path id: path204)
(Change tool to Cylindrical cutter)

G00 Z5.000000
G00 X308.800000 Y410.300000

G01 Z-1.000000 F100.0(Penetrate)
G03 X309.958120 Y410.112063 Z-1.000000 I1.158120 J3.474359 F400.000000
G03 X311.300000 Y410.300000 Z-1.000000 I-0.000000 J4.884518
G03 X311.287968 Y410.558543 Z-1.000000 I-0.063303 J0.126605
G03 X310.000000 Y410.800000 Z-1.000000 I-1.287968 J-3.314375
G03 X308.801793 Y410.562575 Z-1.000000 I0.000000 J-3.142194
G03 X308.800000 Y410.300000 Z-1.000000 I0.054311 J-0.131665
G01 X308.800000 Y410.300000 Z-1.000000
G00 Z5.000000

(End cutting path id: path204)


(Start cutting path id: path202)
(Change tool to Cylindrical cutter)

G00 Z5.000000
G00 X289.200000 Y409.700000

G01 Z-1.000000 F100.0(Penetrate)
G02 X289.983160 Y407.113399 Z-1.000000 I-1.436368 J-1.846758 F400.000000
G02 X288.100000 Y406.400000 Z-1.000000 I-1.232323 J0.410774
G02 X287.420823 Y407.261824 Z-1.000000 I0.981177 J1.471766
G02 X287.500000 Y408.100000 Z-1.000000 I0.915569 J0.336340
G03 X287.550612 Y408.737650 Z-1.000000 I-0.445214 J0.356172
G03 X287.100000 Y409.000000 Z-1.000000 I-0.450612 J-0.255810
G03 X286.519863 Y408.186452 Z-1.000000 I0.000000 J-0.613621
G03 X288.700000 Y404.500000 Z-1.000000 I10.081738 J3.474373
G03 X290.390668 Y403.063474 Z-1.000000 I5.674295 J4.965008
G03 X290.700000 Y403.300000 Z-1.000000 I0.109970 J0.176717
G02 X290.561798 Y404.646692 Z-1.000000 I1.990623 J0.884721
G02 X291.000000 Y405.000000 Z-1.000000 I0.438202 J-0.095093
G03 X292.566087 Y406.657033 Z-1.000000 I0.000000 J1.568583
G03 X290.500000 Y410.200000 Z-1.000000 I-4.507361 J-0.254571
G03 X289.285427 Y410.357747 Z-1.000000 I-0.752931 J-1.042520
G03 X289.200000 Y409.700000 Z-1.000000 I0.135386 J-0.352005
G01 X289.200000 Y409.700000 Z-1.000000
G00 Z5.000000

(End cutting path id: path202)


(Start cutting path id: path200)
(Change tool to Cylindrical cutter)

G00 Z5.000000
G00 X265.400000 Y408.700000

G01 Z-1.000000 F100.0(Penetrate)
G03 X267.814930 Y402.286340 Z-1.000000 I25.924708 J6.099931 F400.000000
G03 X270.200000 Y399.600000 Z-1.000000 I6.755068 J3.595532
G03 X277.030201 Y397.416036 Z-1.000000 I6.815015 J9.541021
G03 X283.400000 Y399.500000 Z-1.000000 I-0.014014 J10.819707
G03 X283.658664 Y400.551863 Z-1.000000 I-0.525283 J0.686908
G03 X282.400000 Y401.600000 Z-1.000000 I-1.740468 J-0.810248
G02 X275.787588 Y403.998640 Z-1.000000 I6.541707 J28.347399
G02 X268.100000 Y408.800000 Z-1.000000 I23.025720 J45.422188
G01 X264.700000 Y411.300000 Z-1.000000
G01 X265.400000 Y408.700000 Z-1.000000
G01 X265.400000 Y408.700000 Z-1.000000
G00 Z5.000000

(End cutting path id: path200)


(Start cutting path id: path198)
(Change tool to Cylindrical cutter)

G00 Z5.000000
G00 X292.000000 Y412.000000

G01 Z-1.000000 F100.0(Penetrate)
G03 X291.481102 Y411.290927 Z-1.000000 I0.708668 J-1.063002 F400.000000
G03 X291.700000 Y411.000000 Z-1.000000 I0.218898 J-0.063112
G03 X292.746468 Y411.271167 Z-1.000000 I-0.000000 J2.154809
G03 X293.500000 Y412.000000 Z-1.000000 I-0.984127 J1.771428
G03 X293.298864 Y412.375827 Z-1.000000 I-0.201136 J0.134091
G03 X292.000000 Y412.000000 Z-1.000000 I0.000000 J-2.432361
G01 X292.000000 Y412.000000 Z-1.000000
G00 Z5.000000

(End cutting path id: path198)


(Start cutting path id: path196)
(Change tool to Cylindrical cutter)

G00 Z5.000000
G00 X296.200000 Y425.900000

G01 Z-1.000000 F100.0(Penetrate)
G03 X291.733402 Y423.887432 Z-1.000000 I18.499886 J-47.020544 F400.000000
G03 X291.400000 Y423.512500 Z-1.000000 I0.313596 J-0.614561
G03 X291.556029 Y423.320328 Z-1.000000 I0.134846 J-0.049943
G03 X295.600000 Y424.200000 Z-1.000000 I-4.597651 J30.871184
G02 X309.184208 Y426.153053 Z-1.000000 I13.236300 J-43.845244
G02 X321.300000 Y424.100000 Z-1.000000 I-0.292484 J-38.502365
G03 X325.336518 Y423.118679 Z-1.000000 I7.274983 J21.132093
G03 X325.512500 Y423.350000 Z-1.000000 I0.024061 J0.164297
G03 X325.059993 Y423.839327 Z-1.000000 I-0.938612 J-0.414094
G03 X320.500000 Y425.900000 Z-1.000000 I-17.144563 J-31.862949
G03 X308.271476 Y428.088976 Z-1.000000 I-12.228524 J-33.062306
G03 X296.200000 Y425.900000 Z-1.000000 I0.000000 J-34.379578
G01 X296.200000 Y425.900000 Z-1.000000
G00 Z5.000000

(End cutting path id: path196)


(Start cutting path id: path194)
(Change tool to Cylindrical cutter)

G00 Z5.000000
G00 X282.400000 Y426.500000

G01 Z-1.000000 F100.0(Penetrate)
G02 X284.203645 Y424.966506 Z-1.000000 I-9.190842 J-12.637408 F400.000000
G02 X285.000000 Y424.000000 Z-1.000000 I-4.361985 J-4.405399
G03 X285.580648 Y423.847015 Z-1.000000 I0.368775 J0.221265
G03 X286.900000 Y425.100000 Z-1.000000 I-1.851792 J3.270986
G03 X287.221075 Y426.496374 Z-1.000000 I-2.257537 J1.254187
G03 X286.800000 Y426.800000 Z-1.000000 I-0.333257 J-0.018376
G02 X285.513695 Y426.607877 Z-1.000000 I-1.009222 J2.354850
G02 X283.000000 Y427.100000 Z-1.000000 I1.632104 J15.002418
G03 X281.257982 Y427.700524 Z-1.000000 I-12.072269 J-32.192717
G03 X281.125000 Y427.662500 Z-1.000000 I-0.037704 J-0.119690
G03 X281.133467 Y427.544830 Z-1.000000 I0.063653 J-0.054559
G03 X282.400000 Y426.500000 Z-1.000000 I18.812557 J21.514344
G01 X282.400000 Y426.500000 Z-1.000000
G00 Z5.000000

(End cutting path id: path194)


(Start cutting path id: path192)
(Change tool to Cylindrical cutter)

G00 Z5.000000
G00 X294.600000 Y430.800000

G01 Z-1.000000 F100.0(Penetrate)
G03 X293.331046 Y429.526236 Z-1.000000 I21.387546 J-22.575743 F400.000000
G03 X293.362500 Y429.362500 Z-1.000000 I0.074970 J-0.070488
G03 X293.640564 Y429.341440 Z-1.000000 I0.166920 J0.357685
G03 X296.100000 Y430.100000 Z-1.000000 I-26.392737 J89.938002
G03 X299.169989 Y431.202776 Z-1.000000 I-58.272628 J167.048201
G03 X299.637500 Y431.487500 Z-1.000000 I-0.494886 J1.338777
G03 X299.595889 Y431.740993 Z-1.000000 I-0.103353 J0.113196
G03 X298.300000 Y432.200000 Z-1.000000 I-3.736911 J-8.491408
G03 X296.598402 Y432.121784 Z-1.000000 I-0.739317 J-2.464391
G03 X294.600000 Y430.800000 Z-1.000000 I2.243813 J-5.563998
G01 X294.600000 Y430.800000 Z-1.000000
G00 Z5.000000

(End cutting path id: path192)


(Start cutting path id: path190)
(Change tool to Cylindrical cutter)

G00 Z5.000000
G00 X276.100000 Y432.100000

G01 Z-1.000000 F100.0(Penetrate)
G03 X278.389047 Y428.322302 Z-1.000000 I10.284248 J3.649249 F400.000000
G03 X279.600000 Y428.300000 Z-1.000000 I0.616224 J0.572426
G03 X279.704563 Y428.717717 Z-1.000000 I-0.177602 J0.266403
G03 X278.600000 Y430.300000 Z-1.000000 I-7.271420 J-3.899368
G02 X277.495413 Y431.775112 Z-1.000000 I4.582780 J4.582780
G02 X277.600000 Y432.200000 Z-1.000000 I0.284287 J0.155339
G03 X277.621566 Y432.678842 Z-1.000000 I-0.385932 J0.257288
G03 X276.500000 Y434.000000 Z-1.000000 I-3.723841 J-2.024624
G03 X275.989838 Y433.821077 Z-1.000000 I-0.202517 J-0.239338
G03 X276.100000 Y432.100000 Z-1.000000 I3.318411 J-0.651660
G01 X276.100000 Y432.100000 Z-1.000000
G00 Z5.000000

(End cutting path id: path190)


(Start cutting path id: path188)
(Change tool to Cylindrical cutter)

G00 Z5.000000
G00 X338.500000 Y432.000000

G01 Z-1.000000 F100.0(Penetrate)
G02 X333.610277 Y427.033968 Z-1.000000 I-13.598020 J8.498762 F400.000000
G02 X330.300000 Y426.700000 Z-1.000000 I-1.981011 J3.063045
G03 X329.691634 Y426.489389 Z-1.000000 I-0.188429 J-0.439668
G03 X329.500000 Y425.300000 Z-1.000000 I1.587497 J-0.865910
G02 X329.839613 Y423.437675 Z-1.000000 I-54.540776 J-10.908155
G02 X329.900000 Y422.700000 Z-1.000000 I-4.475418 J-0.737675
G03 X330.295912 Y422.341632 Z-1.000000 I0.439760 J0.087952
G03 X331.000000 Y422.500000 Z-1.000000 I0.112435 J1.144456
G03 X331.598158 Y423.274868 Z-1.000000 I-0.849262 J1.273892
G03 X331.500000 Y423.900000 Z-1.000000 I-0.638263 J0.220053
G02 X331.696471 Y424.558333 Z-1.000000 I0.513265 J0.205306
G02 X335.100000 Y426.500000 Z-1.000000 I12.246623 J-17.513139
G03 X338.593586 Y428.885530 Z-1.000000 I-5.441208 J11.719526
G03 X341.000000 Y432.200000 Z-1.000000 I-7.942348 J8.297207
G03 X342.123739 Y435.577671 Z-1.000000 I-12.734033 J6.112336
G03 X341.850000 Y435.887500 Z-1.000000 I-0.255206 J0.050362
G03 X341.195812 Y435.568096 Z-1.000000 I0.069415 J-0.971813
G03 X338.500000 Y432.000000 Z-1.000000 I19.184291 J-17.296788
G01 X338.500000 Y432.000000 Z-1.000000
G00 Z5.000000

(End cutting path id: path188)


(Start cutting path id: path186)
(Change tool to Cylindrical cutter)

G00 Z5.000000
G00 X306.900000 Y435.300000

G01 Z-1.000000 F100.0(Penetrate)
G02 X305.295225 Y433.560596 Z-1.000000 I-8.242473 J5.994526 F400.000000
G02 X304.000000 Y432.700000 Z-1.000000 I-4.133743 J4.816441
G03 X303.831327 Y432.372430 Z-1.000000 I0.083382 J-0.250147
G03 X304.200000 Y432.100000 Z-1.000000 I0.368673 J0.113243
G03 X305.751781 Y432.339183 Z-1.000000 I0.332741 J2.994673
G03 X306.500000 Y433.000000 Z-1.000000 I-0.668371 J1.510771
G02 X307.325854 Y433.520731 Z-1.000000 I0.995610 J-0.663740
G02 X308.300000 Y433.300000 Z-1.000000 I0.198402 J-1.384348
G03 X309.615781 Y432.663535 Z-1.000000 I5.288872 J9.255527
G03 X310.500000 Y432.400000 Z-1.000000 I1.866198 J4.646361
G02 X318.461116 Y430.665028 Z-1.000000 I-46.507971 J-232.539853
G02 X322.300000 Y429.400000 Z-1.000000 I-5.368858 J-22.749760
G03 X323.233141 Y429.557677 Z-1.000000 I0.333413 J0.866873
G03 X323.400000 Y430.300000 Z-1.000000 I-0.407115 J0.481426
G03 X322.527817 Y431.305635 Z-1.000000 I-1.650000 J-0.550000
G03 X321.200000 Y431.400000 Z-1.000000 I-0.777817 J-1.555635
G02 X321.009229 Y431.562232 Z-1.000000 I-0.046285 J0.138855
G02 X321.300000 Y432.000000 Z-1.000000 I0.627869 J-0.101588
G03 X322.674085 Y433.264877 Z-1.000000 I-3.333167 J4.999750
G03 X323.000000 Y434.200000 Z-1.000000 I-1.178584 J0.935123
G03 X322.585838 Y434.520573 Z-1.000000 I-0.331147 J0.000000
G03 X320.400000 Y433.500000 Z-1.000000 I1.657739 J-6.401581
G02 X314.876636 Y432.338673 Z-1.000000 I-4.306734 J6.767725
G02 X310.100000 Y435.100000 Z-1.000000 I1.151369 J7.503731
G03 X308.348858 Y435.997781 Z-1.000000 I-1.904650 J-1.558350
G03 X306.900000 Y435.300000 Z-1.000000 I-0.102514 J-1.640222
G01 X306.900000 Y435.300000 Z-1.000000
G00 Z5.000000

(End cutting path id: path186)


(Start cutting path id: path184)
(Change tool to Cylindrical cutter)

G00 Z5.000000
G00 X306.600000 Y445.300000

G01 Z-1.000000 F100.0(Penetrate)
G03 X306.486388 Y443.767064 Z-1.000000 I2.081056 J-0.924914 F400.000000
G03 X307.400000 Y442.200000 Z-1.000000 I3.431302 J0.950625
G03 X308.532624 Y441.932624 Z-1.000000 I0.782624 J0.782624
G03 X309.500000 Y442.900000 Z-1.000000 I-0.483688 J1.451064
G03 X308.644665 Y445.830102 Z-1.000000 I-2.622725 J0.824285
G03 X306.600000 Y445.300000 Z-1.000000 I-0.833559 J-0.993172
G01 X306.600000 Y445.300000 Z-1.000000
G00 Z5.000000

(End cutting path id: path184)


(Start cutting path id: path182)
(Change tool to Cylindrical cutter)

G00 Z5.000000
G00 X303.500000 Y450.600000

G01 Z-1.000000 F100.0(Penetrate)
G02 X303.518558 Y448.855372 Z-1.000000 I-3.328674 J-0.907820 F400.000000
G02 X302.800000 Y447.800000 Z-1.000000 I-1.792481 J0.448120
G03 X302.510794 Y447.289206 Z-1.000000 I0.306476 J-0.510794
G03 X302.800000 Y447.000000 Z-1.000000 I0.289206 J0.000000
G02 X303.580776 Y446.000000 Z-1.000000 I0.000000 J-0.804806
G02 X302.300000 Y445.000000 Z-1.000000 I-1.280776 J0.320194
G03 X301.908397 Y444.584685 Z-1.000000 I0.024430 J-0.415315
G03 X302.300000 Y443.900000 Z-1.000000 I0.794359 J0.000000
G02 X303.246509 Y442.668473 Z-1.000000 I-0.998019 J-1.746534
G02 X303.000000 Y441.500000 Z-1.000000 I-1.282511 J-0.339671
G03 X303.053397 Y440.899446 Z-1.000000 I0.333649 J-0.272985
G03 X303.900000 Y440.700000 Z-1.000000 I0.616574 J0.720673
G02 X305.475547 Y440.626410 Z-1.000000 I0.656597 J-2.845255
G02 X306.000000 Y439.900000 Z-1.000000 I-0.240842 J-0.726410
G03 X306.267454 Y439.207954 Z-1.000000 I1.029075 J0.000000
G03 X306.600000 Y439.200000 Z-1.000000 I0.170064 J0.154529
G03 X306.772543 Y439.935390 Z-1.000000 I-0.752730 J0.564548
G03 X306.000000 Y441.900000 Z-1.000000 I-5.437450 J-1.003967
G02 X305.496986 Y444.009963 Z-1.000000 I4.884361 J2.279369
G02 X306.000000 Y445.900000 Z-1.000000 I3.400562 J0.106931
G03 X306.174568 Y447.700935 Z-1.000000 I-2.458326 J1.147219
G03 X304.900000 Y450.200000 Z-1.000000 I-6.015970 J-1.493695
G03 X303.780916 Y450.903499 Z-1.000000 I-1.784236 J-1.596422
G03 X303.500000 Y450.600000 Z-1.000000 I-0.064279 J-0.222260
G01 X303.500000 Y450.600000 Z-1.000000
G00 Z5.000000

(End cutting path id: path182)


(Start cutting path id: path180)
(Change tool to Cylindrical cutter)

G00 Z5.000000
G00 X307.000000 Y453.100000

G01 Z-1.000000 F100.0(Penetrate)
G03 X307.354174 Y450.340977 Z-1.000000 I10.923513 J0.000000 F400.000000
G03 X307.900000 Y449.500000 Z-1.000000 I1.540264 J0.402071
G03 X309.096987 Y450.003755 Z-1.000000 I0.397670 J0.729061
G03 X309.200000 Y454.300000 Z-1.000000 I-8.334219 J2.349192
G03 X308.357236 Y455.863119 Z-1.000000 I-3.488608 J-0.872152
G03 X307.837500 Y455.950000 Z-1.000000 I-0.315704 J-0.290578
G03 X307.373752 Y455.398126 Z-1.000000 I0.466268 J-0.862596
G03 X307.000000 Y453.100000 Z-1.000000 I6.878475 J-2.298126
G01 X307.000000 Y453.100000 Z-1.000000
G00 Z5.000000

(End cutting path id: path180)


(Start cutting path id: path178)
(Change tool to Cylindrical cutter)

G00 Z5.000000
G00 X0.000000 Y240.000000

G01 Z-1.000000 F100.0(Penetrate)
G01 X0.000000 Y0.000000 Z-1.000000 F400.000000
G01 X319.500000 Y0.000000 Z-1.000000
G01 X639.000000 Y0.000000 Z-1.000000
G01 X639.000000 Y240.000000 Z-1.000000
G01 X639.000000 Y480.000000 Z-1.000000
G01 X319.500000 Y480.000000 Z-1.000000
G01 X0.000000 Y480.000000 Z-1.000000
G01 X0.000000 Y240.000000 Z-1.000000
G01 X0.000000 Y240.000000 Z-1.000000
G00 Z5.000000

(End cutting path id: path178)


(Start cutting path id: path178)
(Change tool to Cylindrical cutter)

G00 Z5.000000
G00 X312.800000 Y453.800000

G01 Z-1.000000 F100.0(Penetrate)
G02 X314.149333 Y452.774649 Z-1.000000 I-1.322457 J-3.140836 F400.000000
G02 X314.000000 Y452.300000 Z-1.000000 I-0.235733 J-0.186650
G03 X311.060457 Y449.906719 Z-1.000000 I0.966764 J-4.189311
G03 X310.900000 Y445.700000 Z-1.000000 I4.995849 J-2.296976
G02 X311.190878 Y443.312659 Z-1.000000 I-4.536249 J-1.764097
G02 X310.400000 Y441.200000 Z-1.000000 I-4.910971 J0.634069
G03 X309.623833 Y439.295839 Z-1.000000 I3.899903 J-2.699933
G03 X310.000000 Y438.500000 Z-1.000000 I0.757289 J-0.128875
G03 X310.599334 Y438.523336 Z-1.000000 I0.281832 J0.469720
G03 X311.000000 Y439.300000 Z-1.000000 I-0.552422 J0.776664
G02 X311.570059 Y440.214884 Z-1.000000 I1.019175 J0.000000
G02 X313.500000 Y440.600000 Z-1.000000 I1.690626 J-3.443933
G02 X315.491782 Y440.247060 Z-1.000000 I-0.248182 J-7.197271
G02 X315.887500 Y439.850000 Z-1.000000 I-0.192197 J-0.587268
G02 X315.771337 Y439.332921 Z-1.000000 I-0.495434 J-0.160287
G02 X314.300000 Y438.200000 Z-1.000000 I-4.251319 J3.999353
G03 X313.295107 Y437.011723 Z-1.000000 I1.241230 J-2.068716
G03 X313.300000 Y435.600000 Z-1.000000 I1.784990 J-0.699684
G03 X316.342356 Y433.932160 Z-1.000000 I2.534001 J1.013600
G03 X320.900000 Y436.900000 Z-1.000000 I-1.332811 J7.030222
