%
(Header)
(Generated by gcodetools from Inkscape.)
(Using default header. To add your own header create file "header" in the output dir.)
M3
(Header end.)
G21 (All units in mm)

(Start cutting path id: path54)
(Change tool to Cylindrical cutter)

G00 Z5.000000
G00 X100.548360 Y138.316450

G01 Z-1.000000 F100.0(Penetrate)
G01 X100.548360 Y137.959540 Z-1.000000 F400.000000
G03 X99.901683 Y137.723464 Z-1.000000 I0.292836 J-1.805909
G03 X99.275050 Y137.197490 Z-1.000000 I1.326865 J-2.217060
G03 X98.925813 Y136.680105 Z-1.000000 I2.282395 J-1.917185
G03 X98.069267 Y134.930610 Z-1.000000 I25.626525 J-13.631082
G01 X93.564460 Y124.937080 Z-1.000000
G01 X93.246133 Y124.937080 Z-1.000000
G01 X88.760619 Y135.335760 Z-1.000000
G03 X87.905081 Y137.188631 Z-1.000000 I-36.295261 J-15.634890
G03 X87.670591 Y137.544750 Z-1.000000 I-1.546950 J-0.763344
G03 X87.349886 Y137.779561 Z-1.000000 I-0.620388 J-0.510912
G03 X86.638441 Y137.959540 Z-1.000000 I-1.021559 J-2.542013
G01 X86.638441 Y138.316450 Z-1.000000
G01 X92.908514 Y138.316450 Z-1.000000
G01 X92.908514 Y137.959540 Z-1.000000
G01 X92.696296 Y137.959540 Z-1.000000
G03 X91.870735 Y137.884488 Z-1.000000 I0.000000 J-4.578064
G03 X91.538744 Y137.747320 Z-1.000000 I0.155017 J-0.845538
G03 X91.377517 Y137.569782 Z-1.000000 I0.259060 J-0.397236
G03 X91.316880 Y137.322890 Z-1.000000 I0.472310 J-0.246892
G03 X91.332668 Y137.151715 Z-1.000000 I0.935859 J0.000000
G03 X91.394050 Y136.908100 Z-1.000000 I1.965159 J0.365610
G03 X91.479114 Y136.679596 Z-1.000000 I3.341365 J1.113788
G03 X91.914948 Y135.644440 Z-1.000000 I69.097363 J28.482882
G01 X94.702720 Y129.133210 Z-1.000000
G01 X97.287919 Y134.930610 Z-1.000000
G03 X97.734330 Y135.988159 Z-1.000000 I-34.144678 J15.036096
G03 X97.857049 Y136.338970 Z-1.000000 I-3.626046 J1.465316
G03 X97.941698 Y136.699003 Z-1.000000 I-3.054847 J0.908203
G03 X97.963158 Y136.946680 Z-1.000000 I-1.418504 J0.247677
G03 X97.922320 Y137.223262 Z-1.000000 I-0.957009 J-0.000000
G03 X97.808817 Y137.457930 Z-1.000000 I-0.796457 J-0.240442
G03 X97.627379 Y137.645325 Z-1.000000 I-0.665986 J-0.463282
G03 X97.355443 Y137.795550 Z-1.000000 I-0.687378 J-0.923047
G03 X96.931113 Y137.909461 Z-1.000000 I-0.708595 J-1.792292
G03 X96.255769 Y137.959540 Z-1.000000 I-0.675344 J-4.528679
G01 X96.255769 Y138.316450 Z-1.000000
G01 X100.548360 Y138.316450 Z-1.000000
G00 Z5.000000

(End cutting path id: path54)


(Start cutting path id: path54)
(Change tool to Cylindrical cutter)

G00 Z5.000000
G00 X100.548360 Y138.316450

G01 Z-2.000000 F100.0(Penetrate)
G01 X100.548360 Y137.959540 Z-2.000000 F400.000000
G03 X99.901683 Y137.723464 Z-2.000000 I0.292836 J-1.805909
G03 X99.275050 Y137.197490 Z-2.000000 I1.326865 J-2.217060
G03 X98.925813 Y136.680105 Z-2.000000 I2.282395 J-1.917185
G03 X98.069267 Y134.930610 Z-2.000000 I25.626525 J-13.631082
G01 X93.564460 Y124.937080 Z-2.000000
G01 X93.246133 Y124.937080 Z-2.000000
G01 X88.760619 Y135.335760 Z-2.000000
G03 X87.905081 Y137.188631 Z-2.000000 I-36.295261 J-15.634890
G03 X87.670591 Y137.544750 Z-2.000000 I-1.546950 J-0.763344
G03 X87.349886 Y137.779561 Z-2.000000 I-0.620388 J-0.510912
G03 X86.638441 Y137.959540 Z-2.000000 I-1.021559 J-2.542013
G01 X86.638441 Y138.316450 Z-2.000000
G01 X92.908514 Y138.316450 Z-2.000000
G01 X92.908514 Y137.959540 Z-2.000000
G01 X92.696296 Y137.959540 Z-2.000000
G03 X91.870735 Y137.884488 Z-2.000000 I0.000000 J-4.578064
G03 X91.538744 Y137.747320 Z-2.000000 I0.155017 J-0.845538
G03 X91.377517 Y137.569782 Z-2.000000 I0.259060 J-0.397236
G03 X91.316880 Y137.322890 Z-2.000000 I0.472310 J-0.246892
G03 X91.332668 Y137.151715 Z-2.000000 I0.935859 J0.000000
G03 X91.394050 Y136.908100 Z-2.000000 I1.965159 J0.365610
G03 X91.479114 Y136.679596 Z-2.000000 I3.341365 J1.113788
G03 X91.914948 Y135.644440 Z-2.000000 I69.097363 J28.482882
G01 X94.702720 Y129.133210 Z-2.000000
G01 X97.287919 Y134.930610 Z-2.000000
G03 X97.734330 Y135.988159 Z-2.000000 I-34.144678 J15.036096
G03 X97.857049 Y136.338970 Z-2.000000 I-3.626046 J1.465316
G03 X97.941698 Y136.699003 Z-2.000000 I-3.054847 J0.908203
G03 X97.963158 Y136.946680 Z-2.000000 I-1.418504 J0.247677
G03 X97.922320 Y137.223262 Z-2.000000 I-0.957009 J-0.000000
G03 X97.808817 Y137.457930 Z-2.000000 I-0.796457 J-0.240442
G03 X97.627379 Y137.645325 Z-2.000000 I-0.665986 J-0.463282
G03 X97.355443 Y137.795550 Z-2.000000 I-0.687378 J-0.923047
G03 X96.931113 Y137.909461 Z-2.000000 I-0.708595 J-1.792292
G03 X96.255769 Y137.959540 Z-2.000000 I-0.675344 J-4.528679
G01 X96.255769 Y138.316450 Z-2.000000
G01 X100.548360 Y138.316450 Z-2.000000
G00 Z5.000000

(End cutting path id: path54)


(Start cutting path id: path52)
(Change tool to Cylindrical cutter)

G00 Z5.000000
G00 X82.972857 Y128.959570

G01 Z-1.000000 F100.0(Penetrate)
G01 X78.352296 Y128.959570 Z-1.000000 F400.000000
G01 X77.802458 Y127.686270 Z-1.000000
G03 X77.583474 Y127.039217 Z-1.000000 I4.202381 J-1.782807
G03 X77.532363 Y126.634820 Z-1.000000 I1.574272 J-0.404397
G03 X77.655076 Y126.155253 Z-1.000000 I0.998439 J-0.000000
G03 X77.976091 Y125.824540 Z-1.000000 I0.759142 J0.415724
G03 X78.252685 Y125.721457 Z-1.000000 I0.424443 J0.716248
G03 X79.259045 Y125.593030 Z-1.000000 I1.746512 J9.678608
G01 X79.259045 Y125.236110 Z-1.000000
G01 X74.908578 Y125.236110 Z-1.000000
G01 X74.908578 Y125.593030 Z-1.000000
G03 X75.560773 Y125.799505 Z-1.000000 I-0.325882 J2.162650
G03 X76.066130 Y126.171800 Z-1.000000 I-0.823416 J1.646849
G03 X76.453560 Y126.697954 Z-1.000000 I-1.992278 J1.872717
G03 X77.185097 Y128.149290 Z-1.000000 I-14.723478 J8.331312
G01 X81.863537 Y138.586550 Z-1.000000
G01 X82.046816 Y138.586550 Z-1.000000
G01 X86.763840 Y127.859900 Z-1.000000
G03 X87.512231 Y126.388508 Z-1.000000 I14.118439 J6.255008
G03 X87.873161 Y125.940290 Z-1.000000 I1.624816 J0.938963
G03 X88.234906 Y125.718991 Z-1.000000 I0.755433 J0.828551
G03 X88.799202 Y125.593030 Z-1.000000 I0.731836 J1.951593
G01 X88.799202 Y125.236110 Z-1.000000
G01 X82.471251 Y125.236110 Z-1.000000
G01 X82.471251 Y125.593030 Z-1.000000
G01 X82.731701 Y125.593030 Z-1.000000
G03 X83.471215 Y125.665607 Z-1.000000 I-0.000000 J3.803898
G03 X83.802436 Y125.805240 Z-1.000000 I-0.173049 J0.873143
G03 X83.955810 Y125.989545 Z-1.000000 I-0.287326 J0.395074
G03 X84.014654 Y126.248970 Z-1.000000 I-0.542436 J0.259425
G03 X84.000837 Y126.420480 Z-1.000000 I-1.071413 J-0.000000
G03 X83.956774 Y126.605880 Z-1.000000 I-1.297221 J-0.210370
G03 X83.930639 Y126.690488 Z-1.000000 I-0.534761 J-0.118843
G03 X83.667386 Y127.329350 Z-1.000000 I-30.968800 J-12.387520
G01 X82.972857 Y128.959570 Z-1.000000
G00 Z5.000000

(End cutting path id: path52)


(Start cutting path id: path52)
(Change tool to Cylindrical cutter)

G00 Z5.000000
G00 X82.972857 Y128.959570

G01 Z-2.000000 F100.0(Penetrate)
G01 X78.352296 Y128.959570 Z-2.000000 F400.000000
G01 X77.802458 Y127.686270 Z-2.000000
G03 X77.583474 Y127.039217 Z-2.000000 I4.202381 J-1.782807
G03 X77.532363 Y126.634820 Z-2.000000 I1.574272 J-0.404397
G03 X77.655076 Y126.155253 Z-2.000000 I0.998439 J-0.000000
G03 X77.976091 Y125.824540 Z-2.000000 I0.759142 J0.415724
G03 X78.252685 Y125.721457 Z-2.000000 I0.424443 J0.716248
G03 X79.259045 Y125.593030 Z-2.000000 I1.746512 J9.678608
G01 X79.259045 Y125.236110 Z-2.000000
G01 X74.908578 Y125.236110 Z-2.000000
G01 X74.908578 Y125.593030 Z-2.000000
G03 X75.560773 Y125.799505 Z-2.000000 I-0.325882 J2.162650
G03 X76.066130 Y126.171800 Z-2.000000 I-0.823416 J1.646849
G03 X76.453560 Y126.697954 Z-2.000000 I-1.992278 J1.872717
G03 X77.185097 Y128.149290 Z-2.000000 I-14.723478 J8.331312
G01 X81.863537 Y138.586550 Z-2.000000
G01 X82.046816 Y138.586550 Z-2.000000
G01 X86.763840 Y127.859900 Z-2.000000
G03 X87.512231 Y126.388508 Z-2.000000 I14.118439 J6.255008
G03 X87.873161 Y125.940290 Z-2.000000 I1.624816 J0.938963
G03 X88.234906 Y125.718991 Z-2.000000 I0.755433 J0.828551
G03 X88.799202 Y125.593030 Z-2.000000 I0.731836 J1.951593
G01 X88.799202 Y125.236110 Z-2.000000
G01 X82.471251 Y125.236110 Z-2.000000
G01 X82.471251 Y125.593030 Z-2.000000
G01 X82.731701 Y125.593030 Z-2.000000
G03 X83.471215 Y125.665607 Z-2.000000 I-0.000000 J3.803898
G03 X83.802436 Y125.805240 Z-2.000000 I-0.173049 J0.873143
G03 X83.955810 Y125.989545 Z-2.000000 I-0.287326 J0.395074
G03 X84.014654 Y126.248970 Z-2.000000 I-0.542436 J0.259425
G03 X84.000837 Y126.420480 Z-2.000000 I-1.071413 J-0.000000
G03 X83.956774 Y126.605880 Z-2.000000 I-1.297221 J-0.210370
G03 X83.930639 Y126.690488 Z-2.000000 I-0.534761 J-0.118843
G03 X83.667386 Y127.329350 Z-2.000000 I-30.968800 J-12.387520
G01 X82.972857 Y128.959570 Z-2.000000
G00 Z5.000000

(End cutting path id: path52)


(Start cutting path id: path52)
(Change tool to Cylindrical cutter)

G00 Z5.000000
G00 X82.644884 Y129.673400

G01 Z-1.000000 F100.0(Penetrate)
G01 X80.696338 Y134.178200 Z-1.000000 F400.000000
G01 X78.689915 Y129.673400 Z-1.000000
G01 X82.644884 Y129.673400 Z-1.000000
G00 Z5.000000

(End cutting path id: path52)


(Start cutting path id: path52)
(Change tool to Cylindrical cutter)

G00 Z5.000000
G00 X82.644884 Y129.673400

G01 Z-2.000000 F100.0(Penetrate)
G01 X80.696338 Y134.178200 Z-2.000000 F400.000000
G01 X78.689915 Y129.673400 Z-2.000000
G01 X82.644884 Y129.673400 Z-2.000000
G00 Z5.000000

(End cutting path id: path52)


(Start cutting path id: path50)
(Change tool to Cylindrical cutter)

G00 Z5.000000
G00 X60.738213 Y125.236110

G01 Z-1.000000 F100.0(Penetrate)
G01 X60.738213 Y125.593030 Z-1.000000 F400.000000
G01 X61.172295 Y125.593030 Z-1.000000
G03 X61.726645 Y125.647921 Z-1.000000 I0.000000 J2.826684
G03 X62.040459 Y125.766660 Z-1.000000 I-0.201110 J1.005567
G03 X62.310212 Y125.985247 Z-1.000000 I-0.612590 J1.031727
G03 X62.493834 Y126.258620 Z-1.000000 I-0.793798 J0.731540
G03 X62.544788 Y126.468552 Z-1.000000 I-0.597971 J0.256286
G03 X62.580654 Y127.474050 Z-1.000000 I-14.076390 J1.005498
G01 X62.580654 Y136.078520 Z-1.000000
G03 X62.538646 Y137.073209 Z-1.000000 I-11.797374 J0.000000
G03 X62.474545 Y137.332530 Z-1.000000 I-0.846290 J-0.071609
G03 X62.329248 Y137.548219 Z-1.000000 I-0.625692 J-0.264708
G03 X62.040463 Y137.766610 Z-1.000000 I-0.931142 J-0.931147
G03 X61.705776 Y137.900978 Z-1.000000 I-0.575601 J-0.949716
G03 X61.172299 Y137.959540 Z-1.000000 I-0.533477 J-2.400587
G01 X60.738217 Y137.959540 Z-1.000000
G01 X60.738217 Y138.316450 Z-1.000000
G01 X66.593501 Y138.316450 Z-1.000000
G02 X68.896460 Y138.123449 Z-1.000000 I0.000000 J-13.836366
G02 X70.365191 Y137.679800 Z-1.000000 I-1.015032 J-6.013328
G02 X71.910631 Y136.677883 Z-1.000000 I-2.446061 J-5.465874
G02 X73.008269 Y135.316460 Z-1.000000 I-3.598564 J-4.024510
G02 X73.673995 Y133.670303 Z-1.000000 I-5.674826 J-3.252660
G02 X73.915018 Y131.737700 Z-1.000000 I-7.627605 J-1.932603
G02 X73.797605 Y130.379845 Z-1.000000 I-7.910323 J-0.000000
G02 X73.471289 Y129.191080 Z-1.000000 I-6.375291 J1.110846
G02 X72.936166 Y128.090323 Z-1.000000 I-6.618699 J2.537171
G02 X72.323384 Y127.271480 Z-1.000000 I-4.247895 J2.540206
G02 X71.564259 Y126.592704 Z-1.000000 I-4.186189 J3.917840
G02 X70.693165 Y126.056050 Z-1.000000 I-3.459437 J4.640037
G02 X69.751481 Y125.678262 Z-1.000000 I-2.890541 J5.842516
G02 X68.445584 Y125.351870 Z-1.000000 I-3.429975 J10.947694
G02 X67.853330 Y125.275443 Z-1.000000 I-0.875038 J4.447923
G02 X66.593501 Y125.236110 Z-1.000000 I-1.259829 J20.156422
G01 X60.738213 Y125.236110 Z-1.000000
G00 Z5.000000

(End cutting path id: path50)


(Start cutting path id: path50)
(Change tool to Cylindrical cutter)

G00 Z5.000000
G00 X60.738213 Y125.236110

G01 Z-2.000000 F100.0(Penetrate)
G01 X60.738213 Y125.593030 Z-2.000000 F400.000000
G01 X61.172295 Y125.593030 Z-2.000000
G03 X61.726645 Y125.647921 Z-2.000000 I0.000000 J2.826684
G03 X62.040459 Y125.766660 Z-2.000000 I-0.201110 J1.005567
G03 X62.310212 Y125.985247 Z-2.000000 I-0.612590 J1.031727
G03 X62.493834 Y126.258620 Z-2.000000 I-0.793798 J0.731540
G03 X62.544788 Y126.468552 Z-2.000000 I-0.597971 J0.256286
G03 X62.580654 Y127.474050 Z-2.000000 I-14.076390 J1.005498
G01 X62.580654 Y136.078520 Z-2.000000
G03 X62.538646 Y137.073209 Z-2.000000 I-11.797374 J0.000000
G03 X62.474545 Y137.332530 Z-2.000000 I-0.846290 J-0.071609
G03 X62.329248 Y137.548219 Z-2.000000 I-0.625692 J-0.264708
G03 X62.040463 Y137.766610 Z-2.000000 I-0.931142 J-0.931147
G03 X61.705776 Y137.900978 Z-2.000000 I-0.575601 J-0.949716
G03 X61.172299 Y137.959540 Z-2.000000 I-0.533477 J-2.400587
G01 X60.738217 Y137.959540 Z-2.000000
G01 X60.738217 Y138.316450 Z-2.000000
G01 X66.593501 Y138.316450 Z-2.000000
G02 X68.896460 Y138.123449 Z-2.000000 I0.000000 J-13.836366
G02 X70.365191 Y137.679800 Z-2.000000 I-1.015032 J-6.013328
G02 X71.910631 Y136.677883 Z-2.000000 I-2.446061 J-5.465874
G02 X73.008269 Y135.316460 Z-2.000000 I-3.598564 J-4.024510
G02 X73.673995 Y133.670303 Z-2.000000 I-5.674826 J-3.252660
G02 X73.915018 Y131.737700 Z-2.000000 I-7.627605 J-1.932603
G02 X73.797605 Y130.379845 Z-2.000000 I-7.910323 J-0.000000
G02 X73.471289 Y129.191080 Z-2.000000 I-6.375291 J1.110846
G02 X72.936166 Y128.090323 Z-2.000000 I-6.618699 J2.537171
G02 X72.323384 Y127.271480 Z-2.000000 I-4.247895 J2.540206
G02 X71.564259 Y126.592704 Z-2.000000 I-4.186189 J3.917840
G02 X70.693165 Y126.056050 Z-2.000000 I-3.459437 J4.640037
G02 X69.751481 Y125.678262 Z-2.000000 I-2.890541 J5.842516
G02 X68.445584 Y125.351870 Z-2.000000 I-3.429975 J10.947694
G02 X67.853330 Y125.275443 Z-2.000000 I-0.875038 J4.447923
G02 X66.593501 Y125.236110 Z-2.000000 I-1.259829 J20.156422
G01 X60.738213 Y125.236110 Z-2.000000
G00 Z5.000000

(End cutting path id: path50)


(Start cutting path id: path50)
(Change tool to Cylindrical cutter)

G00 Z5.000000
G00 X65.725333 Y137.573690

G01 Z-1.000000 F100.0(Penetrate)
G01 X65.725333 Y127.367940 Z-1.000000 F400.000000
G03 X65.756509 Y126.563946 Z-1.000000 I10.382668 J-0.000000
G03 X65.802503 Y126.374370 Z-1.000000 I0.608484 J0.047261
G03 X65.905637 Y126.214913 Z-1.000000 I0.500946 J0.210923
G03 X66.062953 Y126.094630 Z-1.000000 I0.432595 J0.402765
G03 X66.335255 Y125.995684 Z-1.000000 I0.445563 J0.802035
G03 X66.815361 Y125.949940 Z-1.000000 I0.480106 J2.496617
G03 X68.273436 Y126.261026 Z-1.000000 I-0.000000 J3.572583
G03 X69.275159 Y127.049610 Z-1.000000 I-1.066166 J2.384855
G03 X70.062136 Y128.662473 Z-1.000000 I-3.427726 J2.670946
G03 X70.432711 Y131.660530 Z-1.000000 I-11.942272 J2.998057
G03 X70.193273 Y134.119104 Z-1.000000 I-12.742175 J-0.000000
G03 X69.641717 Y135.683020 Z-1.000000 I-5.634804 J-1.108044
G03 X68.877822 Y136.711229 Z-1.000000 I-3.796607 J-2.022772
G03 X68.030791 Y137.284300 Z-1.000000 I-1.933159 J-1.944804
G03 X67.315094 Y137.479083 Z-1.000000 I-1.044717 J-2.426391
G03 X65.725333 Y137.573690 Z-1.000000 I-1.516808 J-12.083825
G01 X65.725333 Y137.573690 Z-1.000000
G00 Z5.000000

(End cutting path id: path50)


(Start cutting path id: path50)
(Change tool to Cylindrical cutter)

G00 Z5.000000
G00 X65.725333 Y137.573690

G01 Z-2.000000 F100.0(Penetrate)
G01 X65.725333 Y127.367940 Z-2.000000 F400.000000
G03 X65.756509 Y126.563946 Z-2.000000 I10.382668 J-0.000000
G03 X65.802503 Y126.374370 Z-2.000000 I0.608484 J0.047261
G03 X65.905637 Y126.214913 Z-2.000000 I0.500946 J0.210923
G03 X66.062953 Y126.094630 Z-2.000000 I0.432595 J0.402765
G03 X66.335255 Y125.995684 Z-2.000000 I0.445563 J0.802035
G03 X66.815361 Y125.949940 Z-2.000000 I0.480106 J2.496617
G03 X68.273436 Y126.261026 Z-2.000000 I-0.000000 J3.572583
G03 X69.275159 Y127.049610 Z-2.000000 I-1.066166 J2.384855
G03 X70.062136 Y128.662473 Z-2.000000 I-3.427726 J2.670946
G03 X70.432711 Y131.660530 Z-2.000000 I-11.942272 J2.998057
G03 X70.193273 Y134.119104 Z-2.000000 I-12.742175 J-0.000000
G03 X69.641717 Y135.683020 Z-2.000000 I-5.634804 J-1.108044
G03 X68.877822 Y136.711229 Z-2.000000 I-3.796607 J-2.022772
G03 X68.030791 Y137.284300 Z-2.000000 I-1.933159 J-1.944804
G03 X67.315094 Y137.479083 Z-2.000000 I-1.044717 J-2.426391
G03 X65.725333 Y137.573690 Z-2.000000 I-1.516808 J-12.083825
G01 X65.725333 Y137.573690 Z-2.000000
G00 Z5.000000

(End cutting path id: path50)


(Start cutting path id: path48)
(Change tool to Cylindrical cutter)

G00 Z5.000000
G00 X54.419907 Y128.959570

G01 Z-1.000000 F100.0(Penetrate)
G01 X49.799346 Y128.959570 Z-1.000000 F400.000000
G01 X49.249509 Y127.686270 Z-1.000000
G03 X49.030524 Y127.039217 Z-1.000000 I4.202369 J-1.782809
G03 X48.979413 Y126.634820 Z-1.000000 I1.574266 J-0.404397
G03 X49.102126 Y126.155253 Z-1.000000 I0.998439 J-0.000000
G03 X49.423141 Y125.824540 Z-1.000000 I0.759142 J0.415724
G03 X49.699736 Y125.721457 Z-1.000000 I0.424445 J0.716254
G03 X50.706095 Y125.593030 Z-1.000000 I1.746512 J9.678606
G01 X50.706095 Y125.236110 Z-1.000000
G01 X46.355628 Y125.236110 Z-1.000000
G01 X46.355628 Y125.593030 Z-1.000000
G03 X47.007823 Y125.799505 Z-1.000000 I-0.325882 J2.162650
G03 X47.513180 Y126.171800 Z-1.000000 I-0.823416 J1.646849
G03 X47.900610 Y126.697954 Z-1.000000 I-1.992278 J1.872717
G03 X48.632147 Y128.149290 Z-1.000000 I-14.723478 J8.331312
G01 X53.310587 Y138.586550 Z-1.000000
G01 X53.493866 Y138.586550 Z-1.000000
G01 X58.210890 Y127.859900 Z-1.000000
G03 X58.959281 Y126.388508 Z-1.000000 I14.118439 J6.255008
G03 X59.320211 Y125.940290 Z-1.000000 I1.624816 J0.938963
G03 X59.681956 Y125.718991 Z-1.000000 I0.755432 J0.828550
G03 X60.246253 Y125.593030 Z-1.000000 I0.731837 J1.951598
G01 X60.246253 Y125.236110 Z-1.000000
G01 X53.918302 Y125.236110 Z-1.000000
G01 X53.918302 Y125.593030 Z-1.000000
G01 X54.178751 Y125.593030 Z-1.000000
G03 X54.918265 Y125.665607 Z-1.000000 I-0.000000 J3.803898
G03 X55.249486 Y125.805240 Z-1.000000 I-0.173049 J0.873143
G03 X55.402860 Y125.989545 Z-1.000000 I-0.287326 J0.395074
G03 X55.461704 Y126.248970 Z-1.000000 I-0.542436 J0.259425
G03 X55.447887 Y126.420480 Z-1.000000 I-1.071413 J0.000000
G03 X55.403824 Y126.605880 Z-1.000000 I-1.297221 J-0.210370
G03 X55.377689 Y126.690488 Z-1.000000 I-0.534761 J-0.118843
G03 X55.114436 Y127.329350 Z-1.000000 I-30.968800 J-12.387520
G01 X54.419907 Y128.959570 Z-1.000000
G00 Z5.000000

(End cutting path id: path48)


(Start cutting path id: path48)
(Change tool to Cylindrical cutter)

G00 Z5.000000
G00 X54.419907 Y128.959570

G01 Z-2.000000 F100.0(Penetrate)
G01 X49.799346 Y128.959570 Z-2.000000 F400.000000
G01 X49.249509 Y127.686270 Z-2.000000
G03 X49.030524 Y127.039217 Z-2.000000 I4.202369 J-1.782809
G03 X48.979413 Y126.634820 Z-2.000000 I1.574266 J-0.404397
G03 X49.102126 Y126.155253 Z-2.000000 I0.998439 J-0.000000
G03 X49.423141 Y125.824540 Z-2.000000 I0.759142 J0.415724
G03 X49.699736 Y125.721457 Z-2.000000 I0.424445 J0.716254
G03 X50.706095 Y125.593030 Z-2.000000 I1.746512 J9.678606
G01 X50.706095 Y125.236110 Z-2.000000
G01 X46.355628 Y125.236110 Z-2.000000
G01 X46.355628 Y125.593030 Z-2.000000
G03 X47.007823 Y125.799505 Z-2.000000 I-0.325882 J2.162650
G03 X47.513180 Y126.171800 Z-2.000000 I-0.823416 J1.646849
G03 X47.900610 Y126.697954 Z-2.000000 I-1.992278 J1.872717
G03 X48.632147 Y128.149290 Z-2.000000 I-14.723478 J8.331312
G01 X53.310587 Y138.586550 Z-2.000000
G01 X53.493866 Y138.586550 Z-2.000000
G01 X58.210890 Y127.859900 Z-2.000000
G03 X58.959281 Y126.388508 Z-2.000000 I14.118439 J6.255008
G03 X59.320211 Y125.940290 Z-2.000000 I1.624816 J0.938963
G03 X59.681956 Y125.718991 Z-2.000000 I0.755432 J0.828550
G03 X60.246253 Y125.593030 Z-2.000000 I0.731837 J1.951598
G01 X60.246253 Y125.236110 Z-2.000000
G01 X53.918302 Y125.236110 Z-2.000000
G01 X53.918302 Y125.593030 Z-2.000000
G01 X54.178751 Y125.593030 Z-2.000000
G03 X54.918265 Y125.665607 Z-2.000000 I-0.000000 J3.803898
G03 X55.249486 Y125.805240 Z-2.000000 I-0.173049 J0.873143
G03 X55.402860 Y125.989545 Z-2.000000 I-0.287326 J0.395074
G03 X55.461704 Y126.248970 Z-2.000000 I-0.542436 J0.259425
G03 X55.447887 Y126.420480 Z-2.000000 I-1.071413 J0.000000
G03 X55.403824 Y126.605880 Z-2.000000 I-1.297221 J-0.210370
G03 X55.377689 Y126.690488 Z-2.000000 I-0.534761 J-0.118843
G03 X55.114436 Y127.329350 Z-2.000000 I-30.968800 J-12.387520
G01 X54.419907 Y128.959570 Z-2.000000
G00 Z5.000000

(End cutting path id: path48)


(Start cutting path id: path48)
(Change tool to Cylindrical cutter)

G00 Z5.000000
G00 X54.091934 Y129.673400

G01 Z-1.000000 F100.0(Penetrate)
G01 X52.143389 Y134.178200 Z-1.000000 F400.000000
G01 X50.136965 Y129.673400 Z-1.000000
G01 X54.091934 Y129.673400 Z-1.000000
G00 Z5.000000

(End cutting path id: path48)


(Start cutting path id: path48)
(Change tool to Cylindrical cutter)

G00 Z5.000000
G00 X54.091934 Y129.673400

G01 Z-2.000000 F100.0(Penetrate)
G01 X52.143389 Y134.178200 Z-2.000000 F400.000000
G01 X50.136965 Y129.673400 Z-2.000000
G01 X54.091934 Y129.673400 Z-2.000000
G00 Z5.000000

(End cutting path id: path48)


(Start cutting path id: path46)
(Change tool to Cylindrical cutter)

G00 Z5.000000
G00 X47.783276 Y138.316450

G01 Z-1.000000 F100.0(Penetrate)
G01 X47.783276 Y137.959540 Z-1.000000 F400.000000
G03 X47.167303 Y137.803745 Z-1.000000 I0.371007 J-2.762464
G03 X46.789711 Y137.583340 Z-1.000000 I0.467346 J-1.234287
G03 X46.371968 Y137.124031 Z-1.000000 I1.493566 J-1.778027
G03 X45.265600 Y135.374340 Z-1.000000 I21.248733 J-14.660674
G01 X42.429598 Y130.638020 Z-1.000000
G01 X42.429598 Y127.474050 Z-1.000000
G03 X42.471690 Y126.469728 Z-1.000000 I12.002639 J-0.000000
G03 X42.535707 Y126.210390 Z-1.000000 I0.844623 J0.070923
G03 X42.676595 Y125.999327 Z-1.000000 I0.670507 J0.295019
G03 X42.950496 Y125.776310 Z-1.000000 I1.026048 J0.980449
G03 X43.283429 Y125.647671 Z-1.000000 I0.581654 J1.010237
G03 X43.789722 Y125.593030 Z-1.000000 I0.506293 J2.318279
G01 X44.522838 Y125.593030 Z-1.000000
G01 X44.522838 Y125.236110 Z-1.000000
G01 X37.182029 Y125.236110 Z-1.000000
G01 X37.182029 Y125.593030 Z-1.000000
G01 X37.866914 Y125.593030 Z-1.000000
G03 X38.428697 Y125.654381 Z-1.000000 I-0.000000 J2.602769
G03 X38.783309 Y125.795600 Z-1.000000 I-0.256283 J1.159385
G03 X38.995231 Y125.966594 Z-1.000000 I-0.350978 J0.651806
G03 X39.178806 Y126.258620 Z-1.000000 I-0.903212 J0.771495
G03 X39.242451 Y126.499398 Z-1.000000 I-0.663915 J0.304295
G03 X39.284915 Y127.474050 Z-1.000000 I-11.164195 J0.974652
G01 X39.284915 Y130.097830 Z-1.000000
G01 X36.207756 Y135.702310 Z-1.000000
G03 X35.232293 Y137.310714 Z-1.000000 I-20.312352 J-11.219013
G03 X34.915156 Y137.650860 Z-1.000000 I-1.181887 J-0.784023
G03 X34.508631 Y137.865117 Z-1.000000 I-0.770846 J-0.969787
G03 X33.911945 Y137.959540 Z-1.000000 I-0.629633 J-2.046310
G01 X33.911945 Y138.316450 Z-1.000000
G01 X40.182018 Y138.316450 Z-1.000000
G01 X40.182018 Y137.959540 Z-1.000000
G01 X39.902276 Y137.959540 Z-1.000000
G03 X39.350933 Y137.903656 Z-1.000000 I-0.000000 J-2.747675
G03 X39.101636 Y137.795550 Z-1.000000 I0.132559 J-0.647185
G03 X38.926444 Y137.608029 Z-1.000000 I0.419343 J-0.567368
G03 X38.879772 Y137.448290 Z-1.000000 I0.250022 J-0.159739
G03 X38.949313 Y137.118931 Z-1.000000 I0.814718 J-0.000000
G03 X39.651473 Y135.702310 Z-1.000000 I16.439619 J7.266103
G01 X42.014809 Y131.371140 Z-1.000000
G01 X44.368498 Y135.316460 Z-1.000000
G03 X45.149271 Y136.790533 Z-1.000000 I-12.257990 J7.436512
G03 X45.246308 Y137.236070 Z-1.000000 I-0.974308 J0.445537
G03 X45.185078 Y137.464438 Z-1.000000 I-0.456481 J0.000000
G03 X44.995505 Y137.670150 Z-1.000000 I-0.553306 J-0.319690
G03 X44.640212 Y137.835158 Z-1.000000 I-0.586244 J-0.797281
G03 X43.789722 Y137.959540 Z-1.000000 I-1.111862 J-4.632725
G01 X43.789722 Y138.316450 Z-1.000000
G01 X47.783276 Y138.316450 Z-1.000000
G00 Z5.000000

(End cutting path id: path46)


(Start cutting path id: path46)
(Change tool to Cylindrical cutter)

G00 Z5.000000
G00 X47.783276 Y138.316450

G01 Z-2.000000 F100.0(Penetrate)
G01 X47.783276 Y137.959540 Z-2.000000 F400.000000
G03 X47.167303 Y137.803745 Z-2.000000 I0.371007 J-2.762464
G03 X46.789711 Y137.583340 Z-2.000000 I0.467346 J-1.234287
G03 X46.371968 Y137.124031 Z-2.000000 I1.493566 J-1.778027
G03 X45.265600 Y135.374340 Z-2.000000 I21.248733 J-14.660674
G01 X42.429598 Y130.638020 Z-2.000000
G01 X42.429598 Y127.474050 Z-2.000000
G03 X42.471690 Y126.469728 Z-2.000000 I12.002639 J-0.000000
G03 X42.535707 Y126.210390 Z-2.000000 I0.844623 J0.070923
G03 X42.676595 Y125.999327 Z-2.000000 I0.670507 J0.295019
G03 X42.950496 Y125.776310 Z-2.000000 I1.026048 J0.980449
G03 X43.283429 Y125.647671 Z-2.000000 I0.581654 J1.010237
G03 X43.789722 Y125.593030 Z-2.000000 I0.506293 J2.318279
G01 X44.522838 Y125.593030 Z-2.000000
G01 X44.522838 Y125.236110 Z-2.000000
G01 X37.182029 Y125.236110 Z-2.000000
G01 X37.182029 Y125.593030 Z-2.000000
G01 X37.866914 Y125.593030 Z-2.000000
G03 X38.428697 Y125.654381 Z-2.000000 I-0.000000 J2.602769
G03 X38.783309 Y125.795600 Z-2.000000 I-0.256283 J1.159385
G03 X38.995231 Y125.966594 Z-2.000000 I-0.350978 J0.651806
G03 X39.178806 Y126.258620 Z-2.000000 I-0.903212 J0.771495
G03 X39.242451 Y126.499398 Z-2.000000 I-0.663915 J0.304295
G03 X39.284915 Y127.474050 Z-2.000000 I-11.164195 J0.974652
G01 X39.284915 Y130.097830 Z-2.000000
G01 X36.207756 Y135.702310 Z-2.000000
G03 X35.232293 Y137.310714 Z-2.000000 I-20.312352 J-11.219013
G03 X34.915156 Y137.650860 Z-2.000000 I-1.181887 J-0.784023
G03 X34.508631 Y137.865117 Z-2.000000 I-0.770846 J-0.969787
G03 X33.911945 Y137.959540 Z-2.000000 I-0.629633 J-2.046310
G01 X33.911945 Y138.316450 Z-2.000000
G01 X40.182018 Y138.316450 Z-2.000000
G01 X40.182018 Y137.959540 Z-2.000000
G01 X39.902276 Y137.959540 Z-2.000000
G03 X39.350933 Y137.903656 Z-2.000000 I-0.000000 J-2.747675
G03 X39.101636 Y137.795550 Z-2.000000 I0.132559 J-0.647185
G03 X38.926444 Y137.608029 Z-2.000000 I0.419343 J-0.567368
G03 X38.879772 Y137.448290 Z-2.000000 I0.250022 J-0.159739
G03 X38.949313 Y137.118931 Z-2.000000 I0.814718 J-0.000000
G03 X39.651473 Y135.702310 Z-2.000000 I16.439619 J7.266103
G01 X42.014809 Y131.371140 Z-2.000000
G01 X44.368498 Y135.316460 Z-2.000000
G03 X45.149271 Y136.790533 Z-2.000000 I-12.257990 J7.436512
G03 X45.246308 Y137.236070 Z-2.000000 I-0.974308 J0.445537
G03 X45.185078 Y137.464438 Z-2.000000 I-0.456481 J0.000000
G03 X44.995505 Y137.670150 Z-2.000000 I-0.553306 J-0.319690
G03 X44.640212 Y137.835158 Z-2.000000 I-0.586244 J-0.797281
G03 X43.789722 Y137.959540 Z-2.000000 I-1.111862 J-4.632725
G01 X43.789722 Y138.316450 Z-2.000000
G01 X47.783276 Y138.316450 Z-2.000000
G00 Z5.000000

(End cutting path id: path46)


(Start cutting path id: path44)
(Change tool to Cylindrical cutter)

G00 Z5.000000
G00 X98.059617 Y156.219920

G01 Z-1.000000 F100.0(Penetrate)
G01 X98.059617 Y152.168490 Z-1.000000 F400.000000
G03 X98.101625 Y151.173801 Z-1.000000 I11.797487 J-0.000000
G03 X98.165725 Y150.914480 Z-1.000000 I0.846296 J0.071609
G03 X98.316815 Y150.695238 Z-1.000000 I0.710325 J0.327835
G03 X98.599808 Y150.470750 Z-1.000000 I1.029255 J1.006878
G03 X98.942185 Y150.342771 Z-1.000000 I0.589261 J1.054462
G03 X99.477618 Y150.287470 Z-1.000000 I0.535433 J2.564430
G01 X99.911700 Y150.287470 Z-1.000000
G01 X99.911700 Y149.930560 Z-1.000000
G01 X93.072497 Y149.930560 Z-1.000000
G01 X93.072497 Y150.287470 Z-1.000000
G01 X93.506579 Y150.287470 Z-1.000000
G03 X94.059387 Y150.347841 Z-1.000000 I-0.000000 J2.561187
G03 X94.422974 Y150.490040 Z-1.000000 I-0.272463 J1.232581
G03 X94.633135 Y150.661735 Z-1.000000 I-0.338775 J0.629143
G03 X94.808825 Y150.953060 Z-1.000000 I-0.862661 J0.718886
G03 X94.872470 Y151.193838 Z-1.000000 I-0.663915 J0.304295
G03 X94.914934 Y152.168490 Z-1.000000 I-11.164195 J0.974652
G01 X94.914934 Y160.772960 Z-1.000000
G03 X94.872926 Y161.767650 Z-1.000000 I-11.797472 J-0.000000
G03 X94.808825 Y162.026980 Z-1.000000 I-0.846356 J-0.071615
G03 X94.663531 Y162.242661 Z-1.000000 I-0.625693 J-0.264719
G03 X94.374743 Y162.461060 Z-1.000000 I-0.931237 J-0.931241
G03 X94.040056 Y162.595421 Z-1.000000 I-0.575596 J-0.949760
G03 X93.506579 Y162.653980 Z-1.000000 I-0.533477 J-2.400714
G01 X93.072497 Y162.653980 Z-1.000000
G01 X93.072497 Y163.010890 Z-1.000000
G01 X99.911700 Y163.010890 Z-1.000000
G01 X99.911700 Y162.653980 Z-1.000000
G01 X99.477618 Y162.653980 Z-1.000000
G03 X98.924809 Y162.593609 Z-1.000000 I-0.000000 J-2.561195
G03 X98.561222 Y162.451410 Z-1.000000 I0.272463 J-1.232580
G03 X98.349300 Y162.280416 Z-1.000000 I0.350978 J-0.651806
G03 X98.165725 Y161.988390 Z-1.000000 I0.903212 J-0.771495
G03 X98.102080 Y161.747612 Z-1.000000 I0.663920 J-0.304295
G03 X98.059617 Y160.772960 Z-1.000000 I11.164302 J-0.974652
G01 X98.059617 Y157.068790 Z-1.000000
G01 X102.680180 Y157.068790 Z-1.000000
G01 X102.680180 Y160.772960 Z-1.000000
G03 X102.638172 Y161.767649 Z-1.000000 I-11.797360 J-0.000000
G03 X102.574070 Y162.026980 Z-1.000000 I-0.846350 J-0.071615
G03 X102.428775 Y162.242662 Z-1.000000 I-0.625703 J-0.264726
G03 X102.139990 Y162.461060 Z-1.000000 I-0.931239 J-0.931239
G03 X101.796219 Y162.595988 Z-1.000000 I-0.596177 J-1.013550
G03 X101.262180 Y162.653980 Z-1.000000 I-0.534039 J-2.429944
G01 X100.837740 Y162.653980 Z-1.000000
G01 X100.837740 Y163.010890 Z-1.000000
G01 X107.667300 Y163.010890 Z-1.000000
G01 X107.667300 Y162.653980 Z-1.000000
G01 X107.242860 Y162.653980 Z-1.000000
G03 X106.681083 Y162.592630 Z-1.000000 I-0.000000 J-2.602728
G03 X106.326470 Y162.451410 Z-1.000000 I0.256287 J-1.159396
G03 X106.114543 Y162.280414 Z-1.000000 I0.350970 J-0.651808
G03 X105.930970 Y161.988390 Z-1.000000 I0.903159 J-0.771456
G03 X105.867324 Y161.747612 Z-1.000000 I0.663909 J-0.304295
G03 X105.824860 Y160.772960 Z-1.000000 I11.164088 J-0.974652
G01 X105.824860 Y152.168490 Z-1.000000
G03 X105.866869 Y151.173801 Z-1.000000 I11.797262 J0.000000
G03 X105.930970 Y150.914480 Z-1.000000 I0.846284 J0.071610
G03 X106.075509 Y150.697351 Z-1.000000 I0.645776 J0.273208
G03 X106.365050 Y150.470750 Z-1.000000 I0.995916 J0.974257
G03 X106.707433 Y150.342770 Z-1.000000 I0.589279 J1.054517
G03 X107.242860 Y150.287470 Z-1.000000 I0.535427 J2.564399
G01 X107.667300 Y150.287470 Z-1.000000
G01 X107.667300 Y149.930560 Z-1.000000
G01 X100.837740 Y149.930560 Z-1.000000
G01 X100.837740 Y150.287470 Z-1.000000
G01 X101.262180 Y150.287470 Z-1.000000
G03 X101.823957 Y150.348820 Z-1.000000 I0.000000 J2.602728
G03 X102.178570 Y150.490040 Z-1.000000 I-0.256287 J1.159396
G03 X102.390497 Y150.661036 Z-1.000000 I-0.350970 J0.651808
G03 X102.574070 Y150.953060 Z-1.000000 I-0.903159 J0.771456
G03 X102.637716 Y151.193838 Z-1.000000 I-0.663909 J0.304295
G03 X102.680180 Y152.168490 Z-1.000000 I-11.164088 J0.974652
G01 X102.680180 Y156.219920 Z-1.000000
G01 X98.059617 Y156.219920 Z-1.000000
G00 Z5.000000

(End cutting path id: path44)


(Start cutting path id: path44)
(Change tool to Cylindrical cutter)

G00 Z5.000000
G00 X98.059617 Y156.219920

G01 Z-2.000000 F100.0(Penetrate)
G01 X98.059617 Y152.168490 Z-2.000000 F400.000000
G03 X98.101625 Y151.173801 Z-2.000000 I11.797487 J-0.000000
G03 X98.165725 Y150.914480 Z-2.000000 I0.846296 J0.071609
G03 X98.316815 Y150.695238 Z-2.000000 I0.710325 J0.327835
G03 X98.599808 Y150.470750 Z-2.000000 I1.029255 J1.006878
G03 X98.942185 Y150.342771 Z-2.000000 I0.589261 J1.054462
G03 X99.477618 Y150.287470 Z-2.000000 I0.535433 J2.564430
G01 X99.911700 Y150.287470 Z-2.000000
G01 X99.911700 Y149.930560 Z-2.000000
G01 X93.072497 Y149.930560 Z-2.000000
G01 X93.072497 Y150.287470 Z-2.000000
G01 X93.506579 Y150.287470 Z-2.000000
G03 X94.059387 Y150.347841 Z-2.000000 I-0.000000 J2.561187
G03 X94.422974 Y150.490040 Z-2.000000 I-0.272463 J1.232581
G03 X94.633135 Y150.661735 Z-2.000000 I-0.338775 J0.629143
G03 X94.808825 Y150.953060 Z-2.000000 I-0.862661 J0.718886
G03 X94.872470 Y151.193838 Z-2.000000 I-0.663915 J0.304295
G03 X94.914934 Y152.168490 Z-2.000000 I-11.164195 J0.974652
G01 X94.914934 Y160.772960 Z-2.000000
G03 X94.872926 Y161.767650 Z-2.000000 I-11.797472 J-0.000000
G03 X94.808825 Y162.026980 Z-2.000000 I-0.846356 J-0.071615
G03 X94.663531 Y162.242661 Z-2.000000 I-0.625693 J-0.264719
G03 X94.374743 Y162.461060 Z-2.000000 I-0.931237 J-0.931241
G03 X94.040056 Y162.595421 Z-2.000000 I-0.575596 J-0.949760
G03 X93.506579 Y162.653980 Z-2.000000 I-0.533477 J-2.400714
G01 X93.072497 Y162.653980 Z-2.000000
G01 X93.072497 Y163.010890 Z-2.000000
G01 X99.911700 Y163.010890 Z-2.000000
G01 X99.911700 Y162.653980 Z-2.000000
G01 X99.477618 Y162.653980 Z-2.000000
G03 X98.924809 Y162.593609 Z-2.000000 I-0.000000 J-2.561195
G03 X98.561222 Y162.451410 Z-2.000000 I0.272463 J-1.232580
G03 X98.349300 Y162.280416 Z-2.000000 I0.350978 J-0.651806
G03 X98.165725 Y161.988390 Z-2.000000 I0.903212 J-0.771495
G03 X98.102080 Y161.747612 Z-2.000000 I0.663920 J-0.304295
G03 X98.059617 Y160.772960 Z-2.000000 I11.164302 J-0.974652
G01 X98.059617 Y157.068790 Z-2.000000
G01 X102.680180 Y157.068790 Z-2.000000
G01 X102.680180 Y160.772960 Z-2.000000
G03 X102.638172 Y161.767649 Z-2.000000 I-11.797360 J-0.000000
G03 X102.574070 Y162.026980 Z-2.000000 I-0.846350 J-0.071615
G03 X102.428775 Y162.242662 Z-2.000000 I-0.625703 J-0.264726
G03 X102.139990 Y162.461060 Z-2.000000 I-0.931239 J-0.931239
G03 X101.796219 Y162.595988 Z-2.000000 I-0.596177 J-1.013550
G03 X101.262180 Y162.653980 Z-2.000000 I-0.534039 J-2.429944
G01 X100.837740 Y162.653980 Z-2.000000
G01 X100.837740 Y163.010890 Z-2.000000
G01 X107.667300 Y163.010890 Z-2.000000
G01 X107.667300 Y162.653980 Z-2.000000
G01 X107.242860 Y162.653980 Z-2.000000
G03 X106.681083 Y162.592630 Z-2.000000 I-0.000000 J-2.602728
G03 X106.326470 Y162.451410 Z-2.000000 I0.256287 J-1.159396
G03 X106.114543 Y162.280414 Z-2.000000 I0.350970 J-0.651808
G03 X105.930970 Y161.988390 Z-2.000000 I0.903159 J-0.771456
G03 X105.867324 Y161.747612 Z-2.000000 I0.663909 J-0.304295
G03 X105.824860 Y160.772960 Z-2.000000 I11.164088 J-0.974652
G01 X105.824860 Y152.168490 Z-2.000000
G03 X105.866869 Y151.173801 Z-2.000000 I11.797262 J0.000000
G03 X105.930970 Y150.914480 Z-2.000000 I0.846284 J0.071610
G03 X106.075509 Y150.697351 Z-2.000000 I0.645776 J0.273208
G03 X106.365050 Y150.470750 Z-2.000000 I0.995916 J0.974257
G03 X106.707433 Y150.342770 Z-2.000000 I0.589279 J1.054517
G03 X107.242860 Y150.287470 Z-2.000000 I0.535427 J2.564399
G01 X107.667300 Y150.287470 Z-2.000000
G01 X107.667300 Y149.930560 Z-2.000000
G01 X100.837740 Y149.930560 Z-2.000000
G01 X100.837740 Y150.287470 Z-2.000000
G01 X101.262180 Y150.287470 Z-2.000000
G03 X101.823957 Y150.348820 Z-2.000000 I0.000000 J2.602728
G03 X102.178570 Y150.490040 Z-2.000000 I-0.256287 J1.159396
G03 X102.390497 Y150.661036 Z-2.000000 I-0.350970 J0.651808
G03 X102.574070 Y150.953060 Z-2.000000 I-0.903159 J0.771456
G03 X102.637716 Y151.193838 Z-2.000000 I-0.663909 J0.304295
G03 X102.680180 Y152.168490 Z-2.000000 I-11.164088 J0.974652
G01 X102.680180 Y156.219920 Z-2.000000
G01 X98.059617 Y156.219920 Z-2.000000
G00 Z5.000000

(End cutting path id: path44)


(Start cutting path id: path42)
(Change tool to Cylindrical cutter)

G00 Z5.000000
G00 X90.931029 Y163.309930

G01 Z-1.000000 F100.0(Penetrate)
G01 X90.931029 Y158.699010 Z-1.000000 F400.000000
G01 X90.574117 Y158.699010 Z-1.000000
G03 X89.711619 Y160.433770 Z-1.000000 I-6.963608 J-2.380415
G03 X88.635217 Y161.573600 Z-1.000000 I-3.995326 J-2.694832
G03 X87.259864 Y162.312177 Z-1.000000 I-3.008262 J-3.952027
G03 X85.808861 Y162.557520 Z-1.000000 I-1.451003 J-4.168072
G03 X84.426727 Y162.329031 Z-1.000000 I-0.000000 J-4.294530
G03 X83.368355 Y161.727940 Z-1.000000 I1.043352 J-3.069392
G03 X82.571968 Y160.794102 Z-1.000000 I2.404403 J-2.857003
G03 X81.988939 Y159.432130 Z-1.000000 I4.664041 J-2.802346
G03 X81.686282 Y157.942439 Z-1.000000 I10.871446 J-2.984315
G03 X81.583796 Y156.403200 Z-1.000000 I11.507656 J-1.539239
G03 X81.708455 Y154.541229 Z-1.000000 I13.968003 J-0.000000
G03 X82.027524 Y153.104180 Z-1.000000 I8.613800 J1.158582
G03 X82.651042 Y151.819944 Z-1.000000 I4.597482 J1.438671
G03 X83.455172 Y151.020590 Z-1.000000 I2.506777 J1.717610
G03 X84.503757 Y150.535976 Z-1.000000 I2.051726 J3.062685
G03 X85.808861 Y150.354990 Z-1.000000 I1.305104 J4.615098
G03 X86.279248 Y150.378460 Z-1.000000 I-0.000000 J4.725520
G03 X86.773488 Y150.451490 Z-1.000000 I-0.529324 J5.291190
G03 X87.269672 Y150.576329 Z-1.000000 I-1.392302 J6.582336
G03 X87.795992 Y150.750520 Z-1.000000 I-2.217233 J7.581611
G01 X87.795992 Y153.470770 Z-1.000000
G03 X87.755392 Y154.233261 Z-1.000000 I-7.180241 J-0.000000
G03 X87.689883 Y154.464330 Z-1.000000 I-0.706377 J-0.075439
G03 X87.547490 Y154.661929 Z-1.000000 I-0.572307 J-0.262308
G03 X87.246155 Y154.879120 Z-1.000000 I-0.999935 J-1.069696
G03 X86.904669 Y155.010517 Z-1.000000 I-0.629386 J-1.126264
G03 X86.445515 Y155.062400 Z-1.000000 I-0.459154 J-2.005766
G01 X86.107895 Y155.062400 Z-1.000000
G01 X86.107895 Y155.419310 Z-1.000000
G01 X92.464785 Y155.419310 Z-1.000000
G01 X92.464785 Y155.062400 Z-1.000000
G03 X91.754480 Y154.968121 Z-1.000000 I0.364230 J-5.466997
G03 X91.451927 Y154.859830 Z-1.000000 I0.216122 J-1.080618
G03 X91.214892 Y154.674886 Z-1.000000 I0.374956 J-0.724936
G03 X91.017845 Y154.367870 Z-1.000000 I0.901069 J-0.795060
G03 X90.965116 Y154.176924 Z-1.000000 I0.520131 J-0.246387
G03 X90.931025 Y153.470770 Z-1.000000 I7.296598 J-0.706154
G01 X90.931025 Y150.750520 Z-1.000000
G02 X89.654068 Y150.262354 Z-1.000000 I-5.112341 J11.458770
G02 X88.316886 Y149.911290 Z-1.000000 I-3.922347 J12.217818
G02 X86.958519 Y149.696386 Z-1.000000 I-2.660475 J12.415888
G02 X85.509823 Y149.621910 Z-1.000000 I-1.448696 J14.052739
G02 X83.676909 Y149.769407 Z-1.000000 I0.000000 J11.462347
G02 X82.413371 Y150.123510 Z-1.000000 I0.933399 J5.762011
G02 X81.242565 Y150.722308 Z-1.000000 I3.274597 J7.846709
G02 X80.242961 Y151.454700 Z-1.000000 I3.947383 J6.435925
G02 X79.395637 Y152.352876 Z-1.000000 I4.599788 J5.188127
G02 X78.776729 Y153.316430 Z-1.000000 I4.685443 J3.690087
G02 X78.281185 Y154.690579 Z-1.000000 I5.295163 J2.685963
G02 X78.101490 Y156.297120 Z-1.000000 I7.091713 J1.606541
G02 X78.645225 Y159.020661 Z-1.000000 I7.092902 J0.000000
G02 X80.175437 Y161.284240 Z-1.000000 I6.338610 J-2.635979
G02 X82.473902 Y162.770299 Z-1.000000 I4.776165 J-4.866691
G02 X85.394067 Y163.319610 Z-1.000000 I2.920165 J-7.487219
G02 X86.364177 Y163.277050 Z-1.000000 I-0.000000 J-11.077581
G02 X87.149688 Y163.165270 Z-1.000000 I-0.647672 J-7.367288
G02 X87.566318 Y163.060395 Z-1.000000 I-0.576952 J-3.172008
G02 X88.519458 Y162.721540 Z-1.000000 I-5.508351 J-17.003977
G03 X89.479151 Y162.390703 Z-1.000000 I6.918046 J18.510536
G03 X89.648071 Y162.364630 Z-1.000000 I0.168920 J0.534155
G03 X89.901154 Y162.411621 Z-1.000000 I0.000000 J0.705026
G03 X90.149677 Y162.557550 Z-1.000000 I-0.317251 J0.824875
G03 X90.338117 Y162.789253 Z-1.000000 I-0.584009 J0.667442
G03 X90.574113 Y163.309960 Z-1.000000 I-2.830398 J1.596633
G01 X90.931029 Y163.309930 Z-1.000000
G00 Z5.000000

(End cutting path id: path42)


(Start cutting path id: path42)
(Change tool to Cylindrical cutter)

G00 Z5.000000
G00 X90.931029 Y163.309930

G01 Z-2.000000 F100.0(Penetrate)
G01 X90.931029 Y158.699010 Z-2.000000 F400.000000
G01 X90.574117 Y158.699010 Z-2.000000
G03 X89.711619 Y160.433770 Z-2.000000 I-6.963608 J-2.380415
G03 X88.635217 Y161.573600 Z-2.000000 I-3.995326 J-2.694832
G03 X87.259864 Y162.312177 Z-2.000000 I-3.008262 J-3.952027
G03 X85.808861 Y162.557520 Z-2.000000 I-1.451003 J-4.168072
G03 X84.426727 Y162.329031 Z-2.000000 I-0.000000 J-4.294530
G03 X83.368355 Y161.727940 Z-2.000000 I1.043352 J-3.069392
G03 X82.571968 Y160.794102 Z-2.000000 I2.404403 J-2.857003
G03 X81.988939 Y159.432130 Z-2.000000 I4.664041 J-2.802346
G03 X81.686282 Y157.942439 Z-2.000000 I10.871446 J-2.984315
G03 X81.583796 Y156.403200 Z-2.000000 I11.507656 J-1.539239
G03 X81.708455 Y154.541229 Z-2.000000 I13.968003 J-0.000000
G03 X82.027524 Y153.104180 Z-2.000000 I8.613800 J1.158582
G03 X82.651042 Y151.819944 Z-2.000000 I4.597482 J1.438671
G03 X83.455172 Y151.020590 Z-2.000000 I2.506777 J1.717610
G03 X84.503757 Y150.535976 Z-2.000000 I2.051726 J3.062685
G03 X85.808861 Y150.354990 Z-2.000000 I1.305104 J4.615098
G03 X86.279248 Y150.378460 Z-2.000000 I-0.000000 J4.725520
G03 X86.773488 Y150.451490 Z-2.000000 I-0.529324 J5.291190
G03 X87.269672 Y150.576329 Z-2.000000 I-1.392302 J6.582336
G03 X87.795992 Y150.750520 Z-2.000000 I-2.217233 J7.581611
G01 X87.795992 Y153.470770 Z-2.000000
G03 X87.755392 Y154.233261 Z-2.000000 I-7.180241 J-0.000000
G03 X87.689883 Y154.464330 Z-2.000000 I-0.706377 J-0.075439
G03 X87.547490 Y154.661929 Z-2.000000 I-0.572307 J-0.262308
G03 X87.246155 Y154.879120 Z-2.000000 I-0.999935 J-1.069696
G03 X86.904669 Y155.010517 Z-2.000000 I-0.629386 J-1.126264
G03 X86.445515 Y155.062400 Z-2.000000 I-0.459154 J-2.005766
G01 X86.107895 Y155.062400 Z-2.000000
G01 X86.107895 Y155.419310 Z-2.000000
G01 X92.464785 Y155.419310 Z-2.000000
G01 X92.464785 Y155.062400 Z-2.000000
G03 X91.754480 Y154.968121 Z-2.000000 I0.364230 J-5.466997
G03 X91.451927 Y154.859830 Z-2.000000 I0.216122 J-1.080618
G03 X91.214892 Y154.674886 Z-2.000000 I0.374956 J-0.724936
G03 X91.017845 Y154.367870 Z-2.000000 I0.901069 J-0.795060
G03 X90.965116 Y154.176924 Z-2.000000 I0.520131 J-0.246387
G03 X90.931025 Y153.470770 Z-2.000000 I7.296598 J-0.706154
G01 X90.931025 Y150.750520 Z-2.000000
G02 X89.654068 Y150.262354 Z-2.000000 I-5.112341 J11.458770
G02 X88.316886 Y149.911290 Z-2.000000 I-3.922347 J12.217818
G02 X86.958519 Y149.696386 Z-2.000000 I-2.660475 J12.415888
G02 X85.509823 Y149.621910 Z-2.000000 I-1.448696 J14.052739
G02 X83.676909 Y149.769407 Z-2.000000 I0.000000 J11.462347
G02 X82.413371 Y150.123510 Z-2.000000 I0.933399 J5.762011
G02 X81.242565 Y150.722308 Z-2.000000 I3.274597 J7.846709
G02 X80.242961 Y151.454700 Z-2.000000 I3.947383 J6.435925
G02 X79.395637 Y152.352876 Z-2.000000 I4.599788 J5.188127
G02 X78.776729 Y153.316430 Z-2.000000 I4.685443 J3.690087
G02 X78.281185 Y154.690579 Z-2.000000 I5.295163 J2.685963
G02 X78.101490 Y156.297120 Z-2.000000 I7.091713 J1.606541
G02 X78.645225 Y159.020661 Z-2.000000 I7.092902 J0.000000
G02 X80.175437 Y161.284240 Z-2.000000 I6.338610 J-2.635979
G02 X82.473902 Y162.770299 Z-2.000000 I4.776165 J-4.866691
G02 X85.394067 Y163.319610 Z-2.000000 I2.920165 J-7.487219
G02 X86.364177 Y163.277050 Z-2.000000 I-0.000000 J-11.077581
G02 X87.149688 Y163.165270 Z-2.000000 I-0.647672 J-7.367288
G02 X87.566318 Y163.060395 Z-2.000000 I-0.576952 J-3.172008
G02 X88.519458 Y162.721540 Z-2.000000 I-5.508351 J-17.003977
G03 X89.479151 Y162.390703 Z-2.000000 I6.918046 J18.510536
G03 X89.648071 Y162.364630 Z-2.000000 I0.168920 J0.534155
G03 X89.901154 Y162.411621 Z-2.000000 I0.000000 J0.705026
G03 X90.149677 Y162.557550 Z-2.000000 I-0.317251 J0.824875
G03 X90.338117 Y162.789253 Z-2.000000 I-0.584009 J0.667442
G03 X90.574113 Y163.309960 Z-2.000000 I-2.830398 J1.596633
G01 X90.931029 Y163.309930 Z-2.000000
G00 Z5.000000

(End cutting path id: path42)


(Start cutting path id: path40)
(Change tool to Cylindrical cutter)

G00 Z5.000000
G00 X67.943972 Y163.010890

G01 Z-1.000000 F100.0(Penetrate)
G01 X74.397324 Y154.898380 Z-1.000000 F400.000000
G01 X74.397324 Y160.522160 Z-1.000000
G03 X74.278319 Y161.656690 Z-1.000000 I-5.467495 J-0.000000
G03 X74.059705 Y162.113790 Z-1.000000 I-1.055184 J-0.223827
G03 X73.513803 Y162.492980 Z-1.000000 I-0.951761 J-0.787656
G03 X72.506656 Y162.653980 Z-1.000000 I-0.955649 J-2.747495
G01 X72.506656 Y163.010890 Z-1.000000
G01 X76.828184 Y163.010890 Z-1.000000
G01 X76.828184 Y162.653980 Z-1.000000
G03 X76.014908 Y162.500860 Z-1.000000 I0.892136 J-6.974811
G03 X75.709217 Y162.374240 Z-1.000000 I0.272620 J-1.090487
G03 X75.473684 Y162.171380 Z-1.000000 I0.437165 J-0.745737
G03 X75.265488 Y161.824400 Z-1.000000 I1.139919 J-0.919931
G03 X75.165204 Y161.437543 Z-1.000000 I1.366768 J-0.560731
G03 X75.111148 Y160.522160 Z-1.000000 I7.723518 J-0.915383
G01 X75.111148 Y149.631520 Z-1.000000
G01 X74.783175 Y149.631520 Z-1.000000
G01 X65.937548 Y160.522160 Z-1.000000
G01 X65.937548 Y152.207080 Z-1.000000
G03 X66.108132 Y151.162168 Z-1.000000 I3.285600 J-0.000000
G03 X66.448801 Y150.682970 Z-1.000000 I0.960637 J0.322240
G03 X67.004174 Y150.389887 Z-1.000000 I1.164165 J1.533278
G03 X67.635291 Y150.287470 Z-1.000000 I0.631117 J1.893334
G01 X67.943972 Y150.287470 Z-1.000000
G01 X67.943972 Y149.930560 Z-1.000000
G01 X63.304118 Y149.930560 Z-1.000000
G01 X63.304118 Y150.287470 Z-1.000000
G03 X64.323981 Y150.439523 Z-1.000000 I-0.034504 J3.727717
G03 X64.808935 Y150.731200 Z-1.000000 I-0.317583 J1.077015
G03 X65.094522 Y151.221881 Z-1.000000 I-0.829919 J0.811481
G03 X65.233371 Y152.207080 Z-1.000000 I-3.425805 J0.985199
G01 X65.233371 Y161.438550 Z-1.000000
G01 X64.953629 Y161.785820 Z-1.000000
G03 X64.507547 Y162.268572 Z-1.000000 I-3.502817 J-2.789269
G03 X64.220513 Y162.470700 Z-1.000000 I-0.871971 J-0.933384
G03 X63.889664 Y162.586451 Z-1.000000 I-0.578647 J-1.123233
G03 X63.304118 Y162.653980 Z-1.000000 I-0.700730 J-3.503630
G01 X63.304118 Y163.010890 Z-1.000000
G01 X67.943972 Y163.010890 Z-1.000000
G00 Z5.000000

(End cutting path id: path40)


(Start cutting path id: path40)
(Change tool to Cylindrical cutter)

G00 Z5.000000
G00 X67.943972 Y163.010890

G01 Z-2.000000 F100.0(Penetrate)
G01 X74.397324 Y154.898380 Z-2.000000 F400.000000
G01 X74.397324 Y160.522160 Z-2.000000
G03 X74.278319 Y161.656690 Z-2.000000 I-5.467495 J-0.000000
G03 X74.059705 Y162.113790 Z-2.000000 I-1.055184 J-0.223827
G03 X73.513803 Y162.492980 Z-2.000000 I-0.951761 J-0.787656
G03 X72.506656 Y162.653980 Z-2.000000 I-0.955649 J-2.747495
G01 X72.506656 Y163.010890 Z-2.000000
G01 X76.828184 Y163.010890 Z-2.000000
G01 X76.828184 Y162.653980 Z-2.000000
G03 X76.014908 Y162.500860 Z-2.000000 I0.892136 J-6.974811
G03 X75.709217 Y162.374240 Z-2.000000 I0.272620 J-1.090487
G03 X75.473684 Y162.171380 Z-2.000000 I0.437165 J-0.745737
G03 X75.265488 Y161.824400 Z-2.000000 I1.139919 J-0.919931
G03 X75.165204 Y161.437543 Z-2.000000 I1.366768 J-0.560731
G03 X75.111148 Y160.522160 Z-2.000000 I7.723518 J-0.915383
G01 X75.111148 Y149.631520 Z-2.000000
G01 X74.783175 Y149.631520 Z-2.000000
G01 X65.937548 Y160.522160 Z-2.000000
G01 X65.937548 Y152.207080 Z-2.000000
G03 X66.108132 Y151.162168 Z-2.000000 I3.285600 J-0.000000
G03 X66.448801 Y150.682970 Z-2.000000 I0.960637 J0.322240
G03 X67.004174 Y150.389887 Z-2.000000 I1.164165 J1.533278
G03 X67.635291 Y150.287470 Z-2.000000 I0.631117 J1.893334
G01 X67.943972 Y150.287470 Z-2.000000
G01 X67.943972 Y149.930560 Z-2.000000
G01 X63.304118 Y149.930560 Z-2.000000
G01 X63.304118 Y150.287470 Z-2.000000
G03 X64.323981 Y150.439523 Z-2.000000 I-0.034504 J3.727717
G03 X64.808935 Y150.731200 Z-2.000000 I-0.317583 J1.077015
G03 X65.094522 Y151.221881 Z-2.000000 I-0.829919 J0.811481
G03 X65.233371 Y152.207080 Z-2.000000 I-3.425805 J0.985199
G01 X65.233371 Y161.438550 Z-2.000000
G01 X64.953629 Y161.785820 Z-2.000000
G03 X64.507547 Y162.268572 Z-2.000000 I-3.502817 J-2.789269
G03 X64.220513 Y162.470700 Z-2.000000 I-0.871971 J-0.933384
G03 X63.889664 Y162.586451 Z-2.000000 I-0.578647 J-1.123233
G03 X63.304118 Y162.653980 Z-2.000000 I-0.700730 J-3.503630
G01 X63.304118 Y163.010890 Z-2.000000
G01 X67.943972 Y163.010890 Z-2.000000
G00 Z5.000000

(End cutting path id: path40)


(Start cutting path id: path38)
(Change tool to Cylindrical cutter)

G00 Z5.000000
G00 X62.580647 Y150.287470

G01 Z-1.000000 F100.0(Penetrate)
G01 X62.580647 Y149.930560 Z-1.000000 F400.000000
G01 X55.741444 Y149.930560 Z-1.000000
G01 X55.741444 Y150.287470 Z-1.000000
G01 X56.175526 Y150.287470 Z-1.000000
G03 X56.728335 Y150.347841 Z-1.000000 I-0.000000 J2.561195
G03 X57.091922 Y150.490040 Z-1.000000 I-0.272463 J1.232580
G03 X57.302082 Y150.661735 Z-1.000000 I-0.338775 J0.629141
G03 X57.477772 Y150.953060 Z-1.000000 I-0.862666 J0.718888
G03 X57.541417 Y151.193838 Z-1.000000 I-0.663915 J0.304295
G03 X57.583881 Y152.168490 Z-1.000000 I-11.164195 J0.974652
G01 X57.583881 Y160.772960 Z-1.000000
G03 X57.541873 Y161.767650 Z-1.000000 I-11.797472 J0.000000
G03 X57.477772 Y162.026980 Z-1.000000 I-0.846356 J-0.071615
G03 X57.332478 Y162.242661 Z-1.000000 I-0.625693 J-0.264719
G03 X57.043690 Y162.461060 Z-1.000000 I-0.931237 J-0.931241
G03 X56.709003 Y162.595421 Z-1.000000 I-0.575596 J-0.949760
G03 X56.175526 Y162.653980 Z-1.000000 I-0.533477 J-2.400714
G01 X55.741444 Y162.653980 Z-1.000000
G01 X55.741444 Y163.010890 Z-1.000000
G01 X62.580647 Y163.010890 Z-1.000000
G01 X62.580647 Y162.653980 Z-1.000000
G01 X62.146565 Y162.653980 Z-1.000000
G03 X61.593757 Y162.593609 Z-1.000000 I0.000000 J-2.561187
G03 X61.230170 Y162.451410 Z-1.000000 I0.272463 J-1.232581
G03 X61.018248 Y162.280416 Z-1.000000 I0.350978 J-0.651806
G03 X60.834673 Y161.988390 Z-1.000000 I0.903212 J-0.771495
G03 X60.771028 Y161.747612 Z-1.000000 I0.663915 J-0.304295
G03 X60.728564 Y160.772960 Z-1.000000 I11.164195 J-0.974652
G01 X60.728564 Y152.168490 Z-1.000000
G03 X60.770572 Y151.173801 Z-1.000000 I11.797374 J0.000000
G03 X60.834673 Y150.914480 Z-1.000000 I0.846290 J0.071609
G03 X60.985762 Y150.695238 Z-1.000000 I0.710320 J0.327830
G03 X61.268755 Y150.470750 Z-1.000000 I1.029251 J1.006872
G03 X61.611132 Y150.342771 Z-1.000000 I0.589261 J1.054462
G03 X62.146565 Y150.287470 Z-1.000000 I0.535433 J2.564430
G01 X62.580647 Y150.287470 Z-1.000000
G00 Z5.000000

(End cutting path id: path38)


(Start cutting path id: path38)
(Change tool to Cylindrical cutter)

G00 Z5.000000
G00 X62.580647 Y150.287470

G01 Z-2.000000 F100.0(Penetrate)
G01 X62.580647 Y149.930560 Z-2.000000 F400.000000
G01 X55.741444 Y149.930560 Z-2.000000
G01 X55.741444 Y150.287470 Z-2.000000
G01 X56.175526 Y150.287470 Z-2.000000
G03 X56.728335 Y150.347841 Z-2.000000 I-0.000000 J2.561195
G03 X57.091922 Y150.490040 Z-2.000000 I-0.272463 J1.232580
G03 X57.302082 Y150.661735 Z-2.000000 I-0.338775 J0.629141
G03 X57.477772 Y150.953060 Z-2.000000 I-0.862666 J0.718888
G03 X57.541417 Y151.193838 Z-2.000000 I-0.663915 J0.304295
G03 X57.583881 Y152.168490 Z-2.000000 I-11.164195 J0.974652
G01 X57.583881 Y160.772960 Z-2.000000
G03 X57.541873 Y161.767650 Z-2.000000 I-11.797472 J0.000000
G03 X57.477772 Y162.026980 Z-2.000000 I-0.846356 J-0.071615
G03 X57.332478 Y162.242661 Z-2.000000 I-0.625693 J-0.264719
G03 X57.043690 Y162.461060 Z-2.000000 I-0.931237 J-0.931241
G03 X56.709003 Y162.595421 Z-2.000000 I-0.575596 J-0.949760
G03 X56.175526 Y162.653980 Z-2.000000 I-0.533477 J-2.400714
G01 X55.741444 Y162.653980 Z-2.000000
G01 X55.741444 Y163.010890 Z-2.000000
G01 X62.580647 Y163.010890 Z-2.000000
G01 X62.580647 Y162.653980 Z-2.000000
G01 X62.146565 Y162.653980 Z-2.000000
G03 X61.593757 Y162.593609 Z-2.000000 I0.000000 J-2.561187
G03 X61.230170 Y162.451410 Z-2.000000 I0.272463 J-1.232581
G03 X61.018248 Y162.280416 Z-2.000000 I0.350978 J-0.651806
G03 X60.834673 Y161.988390 Z-2.000000 I0.903212 J-0.771495
G03 X60.771028 Y161.747612 Z-2.000000 I0.663915 J-0.304295
G03 X60.728564 Y160.772960 Z-2.000000 I11.164195 J-0.974652
G01 X60.728564 Y152.168490 Z-2.000000
G03 X60.770572 Y151.173801 Z-2.000000 I11.797374 J0.000000
G03 X60.834673 Y150.914480 Z-2.000000 I0.846290 J0.071609
G03 X60.985762 Y150.695238 Z-2.000000 I0.710320 J0.327830
G03 X61.268755 Y150.470750 Z-2.000000 I1.029251 J1.006872
G03 X61.611132 Y150.342771 Z-2.000000 I0.589261 J1.054462
G03 X62.146565 Y150.287470 Z-2.000000 I0.535433 J2.564430
G01 X62.580647 Y150.287470 Z-2.000000
G00 Z5.000000

(End cutting path id: path38)


(Start cutting path id: path36)
(Change tool to Cylindrical cutter)

G00 Z5.000000
G00 X53.628914 Y163.309930

G01 Z-1.000000 F100.0(Penetrate)
G01 X53.735023 Y158.949820 Z-1.000000 F400.000000
G01 X53.339526 Y158.949820 Z-1.000000
G03 X52.828553 Y160.462605 Z-1.000000 I-5.040577 J-0.859867
G03 X51.960109 Y161.583250 Z-1.000000 I-3.571006 J-1.870529
G03 X50.776443 Y162.346446 Z-1.000000 I-2.798261 J-3.040423
G03 X49.596774 Y162.586460 Z-1.000000 I-1.179669 J-2.779033
G03 X48.672240 Y162.433795 Z-1.000000 I0.000000 J-2.875811
G03 X48.034079 Y162.055910 Z-1.000000 I0.579152 J-1.705850
G03 X47.604672 Y161.473491 Z-1.000000 I1.265047 J-1.382204
G03 X47.464949 Y160.850130 Z-1.000000 I1.320676 J-0.623361
G03 X47.519040 Y160.431032 Z-1.000000 I1.650648 J0.000000
G03 X47.667521 Y160.078430 Z-1.000000 I1.308718 J0.343540
G03 X47.992624 Y159.667338 Z-1.000000 I1.922296 J1.186107
G03 X48.564624 Y159.181330 Z-1.000000 I3.275849 J3.275860
G03 X49.034623 Y158.891016 Z-1.000000 I2.699457 J3.844638
G03 X50.657863 Y158.052710 Z-1.000000 I24.382892 J45.222680
G02 X52.835464 Y156.777039 Z-1.000000 I-7.630402 J-15.521720
G02 X53.754315 Y155.920890 Z-1.000000 I-2.428834 J-3.527863
G02 X54.340755 Y154.846738 Z-1.000000 I-2.874817 J-2.266687
G02 X54.545309 Y153.625080 Z-1.000000 I-3.545785 J-1.221658
G02 X54.221201 Y152.126934 Z-1.000000 I-3.624538 J-0.000000
G02 X53.262355 Y150.798720 Z-1.000000 I-3.769685 J1.711152
G02 X51.862292 Y149.945778 Z-1.000000 I-2.816077 J3.046914
G02 X50.021210 Y149.621880 Z-1.000000 I-1.841082 J5.070540
G02 X49.407550 Y149.654750 Z-1.000000 I0.000000 J5.744696
G02 X48.854012 Y149.747280 Z-1.000000 I0.511789 J4.763633
G02 X48.313293 Y149.901114 Z-1.000000 I1.181079 J5.178646
G02 X47.474595 Y150.219950 Z-1.000000 I4.386026 J12.799963
G03 X47.004304 Y150.376512 Z-1.000000 I-1.299486 J-3.118848
G03 X46.712540 Y150.412870 Z-1.000000 I-0.291764 J-1.152498
G03 X46.474780 Y150.370984 Z-1.000000 I-0.000000 J-0.695744
G03 X46.181996 Y150.219950 Z-1.000000 I0.442742 J-1.217573
G03 X45.943075 Y149.993304 Z-1.000000 I0.604474 J-0.876467
G03 X45.728621 Y149.631520 Z-1.000000 I1.375529 J-1.059821
G01 X45.371709 Y149.631520 Z-1.000000
G01 X45.371709 Y154.570410 Z-1.000000
G01 X45.728621 Y154.570410 Z-1.000000
G03 X46.408186 Y152.631603 Z-1.000000 I7.414730 J1.510412
G03 X47.358840 Y151.387140 Z-1.000000 I3.913382 J2.004125
G03 X48.673784 Y150.557134 Z-1.000000 I3.104413 J3.461585
G03 X49.972979 Y150.297120 Z-1.000000 I1.299195 J3.115792
G03 X50.987235 Y150.466087 Z-1.000000 I-0.000000 J3.128612
G03 X51.690014 Y150.885540 Z-1.000000 I-0.642589 J1.875103
G03 X52.177011 Y151.544360 Z-1.000000 I-1.418280 J1.557789
G03 X52.336314 Y152.255310 Z-1.000000 I-1.506789 J0.710950
G03 X52.275061 Y152.701907 Z-1.000000 I-1.658690 J-0.000000
G03 X52.085511 Y153.152410 Z-1.000000 I-1.877945 J-0.525019
G03 X51.801206 Y153.549320 Z-1.000000 I-1.868135 J-1.037859
G03 X51.342748 Y153.972340 Z-1.000000 I-2.585569 J-2.342231
G03 X50.816446 Y154.328676 Z-1.000000 I-2.716048 J-3.444711
G03 X49.567835 Y154.994850 Z-1.000000 I-10.856427 J-18.845011
G02 X47.820755 Y155.932054 Z-1.000000 I12.420981 J25.251447
G02 X47.001928 Y156.490020 Z-1.000000 I3.538925 J6.073258
G02 X46.290548 Y157.166930 Z-1.000000 I3.317393 J4.198579
G02 X45.796145 Y157.869430 Z-1.000000 I3.083160 J2.695081
G02 X45.489558 Y158.659030 Z-1.000000 I2.911971 J1.584985
G02 X45.381356 Y159.547890 Z-1.000000 I3.596809 J0.888860
G02 X45.677776 Y160.984056 Z-1.000000 I3.627350 J0.000000
G02 X46.529261 Y162.210250 Z-1.000000 I3.451965 J-1.488352
G02 X47.797090 Y163.011393 Z-1.000000 I2.605964 J-2.720247
G02 X49.423141 Y163.309930 Z-1.000000 I1.626051 J-4.279060
G02 X50.054802 Y163.270604 Z-1.000000 I-0.000000 J-5.092626
G02 X50.657863 Y163.155590 Z-1.000000 I-0.594393 J-4.755149
G02 X51.101025 Y163.012179 Z-1.000000 I-0.915362 J-3.585021
G02 X51.757538 Y162.721510 Z-1.000000 I-3.227873 J-8.177319
G03 X52.422689 Y162.454008 Z-1.000000 I2.657385 J5.646953
G03 X52.673933 Y162.412830 Z-1.000000 I0.251244 J0.745882
G03 X52.905828 Y162.456475 Z-1.000000 I0.000000 J0.637876
G03 X53.069430 Y162.567170 Z-1.000000 I-0.162506 J0.416422
G03 X53.176381 Y162.741235 Z-1.000000 I-0.371092 J0.347899
G03 X53.339526 Y163.309930 Z-1.000000 I-4.009148 J1.457880
G01 X53.628914 Y163.309930 Z-1.000000
G00 Z5.000000

(End cutting path id: path36)


(Start cutting path id: path36)
(Change tool to Cylindrical cutter)

G00 Z5.000000
G00 X53.628914 Y163.309930

G01 Z-2.000000 F100.0(Penetrate)
G01 X53.735023 Y158.949820 Z-2.000000 F400.000000
G01 X53.339526 Y158.949820 Z-2.000000
G03 X52.828553 Y160.462605 Z-2.000000 I-5.040577 J-0.859867
G03 X51.960109 Y161.583250 Z-2.000000 I-3.571006 J-1.870529
G03 X50.776443 Y162.346446 Z-2.000000 I-2.798261 J-3.040423
G03 X49.596774 Y162.586460 Z-2.000000 I-1.179669 J-2.779033
G03 X48.672240 Y162.433795 Z-2.000000 I0.000000 J-2.875811
G03 X48.034079 Y162.055910 Z-2.000000 I0.579152 J-1.705850
G03 X47.604672 Y161.473491 Z-2.000000 I1.265047 J-1.382204
G03 X47.464949 Y160.850130 Z-2.000000 I1.320676 J-0.623361
G03 X47.519040 Y160.431032 Z-2.000000 I1.650648 J0.000000
G03 X47.667521 Y160.078430 Z-2.000000 I1.308718 J0.343540
G03 X47.992624 Y159.667338 Z-2.000000 I1.922296 J1.186107
G03 X48.564624 Y159.181330 Z-2.000000 I3.275849 J3.275860
G03 X49.034623 Y158.891016 Z-2.000000 I2.699457 J3.844638
G03 X50.657863 Y158.052710 Z-2.000000 I24.382892 J45.222680
G02 X52.835464 Y156.777039 Z-2.000000 I-7.630402 J-15.521720
G02 X53.754315 Y155.920890 Z-2.000000 I-2.428834 J-3.527863
G02 X54.340755 Y154.846738 Z-2.000000 I-2.874817 J-2.266687
G02 X54.545309 Y153.625080 Z-2.000000 I-3.545785 J-1.221658
G02 X54.221201 Y152.126934 Z-2.000000 I-3.624538 J-0.000000
G02 X53.262355 Y150.798720 Z-2.000000 I-3.769685 J1.711152
G02 X51.862292 Y149.945778 Z-2.000000 I-2.816077 J3.046914
G02 X50.021210 Y149.621880 Z-2.000000 I-1.841082 J5.070540
G02 X49.407550 Y149.654750 Z-2.000000 I0.000000 J5.744696
G02 X48.854012 Y149.747280 Z-2.000000 I0.511789 J4.763633
G02 X48.313293 Y149.901114 Z-2.000000 I1.181079 J5.178646
G02 X47.474595 Y150.219950 Z-2.000000 I4.386026 J12.799963
G03 X47.004304 Y150.376512 Z-2.000000 I-1.299486 J-3.118848
G03 X46.712540 Y150.412870 Z-2.000000 I-0.291764 J-1.152498
G03 X46.474780 Y150.370984 Z-2.000000 I-0.000000 J-0.695744
G03 X46.181996 Y150.219950 Z-2.000000 I0.442742 J-1.217573
G03 X45.943075 Y149.993304 Z-2.000000 I0.604474 J-0.876467
G03 X45.728621 Y149.631520 Z-2.000000 I1.375529 J-1.059821
G01 X45.371709 Y149.631520 Z-2.000000
G01 X45.371709 Y154.570410 Z-2.000000
G01 X45.728621 Y154.570410 Z-2.000000
G03 X46.408186 Y152.631603 Z-2.000000 I7.414730 J1.510412
G03 X47.358840 Y151.387140 Z-2.000000 I3.913382 J2.004125
G03 X48.673784 Y150.557134 Z-2.000000 I3.104413 J3.461585
G03 X49.972979 Y150.297120 Z-2.000000 I1.299195 J3.115792
G03 X50.987235 Y150.466087 Z-2.000000 I-0.000000 J3.128612
G03 X51.690014 Y150.885540 Z-2.000000 I-0.642589 J1.875103
G03 X52.177011 Y151.544360 Z-2.000000 I-1.418280 J1.557789
G03 X52.336314 Y152.255310 Z-2.000000 I-1.506789 J0.710950
G03 X52.275061 Y152.701907 Z-2.000000 I-1.658690 J-0.000000
G03 X52.085511 Y153.152410 Z-2.000000 I-1.877945 J-0.525019
G03 X51.801206 Y153.549320 Z-2.000000 I-1.868135 J-1.037859
G03 X51.342748 Y153.972340 Z-2.000000 I-2.585569 J-2.342231
G03 X50.816446 Y154.328676 Z-2.000000 I-2.716048 J-3.444711
G03 X49.567835 Y154.994850 Z-2.000000 I-10.856427 J-18.845011
G02 X47.820755 Y155.932054 Z-2.000000 I12.420981 J25.251447
G02 X47.001928 Y156.490020 Z-2.000000 I3.538925 J6.073258
G02 X46.290548 Y157.166930 Z-2.000000 I3.317393 J4.198579
G02 X45.796145 Y157.869430 Z-2.000000 I3.083160 J2.695081
G02 X45.489558 Y158.659030 Z-2.000000 I2.911971 J1.584985
G02 X45.381356 Y159.547890 Z-2.000000 I3.596809 J0.888860
G02 X45.677776 Y160.984056 Z-2.000000 I3.627350 J0.000000
G02 X46.529261 Y162.210250 Z-2.000000 I3.451965 J-1.488352
G02 X47.797090 Y163.011393 Z-2.000000 I2.605964 J-2.720247
G02 X49.423141 Y163.309930 Z-2.000000 I1.626051 J-4.279060
G02 X50.054802 Y163.270604 Z-2.000000 I-0.000000 J-5.092626
G02 X50.657863 Y163.155590 Z-2.000000 I-0.594393 J-4.755149
G02 X51.101025 Y163.012179 Z-2.000000 I-0.915362 J-3.585021
G02 X51.757538 Y162.721510 Z-2.000000 I-3.227873 J-8.177319
G03 X52.422689 Y162.454008 Z-2.000000 I2.657385 J5.646953
G03 X52.673933 Y162.412830 Z-2.000000 I0.251244 J0.745882
G03 X52.905828 Y162.456475 Z-2.000000 I0.000000 J0.637876
G03 X53.069430 Y162.567170 Z-2.000000 I-0.162506 J0.416422
G03 X53.176381 Y162.741235 Z-2.000000 I-0.371092 J0.347899
G03 X53.339526 Y163.309930 Z-2.000000 I-4.009148 J1.457880
G01 X53.628914 Y163.309930 Z-2.000000
G00 Z5.000000

(End cutting path id: path36)


(Start cutting path id: path34)
(Change tool to Cylindrical cutter)

G00 Z5.000000
G00 X133.172030 Y187.705340

G01 Z-1.000000 F100.0(Penetrate)
G01 X133.172030 Y184.165160 Z-1.000000 F400.000000
G01 X132.824760 Y184.165160 Z-1.000000
G03 X132.443806 Y185.356925 Z-1.000000 I-9.703186 J-2.444905
G03 X132.139880 Y185.920780 Z-1.000000 I-2.443382 J-0.953181
G03 X131.705976 Y186.393458 Z-1.000000 I-1.965855 J-1.369101
G03 X131.107730 Y186.779300 Z-1.000000 I-1.885733 J-2.267110
G03 X130.727497 Y186.892122 Z-1.000000 I-0.553705 J-1.168958
G03 X129.824780 Y186.952930 Z-1.000000 I-0.902717 J-6.670162
G01 X128.850500 Y186.952930 Z-1.000000
G01 X128.850500 Y176.862930 Z-1.000000
G03 X128.892509 Y175.868241 Z-1.000000 I11.797262 J0.000000
G03 X128.956610 Y175.608920 Z-1.000000 I0.846284 J0.071610
G03 X129.107699 Y175.389684 Z-1.000000 I0.710368 J0.327879
G03 X129.390690 Y175.165190 Z-1.000000 I1.029382 J1.006995
G03 X129.733174 Y175.037597 Z-1.000000 I0.585054 J1.046955
G03 X130.278150 Y174.981910 Z-1.000000 I0.544976 J2.638828
G01 X130.712230 Y174.981910 Z-1.000000
G01 X130.712230 Y174.625000 Z-1.000000
G01 X123.863380 Y174.625000 Z-1.000000
G01 X123.863380 Y174.981910 Z-1.000000
G01 X124.297460 Y174.981910 Z-1.000000
G03 X124.850269 Y175.042280 Z-1.000000 I-0.000000 J2.561206
G03 X125.213860 Y175.184480 Z-1.000000 I-0.272468 J1.232608
G03 X125.425781 Y175.355473 Z-1.000000 I-0.350987 J0.651815
G03 X125.609360 Y175.647500 Z-1.000000 I-0.903253 J0.771536
G03 X125.673006 Y175.888278 Z-1.000000 I-0.663909 J0.304295
G03 X125.715470 Y176.862930 Z-1.000000 I-11.164088 J0.974652
G01 X125.715470 Y186.952930 Z-1.000000
G01 X124.770130 Y186.952930 Z-1.000000
G03 X123.519103 Y186.774336 Z-1.000000 I-0.000000 J-4.470943
G03 X122.850520 Y186.393450 Z-1.000000 I0.463821 J-1.591398
G03 X122.203105 Y185.510624 Z-1.000000 I1.992257 J-2.139812
G03 X121.789430 Y184.165160 Z-1.000000 I4.363895 J-2.078044
G01 X121.422880 Y184.165160 Z-1.000000
G01 X121.422880 Y187.705340 Z-1.000000
G01 X133.172030 Y187.705340 Z-1.000000
G00 Z5.000000

(End cutting path id: path34)


(Start cutting path id: path34)
(Change tool to Cylindrical cutter)

G00 Z5.000000
G00 X133.172030 Y187.705340

G01 Z-2.000000 F100.0(Penetrate)
G01 X133.172030 Y184.165160 Z-2.000000 F400.000000
G01 X132.824760 Y184.165160 Z-2.000000
G03 X132.443806 Y185.356925 Z-2.000000 I-9.703186 J-2.444905
G03 X132.139880 Y185.920780 Z-2.000000 I-2.443382 J-0.953181
G03 X131.705976 Y186.393458 Z-2.000000 I-1.965855 J-1.369101
G03 X131.107730 Y186.779300 Z-2.000000 I-1.885733 J-2.267110
G03 X130.727497 Y186.892122 Z-2.000000 I-0.553705 J-1.168958
G03 X129.824780 Y186.952930 Z-2.000000 I-0.902717 J-6.670162
G01 X128.850500 Y186.952930 Z-2.000000
G01 X128.850500 Y176.862930 Z-2.000000
G03 X128.892509 Y175.868241 Z-2.000000 I11.797262 J0.000000
G03 X128.956610 Y175.608920 Z-2.000000 I0.846284 J0.071610
G03 X129.107699 Y175.389684 Z-2.000000 I0.710368 J0.327879
G03 X129.390690 Y175.165190 Z-2.000000 I1.029382 J1.006995
G03 X129.733174 Y175.037597 Z-2.000000 I0.585054 J1.046955
G03 X130.278150 Y174.981910 Z-2.000000 I0.544976 J2.638828
G01 X130.712230 Y174.981910 Z-2.000000
G01 X130.712230 Y174.625000 Z-2.000000
G01 X123.863380 Y174.625000 Z-2.000000
G01 X123.863380 Y174.981910 Z-2.000000
G01 X124.297460 Y174.981910 Z-2.000000
G03 X124.850269 Y175.042280 Z-2.000000 I-0.000000 J2.561206
G03 X125.213860 Y175.184480 Z-2.000000 I-0.272468 J1.232608
G03 X125.425781 Y175.355473 Z-2.000000 I-0.350987 J0.651815
G03 X125.609360 Y175.647500 Z-2.000000 I-0.903253 J0.771536
G03 X125.673006 Y175.888278 Z-2.000000 I-0.663909 J0.304295
G03 X125.715470 Y176.862930 Z-2.000000 I-11.164088 J0.974652
G01 X125.715470 Y186.952930 Z-2.000000
G01 X124.770130 Y186.952930 Z-2.000000
G03 X123.519103 Y186.774336 Z-2.000000 I-0.000000 J-4.470943
G03 X122.850520 Y186.393450 Z-2.000000 I0.463821 J-1.591398
G03 X122.203105 Y185.510624 Z-2.000000 I1.992257 J-2.139812
G03 X121.789430 Y184.165160 Z-2.000000 I4.363895 J-2.078044
G01 X121.422880 Y184.165160 Z-2.000000
G01 X121.422880 Y187.705340 Z-2.000000
G01 X133.172030 Y187.705340 Z-2.000000
G00 Z5.000000

(End cutting path id: path34)


(Start cutting path id: path32)
(Change tool to Cylindrical cutter)

G00 Z5.000000
G00 X112.895580 Y186.952930

G01 Z-1.000000 F100.0(Penetrate)
G01 X112.895580 Y181.628190 Z-1.000000 F400.000000
G01 X113.156030 Y181.628190 Z-1.000000
G03 X114.280615 Y181.861287 Z-1.000000 I0.000000 J2.829351
G03 X114.959880 Y182.409540 Z-1.000000 I-0.649656 J1.499817
G03 X115.374904 Y183.245447 Z-1.000000 I-2.372881 J1.699106
G03 X115.673700 Y184.714990 Z-1.000000 I-7.198220 J2.228734
G01 X116.040260 Y184.714990 Z-1.000000
G01 X116.040260 Y177.866150 Z-1.000000
G01 X115.673700 Y177.866150 Z-1.000000
G03 X115.471826 Y178.959028 Z-1.000000 I-6.952879 J-0.719235
G03 X115.181740 Y179.698940 Z-1.000000 I-3.452301 J-0.926671
G03 X114.741575 Y180.337762 Z-1.000000 I-2.683743 J-1.378115
G03 X114.323230 Y180.653920 Z-1.000000 I-1.025048 J-0.921500
G03 X113.812081 Y180.824829 Z-1.000000 I-0.825707 J-1.619677
G03 X112.895580 Y180.904720 Z-1.000000 I-0.916501 J-5.217075
G01 X112.895580 Y177.219850 Z-1.000000
G03 X112.930821 Y176.145609 Z-1.000000 I16.390681 J-0.000000
G03 X112.982380 Y175.898310 Z-1.000000 I0.903475 J0.059341
G03 X113.112864 Y175.685766 Z-1.000000 I0.684511 J0.273906
G03 X113.329640 Y175.502810 Z-1.000000 I0.716699 J0.629282
G03 X113.594999 Y175.399906 Z-1.000000 I0.412697 J0.670625
G03 X114.139930 Y175.348470 Z-1.000000 I0.544931 J2.860908
G01 X114.921280 Y175.348470 Z-1.000000
G03 X116.669505 Y175.596413 Z-1.000000 I-0.000000 J6.287265
G03 X117.853740 Y176.197340 Z-1.000000 I-0.988862 J3.416070
G03 X118.750485 Y177.189864 Z-1.000000 I-2.234861 J2.920560
G03 X119.445370 Y178.782540 Z-1.000000 I-5.284780 J3.253680
G01 X119.802290 Y178.782540 Z-1.000000
G01 X119.213860 Y174.625000 Z-1.000000
G01 X107.908440 Y174.625000 Z-1.000000
G01 X107.908440 Y174.981910 Z-1.000000
G01 X108.342520 Y174.981910 Z-1.000000
G03 X108.895329 Y175.042280 Z-1.000000 I-0.000000 J2.561206
G03 X109.258920 Y175.184480 Z-1.000000 I-0.272468 J1.232608
G03 X109.469079 Y175.356174 Z-1.000000 I-0.338779 J0.629142
G03 X109.644770 Y175.647500 Z-1.000000 I-0.862683 J0.718903
G03 X109.708416 Y175.888278 Z-1.000000 I-0.663909 J0.304295
G03 X109.750880 Y176.862930 Z-1.000000 I-11.164088 J0.974652
G01 X109.750880 Y185.467400 Z-1.000000
G03 X109.731319 Y186.352565 Z-1.000000 I-20.037325 J-0.000000
G03 X109.702680 Y186.557430 Z-1.000000 I-1.092689 J-0.048318
G03 X109.559516 Y186.861880 Z-1.000000 I-1.007982 J-0.288106
G03 X109.345770 Y187.078330 Z-1.000000 I-0.707056 J-0.484460
G03 X108.952690 Y187.267732 Z-1.000000 I-0.699756 J-0.949657
G03 X108.342560 Y187.348430 Z-1.000000 I-0.610130 J-2.266155
G01 X107.908480 Y187.348430 Z-1.000000
G01 X107.908480 Y187.705340 Z-1.000000
G01 X118.856990 Y187.705340 Z-1.000000
G01 X118.856990 Y183.837180 Z-1.000000
G01 X118.490430 Y183.837180 Z-1.000000
G03 X118.094520 Y185.200042 Z-1.000000 I-7.926603 J-1.563732
G03 X117.699440 Y185.872550 Z-1.000000 I-2.274586 J-0.883955
G03 X117.125524 Y186.383234 Z-1.000000 I-1.856129 J-1.508120
G03 X116.271790 Y186.779300 Z-1.000000 I-1.924321 J-3.029784
G03 X115.721704 Y186.889806 Z-1.000000 I-0.763033 J-2.373915
G03 X114.246080 Y186.952930 Z-1.000000 I-1.475624 J-17.215845
G01 X112.895580 Y186.952930 Z-1.000000
G00 Z5.000000

(End cutting path id: path32)


(Start cutting path id: path32)
(Change tool to Cylindrical cutter)

G00 Z5.000000
G00 X112.895580 Y186.952930

G01 Z-2.000000 F100.0(Penetrate)
G01 X112.895580 Y181.628190 Z-2.000000 F400.000000
G01 X113.156030 Y181.628190 Z-2.000000
G03 X114.280615 Y181.861287 Z-2.000000 I0.000000 J2.829351
G03 X114.959880 Y182.409540 Z-2.000000 I-0.649656 J1.499817
G03 X115.374904 Y183.245447 Z-2.000000 I-2.372881 J1.699106
G03 X115.673700 Y184.714990 Z-2.000000 I-7.198220 J2.228734
G01 X116.040260 Y184.714990 Z-2.000000
G01 X116.040260 Y177.866150 Z-2.000000
G01 X115.673700 Y177.866150 Z-2.000000
G03 X115.471826 Y178.959028 Z-2.000000 I-6.952879 J-0.719235
G03 X115.181740 Y179.698940 Z-2.000000 I-3.452301 J-0.926671
G03 X114.741575 Y180.337762 Z-2.000000 I-2.683743 J-1.378115
G03 X114.323230 Y180.653920 Z-2.000000 I-1.025048 J-0.921500
G03 X113.812081 Y180.824829 Z-2.000000 I-0.825707 J-1.619677
G03 X112.895580 Y180.904720 Z-2.000000 I-0.916501 J-5.217075
G01 X112.895580 Y177.219850 Z-2.000000
G03 X112.930821 Y176.145609 Z-2.000000 I16.390681 J-0.000000
G03 X112.982380 Y175.898310 Z-2.000000 I0.903475 J0.059341
G03 X113.112864 Y175.685766 Z-2.000000 I0.684511 J0.273906
G03 X113.329640 Y175.502810 Z-2.000000 I0.716699 J0.629282
G03 X113.594999 Y175.399906 Z-2.000000 I0.412697 J0.670625
G03 X114.139930 Y175.348470 Z-2.000000 I0.544931 J2.860908
G01 X114.921280 Y175.348470 Z-2.000000
G03 X116.669505 Y175.596413 Z-2.000000 I-0.000000 J6.287265
G03 X117.853740 Y176.197340 Z-2.000000 I-0.988862 J3.416070
G03 X118.750485 Y177.189864 Z-2.000000 I-2.234861 J2.920560
G03 X119.445370 Y178.782540 Z-2.000000 I-5.284780 J3.253680
G01 X119.802290 Y178.782540 Z-2.000000
G01 X119.213860 Y174.625000 Z-2.000000
G01 X107.908440 Y174.625000 Z-2.000000
G01 X107.908440 Y174.981910 Z-2.000000
G01 X108.342520 Y174.981910 Z-2.000000
G03 X108.895329 Y175.042280 Z-2.000000 I-0.000000 J2.561206
G03 X109.258920 Y175.184480 Z-2.000000 I-0.272468 J1.232608
G03 X109.469079 Y175.356174 Z-2.000000 I-0.338779 J0.629142
G03 X109.644770 Y175.647500 Z-2.000000 I-0.862683 J0.718903
G03 X109.708416 Y175.888278 Z-2.000000 I-0.663909 J0.304295
G03 X109.750880 Y176.862930 Z-2.000000 I-11.164088 J0.974652
G01 X109.750880 Y185.467400 Z-2.000000
G03 X109.731319 Y186.352565 Z-2.000000 I-20.037325 J-0.000000
G03 X109.702680 Y186.557430 Z-2.000000 I-1.092689 J-0.048318
G03 X109.559516 Y186.861880 Z-2.000000 I-1.007982 J-0.288106
G03 X109.345770 Y187.078330 Z-2.000000 I-0.707056 J-0.484460
G03 X108.952690 Y187.267732 Z-2.000000 I-0.699756 J-0.949657
G03 X108.342560 Y187.348430 Z-2.000000 I-0.610130 J-2.266155
G01 X107.908480 Y187.348430 Z-2.000000
G01 X107.908480 Y187.705340 Z-2.000000
G01 X118.856990 Y187.705340 Z-2.000000
G01 X118.856990 Y183.837180 Z-2.000000
G01 X118.490430 Y183.837180 Z-2.000000
G03 X118.094520 Y185.200042 Z-2.000000 I-7.926603 J-1.563732
G03 X117.699440 Y185.872550 Z-2.000000 I-2.274586 J-0.883955
G03 X117.125524 Y186.383234 Z-2.000000 I-1.856129 J-1.508120
G03 X116.271790 Y186.779300 Z-2.000000 I-1.924321 J-3.029784
G03 X115.721704 Y186.889806 Z-2.000000 I-0.763033 J-2.373915
G03 X114.246080 Y186.952930 Z-2.000000 I-1.475624 J-17.215845
G01 X112.895580 Y186.952930 Z-2.000000
G00 Z5.000000

(End cutting path id: path32)


(Start cutting path id: path30)
(Change tool to Cylindrical cutter)

G00 Z5.000000
G00 X99.699481 Y186.952930

G01 Z-1.000000 F100.0(Penetrate)
G01 X99.699481 Y181.628190 Z-1.000000 F400.000000
G01 X99.959930 Y181.628190 Z-1.000000
G03 X101.084515 Y181.861287 Z-1.000000 I-0.000000 J2.829351
G03 X101.763780 Y182.409540 Z-1.000000 I-0.649656 J1.499817
G03 X102.178811 Y183.245449 Z-1.000000 I-2.372845 J1.699111
G03 X102.477610 Y184.714990 Z-1.000000 I-7.198064 J2.228716
G01 X102.844160 Y184.714990 Z-1.000000
G01 X102.844160 Y177.866150 Z-1.000000
G01 X102.477610 Y177.866150 Z-1.000000
G03 X102.275731 Y178.959030 Z-1.000000 I-6.953273 J-0.719338
G03 X101.985650 Y179.698940 Z-1.000000 I-3.452455 J-0.926713
G03 X101.545477 Y180.337763 Z-1.000000 I-2.683802 J-1.378183
G03 X101.127130 Y180.653920 Z-1.000000 I-1.025060 J-0.921521
G03 X100.615981 Y180.824829 Z-1.000000 I-0.825708 J-1.619678
G03 X99.699481 Y180.904720 Z-1.000000 I-0.916500 J-5.217066
G01 X99.699481 Y177.219850 Z-1.000000
G03 X99.734730 Y176.145612 Z-1.000000 I16.386880 J-0.000000
G03 X99.786301 Y175.898310 Z-1.000000 I0.903306 J0.059344
G03 X99.916759 Y175.685775 Z-1.000000 I0.684196 J0.273667
G03 X100.133564 Y175.502810 Z-1.000000 I0.716596 J0.629197
G03 X100.398932 Y175.399905 Z-1.000000 I0.412718 J0.670686
G03 X100.943854 Y175.348470 Z-1.000000 I0.544922 J2.860859
G01 X101.725204 Y175.348470 Z-1.000000
G03 X103.473429 Y175.596413 Z-1.000000 I-0.000000 J6.287265
G03 X104.657664 Y176.197340 Z-1.000000 I-0.988862 J3.416070
G03 X105.554411 Y177.189864 Z-1.000000 I-2.234879 J2.920584
G03 X106.249304 Y178.782540 Z-1.000000 I-5.284830 J3.253731
G01 X106.606214 Y178.782540 Z-1.000000
G01 X106.017794 Y174.625000 Z-1.000000
G01 X94.712361 Y174.625000 Z-1.000000
G01 X94.712361 Y174.981910 Z-1.000000
G01 X95.146443 Y174.981910 Z-1.000000
G03 X95.699252 Y175.042281 Z-1.000000 I-0.000000 J2.561192
G03 X96.062838 Y175.184480 Z-1.000000 I-0.272462 J1.232573
G03 X96.272999 Y175.356175 Z-1.000000 I-0.338775 J0.629143
G03 X96.448689 Y175.647500 Z-1.000000 I-0.862661 J0.718886
G03 X96.512334 Y175.888278 Z-1.000000 I-0.663915 J0.304295
G03 X96.554798 Y176.862930 Z-1.000000 I-11.164195 J0.974652
G01 X96.554798 Y185.467400 Z-1.000000
G03 X96.535225 Y186.352562 Z-1.000000 I-20.024822 J-0.000000
G03 X96.506568 Y186.557430 Z-1.000000 I-1.092068 J-0.048320
G03 X96.363429 Y186.861870 Z-1.000000 I-1.007608 J-0.287879
G03 X96.149656 Y187.078330 Z-1.000000 I-0.706971 J-0.484405
G03 X95.756578 Y187.267732 Z-1.000000 I-0.699750 J-0.949644
G03 X95.146444 Y187.348430 Z-1.000000 I-0.610134 J-2.266174
G01 X94.712362 Y187.348430 Z-1.000000
G01 X94.712362 Y187.705340 Z-1.000000
G01 X105.660871 Y187.705340 Z-1.000000
G01 X105.660871 Y183.837180 Z-1.000000
G01 X105.294321 Y183.837180 Z-1.000000
G03 X104.898403 Y185.200043 Z-1.000000 I-7.926720 J-1.563811
G03 X104.503321 Y185.872550 Z-1.000000 I-2.274614 J-0.883977
G03 X103.929413 Y186.383232 Z-1.000000 I-1.856070 J-1.508042
G03 X103.075671 Y186.779300 Z-1.000000 I-1.924315 J-3.029775
G03 X102.525585 Y186.889806 Z-1.000000 I-0.763033 J-2.373915
G03 X101.049961 Y186.952930 Z-1.000000 I-1.475624 J-17.215845
G01 X99.699481 Y186.952930 Z-1.000000
G00 Z5.000000

(End cutting path id: path30)


(Start cutting path id: path30)
(Change tool to Cylindrical cutter)

G00 Z5.000000
G00 X99.699481 Y186.952930

G01 Z-2.000000 F100.0(Penetrate)
G01 X99.699481 Y181.628190 Z-2.000000 F400.000000
G01 X99.959930 Y181.628190 Z-2.000000
G03 X101.084515 Y181.861287 Z-2.000000 I-0.000000 J2.829351
G03 X101.763780 Y182.409540 Z-2.000000 I-0.649656 J1.499817
G03 X102.178811 Y183.245449 Z-2.000000 I-2.372845 J1.699111
G03 X102.477610 Y184.714990 Z-2.000000 I-7.198064 J2.228716
G01 X102.844160 Y184.714990 Z-2.000000
G01 X102.844160 Y177.866150 Z-2.000000
G01 X102.477610 Y177.866150 Z-2.000000
G03 X102.275731 Y178.959030 Z-2.000000 I-6.953273 J-0.719338
G03 X101.985650 Y179.698940 Z-2.000000 I-3.452455 J-0.926713
G03 X101.545477 Y180.337763 Z-2.000000 I-2.683802 J-1.378183
G03 X101.127130 Y180.653920 Z-2.000000 I-1.025060 J-0.921521
G03 X100.615981 Y180.824829 Z-2.000000 I-0.825708 J-1.619678
G03 X99.699481 Y180.904720 Z-2.000000 I-0.916500 J-5.217066
G01 X99.699481 Y177.219850 Z-2.000000
G03 X99.734730 Y176.145612 Z-2.000000 I16.386880 J-0.000000
G03 X99.786301 Y175.898310 Z-2.000000 I0.903306 J0.059344
G03 X99.916759 Y175.685775 Z-2.000000 I0.684196 J0.273667
G03 X100.133564 Y175.502810 Z-2.000000 I0.716596 J0.629197
G03 X100.398932 Y175.399905 Z-2.000000 I0.412718 J0.670686
G03 X100.943854 Y175.348470 Z-2.000000 I0.544922 J2.860859
G01 X101.725204 Y175.348470 Z-2.000000
G03 X103.473429 Y175.596413 Z-2.000000 I-0.000000 J6.287265
G03 X104.657664 Y176.197340 Z-2.000000 I-0.988862 J3.416070
G03 X105.554411 Y177.189864 Z-2.000000 I-2.234879 J2.920584
G03 X106.249304 Y178.782540 Z-2.000000 I-5.284830 J3.253731
G01 X106.606214 Y178.782540 Z-2.000000
G01 X106.017794 Y174.625000 Z-2.000000
G01 X94.712361 Y174.625000 Z-2.000000
G01 X94.712361 Y174.981910 Z-2.000000
G01 X95.146443 Y174.981910 Z-2.000000
G03 X95.699252 Y175.042281 Z-2.000000 I-0.000000 J2.561192
G03 X96.062838 Y175.184480 Z-2.000000 I-0.272462 J1.232573
G03 X96.272999 Y175.356175 Z-2.000000 I-0.338775 J0.629143
G03 X96.448689 Y175.647500 Z-2.000000 I-0.862661 J0.718886
G03 X96.512334 Y175.888278 Z-2.000000 I-0.663915 J0.304295
G03 X96.554798 Y176.862930 Z-2.000000 I-11.164195 J0.974652
G01 X96.554798 Y185.467400 Z-2.000000
G03 X96.535225 Y186.352562 Z-2.000000 I-20.024822 J-0.000000
G03 X96.506568 Y186.557430 Z-2.000000 I-1.092068 J-0.048320
G03 X96.363429 Y186.861870 Z-2.000000 I-1.007608 J-0.287879
G03 X96.149656 Y187.078330 Z-2.000000 I-0.706971 J-0.484405
G03 X95.756578 Y187.267732 Z-2.000000 I-0.699750 J-0.949644
G03 X95.146444 Y187.348430 Z-2.000000 I-0.610134 J-2.266174
G01 X94.712362 Y187.348430 Z-2.000000
G01 X94.712362 Y187.705340 Z-2.000000
G01 X105.660871 Y187.705340 Z-2.000000
G01 X105.660871 Y183.837180 Z-2.000000
G01 X105.294321 Y183.837180 Z-2.000000
G03 X104.898403 Y185.200043 Z-2.000000 I-7.926720 J-1.563811
G03 X104.503321 Y185.872550 Z-2.000000 I-2.274614 J-0.883977
G03 X103.929413 Y186.383232 Z-2.000000 I-1.856070 J-1.508042
G03 X103.075671 Y186.779300 Z-2.000000 I-1.924315 J-3.029775
G03 X102.525585 Y186.889806 Z-2.000000 I-0.763033 J-2.373915
G03 X101.049961 Y186.952930 Z-2.000000 I-1.475624 J-17.215845
G01 X99.699481 Y186.952930 Z-2.000000
G00 Z5.000000

(End cutting path id: path30)


(Start cutting path id: path28)
(Change tool to Cylindrical cutter)

G00 Z5.000000
G00 X87.246151 Y187.348430

G01 Z-1.000000 F100.0(Penetrate)
G01 X87.246151 Y187.705340 Z-1.000000 F400.000000
G01 X94.201109 Y187.705340 Z-1.000000
G01 X94.201109 Y187.348430 Z-1.000000
G01 X93.776673 Y187.348430 Z-1.000000
G03 X93.214332 Y187.287640 Z-1.000000 I-0.000000 J-2.631386
G03 X92.850631 Y187.145850 Z-1.000000 I0.267850 J-1.224405
G03 X92.647014 Y186.976678 Z-1.000000 I0.355760 J-0.635320
G03 X92.464781 Y186.682830 Z-1.000000 I0.954296 J-0.795247
G03 X92.401136 Y186.442052 Z-1.000000 I0.663915 J-0.304295
G03 X92.358672 Y185.467400 Z-1.000000 I11.164195 J-0.974652
G01 X92.358672 Y179.062280 Z-1.000000
G02 X92.231935 Y177.207810 Z-1.000000 I-13.631065 J-0.000000
G02 X91.982467 Y176.322740 Z-1.000000 I-3.304954 J0.453850
G02 X91.488504 Y175.577942 Z-1.000000 I-2.436887 J1.079985
G02 X90.641636 Y174.895100 Z-1.000000 I-2.878806 J2.703757
G02 X89.642897 Y174.484874 Z-1.000000 I-1.877872 J3.151002
G02 X88.336179 Y174.325970 Z-1.000000 I-1.306718 J5.293309
G02 X86.777340 Y174.572858 Z-1.000000 I0.000000 J5.044670
G02 X85.664163 Y175.194130 Z-1.000000 I1.017023 J3.130186
G02 X84.885061 Y176.169803 Z-1.000000 I2.170080 J2.531771
G02 X84.651305 Y177.113740 Z-1.000000 I1.788988 J0.943937
G02 X84.766655 Y177.741200 Z-1.000000 I1.764245 J-0.000000
G02 X85.066094 Y178.203760 Z-1.000000 I1.230057 J-0.468078
G02 X85.527553 Y178.517338 Z-1.000000 I1.004046 J-0.981218
G02 X86.078952 Y178.628200 Z-1.000000 I0.551399 J-1.315825
G02 X86.626936 Y178.527012 Z-1.000000 I-0.000000 J-1.534393
G02 X87.062871 Y178.252000 Z-1.000000 I-0.468830 J-1.226184
G02 X87.362615 Y177.829829 Z-1.000000 I-0.865339 J-0.931892
G02 X87.468015 Y177.325950 Z-1.000000 I-1.151731 J-0.503879
G02 X87.449040 Y177.058939 Z-1.000000 I-1.888131 J-0.000000
G02 X87.400495 Y176.853290 Z-1.000000 I-1.164671 J0.166374
G02 X87.353669 Y176.761186 Z-1.000000 I-0.533628 J0.213341
G02 X87.091814 Y176.361330 Z-1.000000 I-10.417120 J6.536237
G03 X86.865867 Y175.964925 Z-1.000000 I2.500663 J-1.687949
G03 X86.831365 Y175.811490 Z-1.000000 I0.323921 J-0.153435
G03 X86.890552 Y175.590744 Z-1.000000 I0.441245 J-0.000000
G03 X87.082168 Y175.377410 Z-1.000000 I0.601473 J0.347519
G03 X87.474377 Y175.185364 Z-1.000000 I0.724690 J0.983491
G03 X88.037148 Y175.107310 Z-1.000000 I0.562771 J1.989762
G03 X88.431301 Y175.166977 Z-1.000000 I-0.000000 J1.331694
G03 X88.722033 Y175.319530 Z-1.000000 I-0.267364 J0.862848
G03 X88.936354 Y175.567482 Z-1.000000 I-0.530429 J0.675087
G03 X89.098238 Y175.975480 Z-1.000000 I-1.335864 J0.766154
G03 X89.166781 Y176.434782 Z-1.000000 I-2.212926 J0.565007
G03 X89.213993 Y178.473860 Z-1.000000 I-44.010123 J2.039078
G01 X89.213993 Y185.467400 Z-1.000000
G03 X89.168252 Y186.460573 Z-1.000000 I-10.805185 J-0.000000
G03 X89.098238 Y186.721420 Z-1.000000 I-0.793966 J-0.073289
G03 X88.952944 Y186.937101 Z-1.000000 I-0.625693 J-0.264719
G03 X88.664156 Y187.155500 Z-1.000000 I-0.931237 J-0.931241
G03 X88.329468 Y187.289868 Z-1.000000 I-0.575603 J-0.949723
G03 X87.795992 Y187.348430 Z-1.000000 I-0.533476 J-2.400582
G01 X87.246151 Y187.348430 Z-1.000000
G00 Z5.000000

(End cutting path id: path28)


(Start cutting path id: path28)
(Change tool to Cylindrical cutter)

G00 Z5.000000
G00 X87.246151 Y187.348430

G01 Z-2.000000 F100.0(Penetrate)
G01 X87.246151 Y187.705340 Z-2.000000 F400.000000
G01 X94.201109 Y187.705340 Z-2.000000
G01 X94.201109 Y187.348430 Z-2.000000
G01 X93.776673 Y187.348430 Z-2.000000
G03 X93.214332 Y187.287640 Z-2.000000 I-0.000000 J-2.631386
G03 X92.850631 Y187.145850 Z-2.000000 I0.267850 J-1.224405
G03 X92.647014 Y186.976678 Z-2.000000 I0.355760 J-0.635320
G03 X92.464781 Y186.682830 Z-2.000000 I0.954296 J-0.795247
G03 X92.401136 Y186.442052 Z-2.000000 I0.663915 J-0.304295
G03 X92.358672 Y185.467400 Z-2.000000 I11.164195 J-0.974652
G01 X92.358672 Y179.062280 Z-2.000000
G02 X92.231935 Y177.207810 Z-2.000000 I-13.631065 J-0.000000
G02 X91.982467 Y176.322740 Z-2.000000 I-3.304954 J0.453850
G02 X91.488504 Y175.577942 Z-2.000000 I-2.436887 J1.079985
G02 X90.641636 Y174.895100 Z-2.000000 I-2.878806 J2.703757
G02 X89.642897 Y174.484874 Z-2.000000 I-1.877872 J3.151002
G02 X88.336179 Y174.325970 Z-2.000000 I-1.306718 J5.293309
G02 X86.777340 Y174.572858 Z-2.000000 I0.000000 J5.044670
G02 X85.664163 Y175.194130 Z-2.000000 I1.017023 J3.130186
G02 X84.885061 Y176.169803 Z-2.000000 I2.170080 J2.531771
G02 X84.651305 Y177.113740 Z-2.000000 I1.788988 J0.943937
G02 X84.766655 Y177.741200 Z-2.000000 I1.764245 J-0.000000
G02 X85.066094 Y178.203760 Z-2.000000 I1.230057 J-0.468078
G02 X85.527553 Y178.517338 Z-2.000000 I1.004046 J-0.981218
G02 X86.078952 Y178.628200 Z-2.000000 I0.551399 J-1.315825
G02 X86.626936 Y178.527012 Z-2.000000 I-0.000000 J-1.534393
G02 X87.062871 Y178.252000 Z-2.000000 I-0.468830 J-1.226184
G02 X87.362615 Y177.829829 Z-2.000000 I-0.865339 J-0.931892
G02 X87.468015 Y177.325950 Z-2.000000 I-1.151731 J-0.503879
G02 X87.449040 Y177.058939 Z-2.000000 I-1.888131 J-0.000000
G02 X87.400495 Y176.853290 Z-2.000000 I-1.164671 J0.166374
G02 X87.353669 Y176.761186 Z-2.000000 I-0.533628 J0.213341
G02 X87.091814 Y176.361330 Z-2.000000 I-10.417120 J6.536237
G03 X86.865867 Y175.964925 Z-2.000000 I2.500663 J-1.687949
G03 X86.831365 Y175.811490 Z-2.000000 I0.323921 J-0.153435
G03 X86.890552 Y175.590744 Z-2.000000 I0.441245 J-0.000000
G03 X87.082168 Y175.377410 Z-2.000000 I0.601473 J0.347519
G03 X87.474377 Y175.185364 Z-2.000000 I0.724690 J0.983491
G03 X88.037148 Y175.107310 Z-2.000000 I0.562771 J1.989762
G03 X88.431301 Y175.166977 Z-2.000000 I-0.000000 J1.331694
G03 X88.722033 Y175.319530 Z-2.000000 I-0.267364 J0.862848
G03 X88.936354 Y175.567482 Z-2.000000 I-0.530429 J0.675087
G03 X89.098238 Y175.975480 Z-2.000000 I-1.335864 J0.766154
G03 X89.166781 Y176.434782 Z-2.000000 I-2.212926 J0.565007
G03 X89.213993 Y178.473860 Z-2.000000 I-44.010123 J2.039078
G01 X89.213993 Y185.467400 Z-2.000000
G03 X89.168252 Y186.460573 Z-2.000000 I-10.805185 J-0.000000
G03 X89.098238 Y186.721420 Z-2.000000 I-0.793966 J-0.073289
G03 X88.952944 Y186.937101 Z-2.000000 I-0.625693 J-0.264719
G03 X88.664156 Y187.155500 Z-2.000000 I-0.931237 J-0.931241
G03 X88.329468 Y187.289868 Z-2.000000 I-0.575603 J-0.949723
G03 X87.795992 Y187.348430 Z-2.000000 I-0.533476 J-2.400582
G01 X87.246151 Y187.348430 Z-2.000000
G00 Z5.000000

(End cutting path id: path28)


(Start cutting path id: path26)
(Change tool to Cylindrical cutter)

G00 Z5.000000
G00 X78.381236 Y178.348460

G01 Z-1.000000 F100.0(Penetrate)
G01 X73.760674 Y178.348460 Z-1.000000 F400.000000
G01 X73.210837 Y177.075150 Z-1.000000
G03 X72.991853 Y176.428107 Z-1.000000 I4.202219 J-1.782767
G03 X72.940742 Y176.023710 Z-1.000000 I1.574256 J-0.404397
G03 X73.063456 Y175.544133 Z-1.000000 I0.998468 J0.000000
G03 X73.384470 Y175.213420 Z-1.000000 I0.759136 J0.415716
G03 X73.661064 Y175.110337 Z-1.000000 I0.424443 J0.716248
G03 X74.667423 Y174.981910 Z-1.000000 I1.746510 J9.678592
G01 X74.667423 Y174.625000 Z-1.000000
G01 X70.316957 Y174.625000 Z-1.000000
G01 X70.316957 Y174.981910 Z-1.000000
G03 X70.969150 Y175.188387 Z-1.000000 I-0.325874 J2.162598
G03 X71.474509 Y175.560690 Z-1.000000 I-0.823430 J1.646850
G03 X71.861938 Y176.086836 Z-1.000000 I-1.992167 J1.872652
G03 X72.593476 Y177.538170 Z-1.000000 I-14.723123 J8.331153
G01 X77.271915 Y187.975430 Z-1.000000
G01 X77.455194 Y187.975430 Z-1.000000
G01 X82.172219 Y177.248780 Z-1.000000
G03 X82.920610 Y175.777390 Z-1.000000 I14.118113 J6.254855
G03 X83.281539 Y175.329180 Z-1.000000 I1.624737 J0.938921
G03 X83.643287 Y175.107873 Z-1.000000 I0.755445 J0.828539
G03 X84.207581 Y174.981910 Z-1.000000 I0.731829 J1.951519
G01 X84.207581 Y174.625000 Z-1.000000
G01 X77.879630 Y174.625000 Z-1.000000
G01 X77.879630 Y174.981910 Z-1.000000
G01 X78.140079 Y174.981910 Z-1.000000
G03 X78.879591 Y175.054490 Z-1.000000 I-0.000000 J3.803719
G03 X79.210815 Y175.194130 Z-1.000000 I-0.173054 J0.873129
G03 X79.364189 Y175.378435 Z-1.000000 I-0.287326 J0.395074
G03 X79.423033 Y175.637860 Z-1.000000 I-0.542436 J0.259425
G03 X79.409217 Y175.809360 Z-1.000000 I-1.071352 J0.000000
G03 X79.365153 Y175.994770 Z-1.000000 I-1.297426 J-0.210403
G03 X79.339018 Y176.079378 Z-1.000000 I-0.534761 J-0.118843
G03 X79.075765 Y176.718240 Z-1.000000 I-30.968800 J-12.387520
G01 X78.381236 Y178.348460 Z-1.000000
G00 Z5.000000

(End cutting path id: path26)


(Start cutting path id: path26)
(Change tool to Cylindrical cutter)

G00 Z5.000000
G00 X78.381236 Y178.348460

G01 Z-2.000000 F100.0(Penetrate)
G01 X73.760674 Y178.348460 Z-2.000000 F400.000000
G01 X73.210837 Y177.075150 Z-2.000000
G03 X72.991853 Y176.428107 Z-2.000000 I4.202219 J-1.782767
G03 X72.940742 Y176.023710 Z-2.000000 I1.574256 J-0.404397
G03 X73.063456 Y175.544133 Z-2.000000 I0.998468 J0.000000
G03 X73.384470 Y175.213420 Z-2.000000 I0.759136 J0.415716
G03 X73.661064 Y175.110337 Z-2.000000 I0.424443 J0.716248
G03 X74.667423 Y174.981910 Z-2.000000 I1.746510 J9.678592
G01 X74.667423 Y174.625000 Z-2.000000
G01 X70.316957 Y174.625000 Z-2.000000
G01 X70.316957 Y174.981910 Z-2.000000
G03 X70.969150 Y175.188387 Z-2.000000 I-0.325874 J2.162598
G03 X71.474509 Y175.560690 Z-2.000000 I-0.823430 J1.646850
G03 X71.861938 Y176.086836 Z-2.000000 I-1.992167 J1.872652
G03 X72.593476 Y177.538170 Z-2.000000 I-14.723123 J8.331153
G01 X77.271915 Y187.975430 Z-2.000000
G01 X77.455194 Y187.975430 Z-2.000000
G01 X82.172219 Y177.248780 Z-2.000000
G03 X82.920610 Y175.777390 Z-2.000000 I14.118113 J6.254855
G03 X83.281539 Y175.329180 Z-2.000000 I1.624737 J0.938921
G03 X83.643287 Y175.107873 Z-2.000000 I0.755445 J0.828539
G03 X84.207581 Y174.981910 Z-2.000000 I0.731829 J1.951519
G01 X84.207581 Y174.625000 Z-2.000000
G01 X77.879630 Y174.625000 Z-2.000000
G01 X77.879630 Y174.981910 Z-2.000000
G01 X78.140079 Y174.981910 Z-2.000000
G03 X78.879591 Y175.054490 Z-2.000000 I-0.000000 J3.803719
G03 X79.210815 Y175.194130 Z-2.000000 I-0.173054 J0.873129
G03 X79.364189 Y175.378435 Z-2.000000 I-0.287326 J0.395074
G03 X79.423033 Y175.637860 Z-2.000000 I-0.542436 J0.259425
G03 X79.409217 Y175.809360 Z-2.000000 I-1.071352 J0.000000
G03 X79.365153 Y175.994770 Z-2.000000 I-1.297426 J-0.210403
G03 X79.339018 Y176.079378 Z-2.000000 I-0.534761 J-0.118843
G03 X79.075765 Y176.718240 Z-2.000000 I-30.968800 J-12.387520
G01 X78.381236 Y178.348460 Z-2.000000
G00 Z5.000000

(End cutting path id: path26)


(Start cutting path id: path26)
(Change tool to Cylindrical cutter)

G00 Z5.000000
G00 X78.053263 Y179.062280

G01 Z-1.000000 F100.0(Penetrate)
G01 X76.104717 Y183.567090 Z-1.000000 F400.000000
G01 X74.098294 Y179.062280 Z-1.000000
G01 X78.053263 Y179.062280 Z-1.000000
G00 Z5.000000

(End cutting path id: path26)


(Start cutting path id: path26)
(Change tool to Cylindrical cutter)

G00 Z5.000000
G00 X78.053263 Y179.062280

G01 Z-2.000000 F100.0(Penetrate)
G01 X76.104717 Y183.567090 Z-2.000000 F400.000000
G01 X74.098294 Y179.062280 Z-2.000000
G01 X78.053263 Y179.062280 Z-2.000000
G00 Z5.000000

(End cutting path id: path26)


(Start cutting path id: path24)
(Change tool to Cylindrical cutter)

G00 Z5.000000
G00 X61.133708 Y180.586390

G01 Z-1.000000 F100.0(Penetrate)
G01 X61.133708 Y176.920810 Z-1.000000 F400.000000
G03 X61.182730 Y175.870205 Z-1.000000 I11.282446 J0.000000
G03 X61.259109 Y175.579980 Z-1.000000 I0.914622 J0.085540
G03 X61.432153 Y175.347876 Z-1.000000 I0.735310 J0.367649
G03 X61.722130 Y175.145900 Z-1.000000 I0.837741 J0.893595
G03 X62.063996 Y175.040761 Z-1.000000 I0.486069 J0.972117
G03 X62.947206 Y174.981910 Z-1.000000 I0.883210 J6.597958
G01 X62.947206 Y174.625000 Z-1.000000
G01 X56.252697 Y174.625000 Z-1.000000
G01 X56.252697 Y174.981910 Z-1.000000
G03 X57.145031 Y175.041369 Z-1.000000 I0.000000 J6.725576
G03 X57.477773 Y175.145900 Z-1.000000 I-0.135719 J1.013878
G03 X57.766513 Y175.356766 Z-1.000000 I-0.583360 J1.101920
G03 X57.931147 Y175.589630 Z-1.000000 I-0.554840 J0.566899
G03 X58.013143 Y175.872244 Z-1.000000 I-0.729957 J0.364987
G03 X58.066195 Y176.920810 Z-1.000000 I-10.335805 J1.048566
G01 X58.066195 Y185.409530 Z-1.000000
G03 X58.013143 Y186.458096 Z-1.000000 I-10.388858 J0.000000
G03 X57.931147 Y186.740710 Z-1.000000 I-0.811953 J-0.082372
G03 X57.764021 Y186.980451 Z-1.000000 I-0.715833 J-0.320891
G03 X57.477773 Y187.184440 Z-1.000000 I-0.793758 J-0.811010
G03 X57.135907 Y187.289579 Z-1.000000 I-0.486069 J-0.972117
G03 X56.252697 Y187.348430 Z-1.000000 I-0.883210 J-6.597958
G01 X56.252697 Y187.705340 Z-1.000000
G01 X62.329845 Y187.705340 Z-1.000000
G02 X64.686620 Y187.594293 Z-1.000000 I-0.000000 J-25.064605
G02 X65.802501 Y187.377360 Z-1.000000 I-0.547099 J-5.792687
G02 X66.802606 Y186.903317 Z-1.000000 I-1.039220 J-3.484474
G02 X67.596707 Y186.161930 Z-1.000000 I-1.964948 J-2.900637
G02 X68.107455 Y185.220207 Z-1.000000 I-2.448682 J-1.937419
G02 X68.291238 Y184.097630 Z-1.000000 I-3.336549 J-1.122577
G02 X68.015305 Y182.772907 Z-1.000000 I-3.317884 J0.000000
G02 X67.249441 Y181.705360 Z-1.000000 I-2.867800 J1.248883
G02 X66.524320 Y181.219300 Z-1.000000 I-2.068720 J2.302278
G02 X65.387712 Y180.808260 Z-1.000000 I-2.575636 J5.345153
G01 X68.532395 Y176.380620 Z-1.000000
G03 X69.174234 Y175.545145 Z-1.000000 I13.519705 J9.722008
G03 X69.410205 Y175.309880 Z-1.000000 I1.288186 J1.056076
G03 X69.831792 Y175.082004 Z-1.000000 I0.955357 J1.263555
G03 X70.326600 Y174.981910 Z-1.000000 I0.592319 J1.655024
G01 X70.326600 Y174.625000 Z-1.000000
G01 X66.207644 Y174.625000 Z-1.000000
G01 X61.992226 Y180.586390 Z-1.000000
G01 X61.133708 Y180.586390 Z-1.000000
G00 Z5.000000

(End cutting path id: path24)


(Start cutting path id: path24)
(Change tool to Cylindrical cutter)

G00 Z5.000000
G00 X61.133708 Y180.586390

G01 Z-2.000000 F100.0(Penetrate)
G01 X61.133708 Y176.920810 Z-2.000000 F400.000000
G03 X61.182730 Y175.870205 Z-2.000000 I11.282446 J0.000000
G03 X61.259109 Y175.579980 Z-2.000000 I0.914622 J0.085540
G03 X61.432153 Y175.347876 Z-2.000000 I0.735310 J0.367649
G03 X61.722130 Y175.145900 Z-2.000000 I0.837741 J0.893595
G03 X62.063996 Y175.040761 Z-2.000000 I0.486069 J0.972117
G03 X62.947206 Y174.981910 Z-2.000000 I0.883210 J6.597958
G01 X62.947206 Y174.625000 Z-2.000000
G01 X56.252697 Y174.625000 Z-2.000000
G01 X56.252697 Y174.981910 Z-2.000000
G03 X57.145031 Y175.041369 Z-2.000000 I0.000000 J6.725576
G03 X57.477773 Y175.145900 Z-2.000000 I-0.135719 J1.013878
G03 X57.766513 Y175.356766 Z-2.000000 I-0.583360 J1.101920
G03 X57.931147 Y175.589630 Z-2.000000 I-0.554840 J0.566899
G03 X58.013143 Y175.872244 Z-2.000000 I-0.729957 J0.364987
G03 X58.066195 Y176.920810 Z-2.000000 I-10.335805 J1.048566
G01 X58.066195 Y185.409530 Z-2.000000
G03 X58.013143 Y186.458096 Z-2.000000 I-10.388858 J0.000000
G03 X57.931147 Y186.740710 Z-2.000000 I-0.811953 J-0.082372
G03 X57.764021 Y186.980451 Z-2.000000 I-0.715833 J-0.320891
G03 X57.477773 Y187.184440 Z-2.000000 I-0.793758 J-0.811010
G03 X57.135907 Y187.289579 Z-2.000000 I-0.486069 J-0.972117
G03 X56.252697 Y187.348430 Z-2.000000 I-0.883210 J-6.597958
G01 X56.252697 Y187.705340 Z-2.000000
G01 X62.329845 Y187.705340 Z-2.000000
G02 X64.686620 Y187.594293 Z-2.000000 I-0.000000 J-25.064605
G02 X65.802501 Y187.377360 Z-2.000000 I-0.547099 J-5.792687
G02 X66.802606 Y186.903317 Z-2.000000 I-1.039220 J-3.484474
G02 X67.596707 Y186.161930 Z-2.000000 I-1.964948 J-2.900637
G02 X68.107455 Y185.220207 Z-2.000000 I-2.448682 J-1.937419
G02 X68.291238 Y184.097630 Z-2.000000 I-3.336549 J-1.122577
G02 X68.015305 Y182.772907 Z-2.000000 I-3.317884 J0.000000
G02 X67.249441 Y181.705360 Z-2.000000 I-2.867800 J1.248883
G02 X66.524320 Y181.219300 Z-2.000000 I-2.068720 J2.302278
G02 X65.387712 Y180.808260 Z-2.000000 I-2.575636 J5.345153
G01 X68.532395 Y176.380620 Z-2.000000
G03 X69.174234 Y175.545145 Z-2.000000 I13.519705 J9.722008
G03 X69.410205 Y175.309880 Z-2.000000 I1.288186 J1.056076
G03 X69.831792 Y175.082004 Z-2.000000 I0.955357 J1.263555
G03 X70.326600 Y174.981910 Z-2.000000 I0.592319 J1.655024
G01 X70.326600 Y174.625000 Z-2.000000
G01 X66.207644 Y174.625000 Z-2.000000
G01 X61.992226 Y180.586390 Z-2.000000
G01 X61.133708 Y180.586390 Z-2.000000
G00 Z5.000000

(End cutting path id: path24)


(Start cutting path id: path24)
(Change tool to Cylindrical cutter)

G00 Z5.000000
G00 X61.133708 Y187.001160

G01 Z-1.000000 F100.0(Penetrate)
G01 X61.133708 Y181.271280 Z-1.000000 F400.000000
G01 X61.683545 Y181.271280 Z-1.000000
G03 X63.010427 Y181.350732 Z-1.000000 I-0.000000 J11.119415
G03 X63.689969 Y181.512430 Z-1.000000 I-0.366409 J3.048605
G03 X64.275891 Y181.858072 Z-1.000000 I-0.698349 J1.853258
G03 X64.731765 Y182.399890 Z-1.000000 I-1.391432 J1.633412
G03 X65.004059 Y183.077509 Z-1.000000 I-2.016222 J1.203715
G03 X65.117616 Y184.078340 Z-1.000000 I-4.353609 J1.000831
G03 X64.899016 Y185.483833 Z-1.000000 I-4.627626 J-0.000000
G03 X64.413439 Y186.287340 Z-1.000000 I-1.920796 J-0.612304
G03 X63.623514 Y186.775248 Z-1.000000 I-1.367439 J-1.330490
G03 X62.165859 Y187.001160 Z-1.000000 I-1.457655 J-4.589666
G01 X61.133708 Y187.001160 Z-1.000000
G00 Z5.000000

(End cutting path id: path24)


(Start cutting path id: path24)
(Change tool to Cylindrical cutter)

G00 Z5.000000
G00 X61.133708 Y187.001160

G01 Z-2.000000 F100.0(Penetrate)
G01 X61.133708 Y181.271280 Z-2.000000 F400.000000
G01 X61.683545 Y181.271280 Z-2.000000
G03 X63.010427 Y181.350732 Z-2.000000 I-0.000000 J11.119415
G03 X63.689969 Y181.512430 Z-2.000000 I-0.366409 J3.048605
G03 X64.275891 Y181.858072 Z-2.000000 I-0.698349 J1.853258
G03 X64.731765 Y182.399890 Z-2.000000 I-1.391432 J1.633412
G03 X65.004059 Y183.077509 Z-2.000000 I-2.016222 J1.203715
G03 X65.117616 Y184.078340 Z-2.000000 I-4.353609 J1.000831
G03 X64.899016 Y185.483833 Z-2.000000 I-4.627626 J-0.000000
G03 X64.413439 Y186.287340 Z-2.000000 I-1.920796 J-0.612304
G03 X63.623514 Y186.775248 Z-2.000000 I-1.367439 J-1.330490
G03 X62.165859 Y187.001160 Z-2.000000 I-1.457655 J-4.589666
G01 X61.133708 Y187.001160 Z-2.000000
G00 Z5.000000

(End cutting path id: path24)


(Start cutting path id: path22)
(Change tool to Cylindrical cutter)

G00 Z5.000000
G00 X41.870114 Y174.625000

G01 Z-1.000000 F100.0(Penetrate)
G01 X41.870114 Y174.981910 Z-1.000000 F400.000000
G01 X42.304196 Y174.981910 Z-1.000000
G03 X42.858546 Y175.036801 Z-1.000000 I-0.000000 J2.826684
G03 X43.172360 Y175.155540 Z-1.000000 I-0.201110 J1.005567
G03 X43.442113 Y175.374127 Z-1.000000 I-0.612590 J1.031727
G03 X43.625735 Y175.647500 Z-1.000000 I-0.793798 J0.731540
G03 X43.676689 Y175.857442 Z-1.000000 I-0.598033 J0.256300
G03 X43.712555 Y176.862930 Z-1.000000 I-14.076256 J1.005488
G01 X43.712555 Y185.467400 Z-1.000000
G03 X43.670547 Y186.462099 Z-1.000000 I-11.797586 J-0.000000
G03 X43.606446 Y186.721420 Z-1.000000 I-0.846288 J-0.071609
G03 X43.461152 Y186.937101 Z-1.000000 I-0.625693 J-0.264719
G03 X43.172364 Y187.155500 Z-1.000000 I-0.931237 J-0.931241
G03 X42.837676 Y187.289868 Z-1.000000 I-0.575603 J-0.949723
G03 X42.304200 Y187.348430 Z-1.000000 I-0.533476 J-2.400582
G01 X41.870118 Y187.348430 Z-1.000000
G01 X41.870118 Y187.705340 Z-1.000000
G01 X47.725402 Y187.705340 Z-1.000000
G02 X50.028360 Y187.512336 Z-1.000000 I-0.000000 J-13.836147
G02 X51.497092 Y187.068680 Z-1.000000 I-1.015036 J-6.013261
G02 X53.042531 Y186.066771 Z-1.000000 I-2.446005 J-5.465820
G02 X54.140169 Y184.705350 Z-1.000000 I-3.598526 J-4.024483
G02 X54.805895 Y183.059184 Z-1.000000 I-5.674907 J-3.252685
G02 X55.046918 Y181.126580 Z-1.000000 I-7.627628 J-1.932604
G02 X54.929505 Y179.768735 Z-1.000000 I-7.910252 J0.000000
G02 X54.603190 Y178.579970 Z-1.000000 I-6.375324 J1.110853
G02 X54.068067 Y177.479212 Z-1.000000 I-6.618775 J2.537200
G02 X53.455284 Y176.660360 Z-1.000000 I-4.248015 J2.540267
G02 X52.696160 Y175.981584 Z-1.000000 I-4.186172 J3.917819
G02 X51.825065 Y175.444930 Z-1.000000 I-3.459431 J4.640029
G02 X50.883383 Y175.067150 Z-1.000000 I-2.890560 J5.842677
G02 X49.577485 Y174.740760 Z-1.000000 I-3.430048 J10.948077
G02 X48.985231 Y174.664333 Z-1.000000 I-0.875038 J4.447923
G02 X47.725402 Y174.625000 Z-1.000000 I-1.259829 J20.156422
G01 X41.870114 Y174.625000 Z-1.000000
G00 Z5.000000

(End cutting path id: path22)


(Start cutting path id: path22)
(Change tool to Cylindrical cutter)

G00 Z5.000000
G00 X41.870114 Y174.625000

G01 Z-2.000000 F100.0(Penetrate)
G01 X41.870114 Y174.981910 Z-2.000000 F400.000000
G01 X42.304196 Y174.981910 Z-2.000000
G03 X42.858546 Y175.036801 Z-2.000000 I-0.000000 J2.826684
G03 X43.172360 Y175.155540 Z-2.000000 I-0.201110 J1.005567
G03 X43.442113 Y175.374127 Z-2.000000 I-0.612590 J1.031727
G03 X43.625735 Y175.647500 Z-2.000000 I-0.793798 J0.731540
G03 X43.676689 Y175.857442 Z-2.000000 I-0.598033 J0.256300
G03 X43.712555 Y176.862930 Z-2.000000 I-14.076256 J1.005488
G01 X43.712555 Y185.467400 Z-2.000000
G03 X43.670547 Y186.462099 Z-2.000000 I-11.797586 J-0.000000
G03 X43.606446 Y186.721420 Z-2.000000 I-0.846288 J-0.071609
G03 X43.461152 Y186.937101 Z-2.000000 I-0.625693 J-0.264719
G03 X43.172364 Y187.155500 Z-2.000000 I-0.931237 J-0.931241
G03 X42.837676 Y187.289868 Z-2.000000 I-0.575603 J-0.949723
G03 X42.304200 Y187.348430 Z-2.000000 I-0.533476 J-2.400582
G01 X41.870118 Y187.348430 Z-2.000000
G01 X41.870118 Y187.705340 Z-2.000000
G01 X47.725402 Y187.705340 Z-2.000000
G02 X50.028360 Y187.512336 Z-2.000000 I-0.000000 J-13.836147
G02 X51.497092 Y187.068680 Z-2.000000 I-1.015036 J-6.013261
G02 X53.042531 Y186.066771 Z-2.000000 I-2.446005 J-5.465820
G02 X54.140169 Y184.705350 Z-2.000000 I-3.598526 J-4.024483
G02 X54.805895 Y183.059184 Z-2.000000 I-5.674907 J-3.252685
G02 X55.046918 Y181.126580 Z-2.000000 I-7.627628 J-1.932604
G02 X54.929505 Y179.768735 Z-2.000000 I-7.910252 J0.000000
G02 X54.603190 Y178.579970 Z-2.000000 I-6.375324 J1.110853
G02 X54.068067 Y177.479212 Z-2.000000 I-6.618775 J2.537200
G02 X53.455284 Y176.660360 Z-2.000000 I-4.248015 J2.540267
G02 X52.696160 Y175.981584 Z-2.000000 I-4.186172 J3.917819
G02 X51.825065 Y175.444930 Z-2.000000 I-3.459431 J4.640029
G02 X50.883383 Y175.067150 Z-2.000000 I-2.890560 J5.842677
G02 X49.577485 Y174.740760 Z-2.000000 I-3.430048 J10.948077
G02 X48.985231 Y174.664333 Z-2.000000 I-0.875038 J4.447923
G02 X47.725402 Y174.625000 Z-2.000000 I-1.259829 J20.156422
G01 X41.870114 Y174.625000 Z-2.000000
G00 Z5.000000

(End cutting path id: path22)


(Start cutting path id: path22)
(Change tool to Cylindrical cutter)

G00 Z5.000000
G00 X46.857234 Y186.962580

G01 Z-1.000000 F100.0(Penetrate)
G01 X46.857234 Y176.756820 Z-1.000000 F400.000000
G03 X46.888410 Y175.952836 Z-1.000000 I10.382435 J-0.000000
G03 X46.934404 Y175.763260 Z-1.000000 I0.608485 J0.047261
G03 X47.037538 Y175.603803 Z-1.000000 I0.500949 J0.210924
G03 X47.194853 Y175.483520 Z-1.000000 I0.432595 J0.402763
G03 X47.467158 Y175.384567 Z-1.000000 I0.445572 J0.801998
G03 X47.947262 Y175.338820 Z-1.000000 I0.480104 J2.496440
G03 X49.405336 Y175.649908 Z-1.000000 I0.000000 J3.572551
G03 X50.407060 Y176.438500 Z-1.000000 I-1.066177 J2.384858
G03 X51.194036 Y178.051354 Z-1.000000 I-3.427679 J2.670927
G03 X51.564612 Y181.049410 Z-1.000000 I-11.942243 J2.998056
G03 X51.325174 Y183.507994 Z-1.000000 I-12.742257 J-0.000000
G03 X50.773618 Y185.071910 Z-1.000000 I-5.634795 J-1.108040
G03 X50.009726 Y186.100113 Z-1.000000 I-3.796624 J-2.022798
G03 X49.162692 Y186.673190 Z-1.000000 I-1.933213 J-1.944859
G03 X48.446997 Y186.867968 Z-1.000000 I-1.044728 J-2.426499
G03 X46.857234 Y186.962580 Z-1.000000 I-1.516882 J-12.084409
G01 X46.857234 Y186.962580 Z-1.000000
G00 Z5.000000

